; generated by Slic3r 1.2.9 on 2016-01-07 at 15:55:44

; external perimeters extrusion width = 0.40mm
; perimeters extrusion width = 0.48mm
; infill extrusion width = 0.48mm
; solid infill extrusion width = 0.48mm
; top infill extrusion width = 0.48mm

M190 S80 ; set bed temperature
M109 S230
G28 ; home all axes
G92 E0  ;reset extruder
G21 ; set units to millimeters
G90 ; use absolute coordinates
M83 ; use relative distances for extrusion
G1 E-1.00000 F1800.00000
G1 Z0.350 F7800.000
G1 X79.343 Y76.522 F7800.000
G1 E1.00000 F1800.00000
G1 X79.993 Y75.920 E0.08343 F1440.000
G1 X82.287 Y74.065 E0.27771
G1 X82.997 Y73.564 E0.08181
G1 X85.480 Y72.046 E0.27392
G1 X86.226 Y71.653 E0.07935
G1 X88.860 Y70.472 E0.27169
G1 X89.626 Y70.184 E0.07699
G1 X92.373 Y69.341 E0.27050
G1 X93.148 Y69.154 E0.07507
G1 X95.971 Y68.648 E0.26993
G1 X96.749 Y68.555 E0.07382
G1 X99.610 Y68.387 E0.26973
G1 X100.532 Y68.395 E0.08679
G1 X103.250 Y68.555 E0.25631 F1440.000
G1 X104.029 Y68.648 E0.07383
G1 X106.852 Y69.154 E0.26993
G1 X107.627 Y69.341 E0.07506
G1 X110.374 Y70.184 E0.27050
G1 X111.140 Y70.472 E0.07699
G1 X113.774 Y71.653 E0.27170
G1 X114.519 Y72.046 E0.07934
G1 X117.002 Y73.564 E0.27393
G1 X117.713 Y74.064 E0.08181
G1 X120.007 Y75.920 E0.27772
G1 X120.657 Y76.522 E0.08344
G1 X122.662 Y78.644 E0.27483
G1 X123.238 Y79.343 E0.08524
G1 X124.878 Y81.641 E0.26570
G1 X125.356 Y82.418 E0.08587
G1 X126.632 Y84.854 E0.25891
G1 X126.999 Y85.691 E0.08602
G1 X127.910 Y88.233 E0.25415
G1 X128.158 Y89.111 E0.08592
G1 X128.705 Y91.723 E0.25114
G1 X128.830 Y92.625 E0.08576
G1 X129.012 Y95.272 E0.24969
G1 X129.012 Y96.182 E0.08570
G1 X128.830 Y98.828 E0.24969
G1 X128.705 Y99.731 E0.08576
G1 X128.158 Y102.342 E0.25114
G1 X127.910 Y103.221 E0.08591
G1 X126.999 Y105.762 E0.25415
G1 X126.632 Y106.599 E0.08602
G1 X125.356 Y109.036 E0.25891
G1 X124.878 Y109.813 E0.08587
G1 X123.238 Y112.110 E0.26569
G1 X122.662 Y112.809 E0.08524
G1 X120.657 Y114.932 E0.27482
G1 X120.339 Y115.246 E0.04212
G1 X104.532 Y129.864 E2.02664
G1 X102.604 Y131.106 E0.21588
G1 X100.368 Y131.616 E0.21588
G1 X98.092 Y131.334 E0.21588
G1 X95.546 Y129.874 E0.27623
G1 X79.671 Y115.256 E2.03130
G1 X79.343 Y114.932 E0.04345
G1 X77.338 Y112.809 E0.27483
G1 X76.762 Y112.110 E0.08523
G1 X75.122 Y109.813 E0.26570
G1 X74.644 Y109.036 E0.08586
G1 X73.368 Y106.599 E0.25891
G1 X73.001 Y105.762 E0.08601
G1 X72.090 Y103.221 E0.25416
G1 X71.842 Y102.342 E0.08592
G1 X71.295 Y99.731 E0.25114
G1 X71.170 Y98.828 E0.08576
G1 X70.988 Y96.182 E0.24969
G1 X70.988 Y95.272 E0.08569
G1 X71.170 Y92.625 E0.24969
G1 X71.295 Y91.723 E0.08576
G1 X71.842 Y89.111 E0.25114
G1 X72.090 Y88.233 E0.08592
G1 X73.001 Y85.691 E0.25415
G1 X73.368 Y84.854 E0.08601
G1 X74.644 Y82.418 E0.25892
G1 X75.122 Y81.641 E0.08586
G1 X76.762 Y79.343 E0.26570
G1 X77.338 Y78.644 E0.08523
G1 X79.301 Y76.565 E0.26918
G1 E-1.00000 F1800.00000
G1 X100.034 Y122.821 F7800.000
G1 E1.00000 F1800.00000
G1 X86.002 Y109.839 E1.79942 F840.000
G1 X85.257 Y109.216 E0.09140
G1 X83.392 Y107.241 E0.25567
G1 X81.879 Y105.123 E0.24499
G1 X80.706 Y102.882 E0.23811
G1 X79.869 Y100.548 E0.23334
G1 X79.368 Y98.153 E0.23036
G1 X79.200 Y95.727 E0.22894
G1 X79.368 Y93.300 E0.22894
G1 X79.869 Y90.905 E0.23036
G1 X80.706 Y88.571 E0.23334
G1 X81.879 Y86.330 E0.23811
G1 X83.392 Y84.212 E0.24499
G1 X85.248 Y82.248 E0.25442
G1 X87.377 Y80.526 E0.25771
G1 X89.683 Y79.116 E0.25442
G1 X92.133 Y78.018 E0.25278
G1 X94.694 Y77.232 E0.25210
G1 X97.328 Y76.760 E0.25192
G1 X100.000 Y76.603 E0.25191
G1 X102.671 Y76.760 E0.25191
G1 X105.306 Y77.232 E0.25192
G1 X107.866 Y78.018 E0.25211
G1 X110.317 Y79.116 E0.25278
G1 X112.623 Y80.526 E0.25443
G1 X114.752 Y82.248 E0.25772
G1 X116.608 Y84.212 E0.25442
G1 X118.121 Y86.331 E0.24499
G1 X119.294 Y88.572 E0.23811
G1 X120.131 Y90.905 E0.23334
G1 X120.632 Y93.300 E0.23037
G1 X120.800 Y95.727 E0.22894
G1 X120.632 Y98.153 E0.22894
G1 X120.131 Y100.549 E0.23037
G1 X119.294 Y102.882 E0.23334
G1 X118.121 Y105.123 E0.23811
G1 X116.608 Y107.241 E0.24499
G1 X114.716 Y109.245 E0.25942
G1 X100.078 Y122.780 E1.87662
G1 X100.034 Y123.672 F7800.000
G1 X85.589 Y110.308 E1.85235 F840.000
G1 X84.828 Y109.671 E0.09339
G1 X82.908 Y107.639 E0.26316
G1 X81.346 Y105.451 E0.25308
G1 X80.132 Y103.134 E0.24624
G1 X79.266 Y100.719 E0.24147
G1 X78.747 Y98.239 E0.23848
G1 X78.574 Y95.727 E0.23704
G1 X78.747 Y93.214 E0.23704
G1 X79.266 Y90.735 E0.23848
G1 X80.132 Y88.320 E0.24147
G1 X81.346 Y86.002 E0.24623
G1 X82.908 Y83.814 E0.25308
G1 X84.822 Y81.788 E0.26239
G1 X87.016 Y80.014 E0.26552
G1 X89.391 Y78.562 E0.26204
G1 X91.913 Y77.432 E0.26016
G1 X94.547 Y76.624 E0.25929
G1 X97.254 Y76.138 E0.25896
G1 X100.000 Y75.977 E0.25887
G1 X102.745 Y76.138 E0.25887
G1 X105.453 Y76.624 E0.25896
G1 X108.087 Y77.432 E0.25929
G1 X110.609 Y78.562 E0.26017
G1 X112.984 Y80.014 E0.26205
G1 X115.178 Y81.788 E0.26553
G1 X117.092 Y83.814 E0.26239
G1 X118.654 Y86.002 E0.25308
G1 X119.868 Y88.320 E0.24624
G1 X120.734 Y90.735 E0.24147
G1 X121.253 Y93.215 E0.23848
G1 X121.426 Y95.727 E0.23704
G1 X121.253 Y98.239 E0.23704
G1 X120.734 Y100.719 E0.23848
G1 X119.868 Y103.134 E0.24147
G1 X118.654 Y105.451 E0.24623
G1 X117.092 Y107.639 E0.25308
G1 X115.155 Y109.689 E0.26544
G1 X100.078 Y123.631 E1.93301
G1 X100.034 Y124.523 F7800.000
G1 X85.176 Y110.777 E1.90529 F588.000
G1 X84.399 Y110.127 E0.09537
G1 X82.424 Y108.037 E0.27064
G1 X80.812 Y105.779 E0.26117
G1 X79.559 Y103.385 E0.25436
G1 X78.664 Y100.889 E0.24960
G1 X78.127 Y98.325 E0.24660
G1 X77.948 Y95.727 E0.24515
G1 X78.127 Y93.128 E0.24515
G1 X78.664 Y90.564 E0.24659
G1 X79.559 Y88.068 E0.24960
G1 X80.812 Y85.674 E0.25436
G1 X82.424 Y83.416 E0.26117
G1 X84.397 Y81.328 E0.27036
G1 X86.655 Y79.503 E0.27333
G1 X89.099 Y78.009 E0.26965
G1 X91.693 Y76.846 E0.26755
G1 X94.399 Y76.015 E0.26647
G1 X97.181 Y75.517 E0.26599
G1 X100.000 Y75.351 E0.26582
G1 X102.819 Y75.517 E0.26582
G1 X105.600 Y76.015 E0.26599
G1 X108.307 Y76.846 E0.26648
G1 X110.901 Y78.009 E0.26756
G1 X113.345 Y79.503 E0.26966
G1 X115.603 Y81.328 E0.27334
G1 X117.576 Y83.416 E0.27037
G1 X119.188 Y85.674 E0.26117
G1 X120.441 Y88.068 E0.25436
G1 X121.336 Y90.564 E0.24960
G1 X121.873 Y93.129 E0.24660
G1 X122.052 Y95.727 E0.24515
G1 X121.873 Y98.325 E0.24515
G1 X121.336 Y100.889 E0.24660
G1 X120.441 Y103.385 E0.24960
G1 X119.188 Y105.779 E0.25436
G1 X117.575 Y108.037 E0.26116
G1 X115.595 Y110.134 E0.27145
G1 X100.078 Y124.483 E1.98940
G1 X99.925 Y124.138 F7800.000
G1 X97.097 Y119.418 F7800.000
G1 X81.943 Y104.263 E2.02357 F1080.000
G1 X81.005 Y102.439 F7800.000
G1 X100.508 Y121.942 E2.60417 F1080.000
G1 X100.968 Y121.516 E0.05923
G1 X80.509 Y101.057 E2.73183
G1 X80.127 Y99.788 E0.12507
G1 X101.429 Y121.090 E2.84433
G1 X101.890 Y120.664 E0.05923
G1 X79.893 Y98.667 E2.93717
G1 X79.719 Y97.607 E0.10143
G1 X102.350 Y120.238 E3.02187
G1 X102.811 Y119.812 E0.05923
G1 X79.653 Y96.655 E3.09212
G1 X79.588 Y95.703 E0.09010
G1 X103.271 Y119.386 E3.16237
G1 X103.732 Y118.960 E0.05923
G1 X79.631 Y94.859 E3.21811
G1 X79.688 Y94.030 E0.07849
G1 X104.192 Y118.535 E3.27198
G1 X104.653 Y118.109 E0.05923
G1 X79.749 Y93.205 E3.32527
G1 X79.903 Y92.472 E0.07070
G1 X105.113 Y117.683 E3.36627
G1 X105.574 Y117.257 E0.05923
G1 X80.056 Y91.739 E3.40728
G1 X80.210 Y91.006 E0.07070
G1 X106.035 Y116.831 E3.44828
G1 X106.495 Y116.405 E0.05923
G1 X80.433 Y90.343 E3.47992
G1 X80.667 Y89.691 E0.06545
G1 X106.956 Y115.979 E3.51018
G1 X107.416 Y115.553 E0.05923
G1 X80.901 Y89.039 E3.54044
G1 X81.163 Y88.414 E0.06394
G1 X107.877 Y115.128 E3.56695
G1 X108.337 Y114.702 E0.05923
G1 X81.468 Y87.832 E3.58777
G1 X81.773 Y87.250 E0.06201
G1 X108.798 Y114.276 E3.60859
G1 X109.258 Y113.850 E0.05923
G1 X82.077 Y86.669 E3.62941
G1 X82.424 Y86.129 E0.06057
G1 X109.719 Y113.424 E3.64460
G1 X110.180 Y112.998 E0.05923
G1 X82.793 Y85.612 E3.65679
G1 X83.163 Y85.095 E0.06000
G1 X110.640 Y112.572 E3.66897
G1 X111.101 Y112.146 E0.05923
G1 X83.532 Y84.578 E3.68116
G1 X83.942 Y84.101 E0.05935
G1 X111.561 Y111.720 E3.68788
G1 X112.022 Y111.295 E0.05923
G1 X84.373 Y83.646 E3.69188
G1 X84.803 Y83.190 E0.05921
G1 X112.482 Y110.869 E3.69588
G1 X112.943 Y110.443 E0.05923
G1 X85.241 Y82.741 E3.69889
G1 X85.692 Y82.306 E0.05919
G1 X113.403 Y110.017 E3.70017
G1 X113.864 Y109.591 E0.05923
G1 X86.182 Y81.910 E3.69622
G1 X86.672 Y81.513 E0.05951
G1 X114.317 Y109.157 E3.69121
G1 X114.760 Y108.714 E0.05918
G1 X87.163 Y81.117 E3.68495
G1 X87.667 Y80.734 E0.05973
G1 X115.196 Y108.264 E3.67595
G1 X115.627 Y107.808 E0.05921
G1 X88.217 Y80.398 E3.65999
G1 X88.767 Y80.062 E0.06088
G1 X116.058 Y107.353 E3.64403
G1 X116.468 Y106.876 E0.05934
G1 X89.317 Y79.726 E3.62535
G1 X89.876 Y79.398 E0.06116
G1 X116.837 Y106.359 E3.60003
G1 X117.206 Y105.842 E0.06000
G1 X90.488 Y79.124 E3.56761
G1 X91.100 Y78.849 E0.06333
G1 X117.576 Y105.325 E3.53519
G1 X117.923 Y104.785 E0.06056
G1 X91.712 Y78.575 E3.49977
G1 X92.340 Y78.316 E0.06410
G1 X118.227 Y104.204 E3.45665
G1 X118.532 Y103.622 E0.06201
G1 X93.018 Y78.108 E3.40676
G1 X93.696 Y77.900 E0.06699
G1 X118.836 Y103.040 E3.35687
G1 X119.098 Y102.416 E0.06394
G1 X94.375 Y77.692 E3.30129
G1 X95.093 Y77.524 E0.06966
G1 X119.332 Y101.763 E3.23660
G1 X119.566 Y101.111 E0.06545
G1 X95.845 Y77.389 E3.16747
G1 X96.596 Y77.254 E0.07210
G1 X119.790 Y100.448 E3.09696
G1 X119.943 Y99.715 E0.07070
G1 X97.359 Y77.130 E3.01565
G1 X98.198 Y77.082 E0.07932
G1 X120.097 Y98.982 E2.92415
G1 X120.250 Y98.249 E0.07070
G1 X99.036 Y77.035 E2.83265
G1 X99.875 Y76.987 E0.07932
G1 X120.312 Y97.424 E2.72887
G1 X120.369 Y96.595 E0.07849
G1 X100.812 Y77.038 E2.61137
G1 X101.754 Y77.093 E0.08909
G1 X120.412 Y95.752 E2.49137
G1 X120.347 Y94.800 E0.09010
G1 X102.728 Y77.181 E2.35258
G1 X103.808 Y77.374 E0.10360
G1 X120.281 Y93.848 E2.19962
G1 X120.108 Y92.788 E0.10141
G1 X104.888 Y77.568 E2.03223
G1 X106.137 Y77.930 E0.12275
G1 X119.873 Y91.666 E1.83416
G1 X119.491 Y90.398 E0.12504
G1 X107.416 Y78.323 E1.61242
G1 X108.987 Y79.007 F7800.000
G1 X118.996 Y89.016 E1.33648 F1080.000
G1 X118.058 Y87.192 F7800.000
G1 X110.865 Y79.999 E0.96056 F1080.000
G1 X114.124 Y82.371 F7800.000
G1 X115.020 Y83.268 E0.11972 F1080.000
G1 X85.913 Y109.120 F7800.000
G1 X84.993 Y108.199 E0.12289 F1080.000
M104 S231 ; set temperature
M140 S85 ; wait for bed temperature to be reached
G1 E-1.00000 F1800.00000
G1 Z0.650 F7800.000
G1 X100.034 Y123.643 F7800.000
G1 E1.00000 F1800.00000
G1 X85.603 Y110.292 E1.06326 F2100.000
G1 X84.842 Y109.656 E0.05362
G1 X82.925 Y107.626 E0.15105
G1 X81.364 Y105.440 E0.14525
G1 X80.152 Y103.125 E0.14132
G1 X79.287 Y100.713 E0.13858
G1 X78.768 Y98.236 E0.13686
G1 X78.595 Y95.727 E0.13604
G1 X78.768 Y93.217 E0.13604
G1 X79.287 Y90.740 E0.13686
G1 X80.152 Y88.328 E0.13858
G1 X81.364 Y86.014 E0.14132
G1 X82.925 Y83.828 E0.14525
G1 X84.837 Y81.804 E0.15060
G1 X87.028 Y80.032 E0.15241
G1 X89.401 Y78.581 E0.15041
G1 X91.921 Y77.452 E0.14934
G1 X94.552 Y76.644 E0.14884
G1 X97.257 Y76.160 E0.14865
G1 X100.000 Y75.998 E0.14860
G1 X102.743 Y76.160 E0.14860
G1 X105.448 Y76.644 E0.14865
G1 X108.079 Y77.452 E0.14884
G1 X110.599 Y78.581 E0.14934
G1 X112.972 Y80.032 E0.15041
G1 X115.163 Y81.804 E0.15241
G1 X117.075 Y83.828 E0.15061
G1 X118.636 Y86.014 E0.14525
G1 X119.848 Y88.328 E0.14132
G1 X120.713 Y90.741 E0.13858
G1 X121.232 Y93.217 E0.13686
G1 X121.405 Y95.727 E0.13604
G1 X121.232 Y98.236 E0.13604
G1 X120.713 Y100.713 E0.13686
G1 X119.848 Y103.125 E0.13858
G1 X118.636 Y105.440 E0.14132
G1 X117.075 Y107.626 E0.14525
G1 X115.140 Y109.674 E0.15239
G1 X100.078 Y123.602 E1.10954
G1 X100.034 Y124.214 F7800.000
G1 X85.326 Y110.606 E1.08365 F2100.000
G1 X84.555 Y109.961 E0.05438
G1 X82.600 Y107.892 E0.15394
G1 X81.006 Y105.660 E0.14837
G1 X79.767 Y103.294 E0.14445
G1 X78.883 Y100.827 E0.14171
G1 X78.352 Y98.294 E0.13999
G1 X78.176 Y95.727 E0.13916
G1 X78.352 Y93.160 E0.13916
G1 X78.883 Y90.626 E0.13999
G1 X79.767 Y88.160 E0.14171
G1 X81.006 Y85.794 E0.14445
G1 X82.600 Y83.561 E0.14837
G1 X84.552 Y81.496 E0.15368
G1 X86.786 Y79.689 E0.15542
G1 X89.205 Y78.210 E0.15334
G1 X91.773 Y77.059 E0.15218
G1 X94.453 Y76.237 E0.15160
G1 X97.208 Y75.743 E0.15136
G1 X100.000 Y75.578 E0.15128
G1 X102.792 Y75.743 E0.15128
G1 X105.547 Y76.237 E0.15136
G1 X108.227 Y77.059 E0.15161
G1 X110.795 Y78.210 E0.15219
G1 X113.214 Y79.689 E0.15335
G1 X115.448 Y81.496 E0.15542
G1 X117.400 Y83.561 E0.15368
G1 X118.994 Y85.794 E0.14837
G1 X120.233 Y88.160 E0.14445
G1 X121.117 Y90.626 E0.14171
G1 X121.648 Y93.160 E0.13999
G1 X121.824 Y95.727 E0.13916
G1 X121.648 Y98.294 E0.13916
G1 X121.117 Y100.827 E0.13999
G1 X120.233 Y103.294 E0.14171
G1 X118.994 Y105.660 E0.14445
G1 X117.400 Y107.892 E0.14837
G1 X115.435 Y109.972 E0.15471
G1 X100.078 Y124.173 E1.13126
G1 X100.034 Y124.728 F7800.000
G1 X85.077 Y110.890 E0.88297 F1470.000
G1 X84.296 Y110.237 E0.04412
G1 X82.308 Y108.133 E0.12542
G1 X80.684 Y105.858 E0.12113
G1 X79.421 Y103.445 E0.11800
G1 X78.519 Y100.930 E0.11580
G1 X77.978 Y98.346 E0.11442
G1 X77.797 Y95.727 E0.11375
G1 X77.978 Y93.108 E0.11375
G1 X78.519 Y90.523 E0.11442
G1 X79.421 Y88.008 E0.11580
G1 X80.684 Y85.596 E0.11800
G1 X82.308 Y83.321 E0.12112
G1 X84.295 Y81.218 E0.12535
G1 X86.568 Y79.380 E0.12670
G1 X89.029 Y77.876 E0.12498
G1 X91.640 Y76.705 E0.12399
G1 X94.364 Y75.869 E0.12347
G1 X97.163 Y75.368 E0.12323
G1 X100.000 Y75.200 E0.12314
G1 X102.837 Y75.368 E0.12314
G1 X105.636 Y75.869 E0.12323
G1 X108.360 Y76.705 E0.12347
G1 X110.971 Y77.876 E0.12399
G1 X113.432 Y79.380 E0.12498
G1 X115.705 Y81.218 E0.12670
G1 X117.692 Y83.321 E0.12535
G1 X119.316 Y85.596 E0.12113
G1 X120.579 Y88.008 E0.11800
G1 X121.481 Y90.524 E0.11580
G1 X122.022 Y93.108 E0.11442
G1 X122.203 Y95.727 E0.11375
G1 X122.022 Y98.346 E0.11375
G1 X121.481 Y100.930 E0.11442
G1 X120.579 Y103.446 E0.11580
G1 X119.316 Y105.858 E0.11800
G1 X117.692 Y108.133 E0.12112
G1 X115.701 Y110.240 E0.12563
G1 X100.078 Y124.687 E0.92207
G1 X99.925 Y124.343 F7800.000
G1 X99.893 Y123.226 F7800.000
G1 X118.980 Y104.140 E1.46748 F2700.000
G1 X119.632 Y102.893 F7800.000
G1 X99.584 Y122.940 E1.54136 F2700.000
G1 X99.275 Y122.654 E0.02291
G1 X119.965 Y101.964 E1.59073
G1 X120.297 Y101.036 F7800.000
G1 X98.965 Y122.368 E1.64011 F2700.000
G1 X98.656 Y122.082 E0.02291
G1 X120.550 Y100.188 E1.68331
G1 X120.708 Y99.434 E0.04184
G1 X98.347 Y121.795 E1.71922
G1 X98.037 Y121.509 E0.02291
G1 X120.866 Y98.681 E1.75513
G1 X120.997 Y97.954 E0.04017
G1 X97.728 Y121.223 E1.78903
G1 X97.419 Y120.937 E0.02291
G1 X121.041 Y97.315 E1.81620
G1 X121.085 Y96.675 E0.03485
G1 X97.110 Y120.651 E1.84336
G1 X96.800 Y120.365 E0.02291
G1 X121.129 Y96.036 E1.87053
G1 X121.142 Y95.427 E0.03308
G1 X96.491 Y120.078 E1.89530
G1 X96.182 Y119.792 E0.02291
G1 X121.104 Y94.870 E1.91614
G1 X121.065 Y94.313 E0.03036
G1 X95.872 Y119.506 E1.93697
G1 X95.563 Y119.220 E0.02291
G1 X121.027 Y93.756 E1.95780
G1 X120.989 Y93.199 E0.03036
G1 X95.254 Y118.934 E1.97863
G1 X94.944 Y118.648 E0.02291
G1 X120.888 Y92.704 E1.99470
G1 X120.785 Y92.211 E0.02735
G1 X94.635 Y118.361 E2.01055
G1 X94.326 Y118.075 E0.02291
G1 X120.682 Y91.719 E2.02641
G1 X120.579 Y91.226 E0.02735
G1 X94.016 Y117.789 E2.04226
G1 X93.707 Y117.503 E0.02291
G1 X120.475 Y90.735 E2.05804
G1 X120.318 Y90.297 E0.02531
G1 X93.398 Y117.217 E2.06974
G1 X93.088 Y116.931 E0.02291
G1 X120.161 Y89.858 E2.08144
G1 X120.004 Y89.420 E0.02531
G1 X92.779 Y116.644 E2.09313
G1 X92.470 Y116.358 E0.02291
G1 X119.846 Y88.982 E2.10483
G1 X119.689 Y88.544 E0.02531
G1 X92.161 Y116.072 E2.11653
G1 X91.851 Y115.786 E0.02291
G1 X119.503 Y88.134 E2.12598
G1 X119.298 Y87.744 E0.02398
G1 X91.542 Y115.500 E2.13403
G1 X91.233 Y115.214 E0.02291
G1 X119.094 Y87.353 E2.14208
G1 X118.889 Y86.962 E0.02398
G1 X90.923 Y114.927 E2.15012
G1 X90.614 Y114.641 E0.02291
G1 X118.684 Y86.571 E2.15817
G1 X118.480 Y86.180 E0.02398
G1 X90.305 Y114.355 E2.16622
G1 X89.995 Y114.069 E0.02291
G1 X118.240 Y85.824 E2.17160
G1 X117.992 Y85.477 E0.02321
G1 X89.686 Y113.783 E2.17631
G1 X89.377 Y113.497 E0.02291
G1 X117.744 Y85.129 E2.18102
G1 X117.496 Y84.782 E0.02321
G1 X89.067 Y113.210 E2.18572
G1 X88.758 Y112.924 E0.02291
G1 X117.248 Y84.434 E2.19043
