; generated by Slic3r 1.2.9 on 2015-11-05 at 16:29:00

; external perimeters extrusion width = 0.50mm
; perimeters extrusion width = 0.72mm
; infill extrusion width = 0.72mm
; solid infill extrusion width = 0.72mm
; top infill extrusion width = 0.72mm

M107
M104 S200 ; set temperature
G28 ; home all axes
G1 Z5 F5000 ; lift nozzle

M109 S200 ; wait for temperature to be reached
G21 ; set units to millimeters
G90 ; use absolute coordinates
M82 ; use absolute distances for extrusion
G92 E0
G1 Z0.350 F7800.000
G1 E-2.00000 F2400.00000
G92 E0
G1 X73.915 Y74.753 F7800.000
G1 E2.00000 F2400.00000
G1 X75.668 Y73.274 E2.07096 F1800.000
G1 X77.820 Y72.481 E2.14192
G1 X79.000 Y72.375 E2.17858
G1 X121.000 Y72.375 E3.47811
G1 X123.259 Y72.772 E3.54907
G1 X125.247 Y73.915 E3.62004 F1800.000
G1 X126.726 Y75.668 E3.69100
G1 X127.519 Y77.820 E3.76196
G1 X127.625 Y79.000 E3.79861
G1 X127.625 Y121.000 E5.09815
G1 X127.228 Y123.259 E5.16911
G1 X126.085 Y125.247 E5.24007
G1 X124.332 Y126.726 E5.31103
G1 X122.180 Y127.519 E5.38200
G1 X121.000 Y127.625 E5.41865
G1 X79.000 Y127.625 E6.71818
G1 X76.741 Y127.228 E6.78914
G1 X74.753 Y126.085 E6.86011
G1 X73.274 Y124.332 E6.93107
G1 X72.481 Y122.180 E7.00203
G1 X72.375 Y121.000 E7.03868
G1 X72.375 Y79.000 E8.33822
G1 X72.772 Y76.741 E8.40918
G1 X73.878 Y74.818 E8.47782
G1 E6.47782 F2400.00000
G92 E0
G1 X104.650 Y104.650 F7800.000
G1 E2.00000 F2400.00000
G1 X95.350 Y104.650 E2.28775 F1800.000
G1 X95.350 Y95.350 E2.57551
G1 X104.650 Y95.350 E2.86326
G1 X104.650 Y104.575 E3.14870
G1 X104.306 Y104.119 F7800.000
G1 X95.694 Y104.119 E3.41893 F1800.000
G1 X95.694 Y103.485 E3.43881
G1 X104.306 Y103.485 E3.70904
G1 X104.306 Y102.852 E3.72893
G1 X95.694 Y102.852 E3.99916
G1 X95.694 Y102.218 E4.01904
G1 X104.306 Y102.218 E4.28927
G1 X104.306 Y101.584 E4.30915
G1 X95.694 Y101.584 E4.57939
G1 X95.694 Y100.951 E4.59927
G1 X104.306 Y100.951 E4.86950
G1 X104.306 Y100.317 E4.88938
G1 X95.694 Y100.317 E5.15962
G1 X95.694 Y99.683 E5.17950
G1 X104.306 Y99.683 E5.44973
G1 X104.306 Y99.049 E5.46961
G1 X95.694 Y99.049 E5.73985
G1 X95.694 Y98.416 E5.75973
G1 X104.306 Y98.416 E6.02996
G1 X104.306 Y97.782 E6.04984
G1 X95.694 Y97.782 E6.32007
G1 X95.694 Y97.148 E6.33996
G1 X104.306 Y97.148 E6.61019
G1 X104.306 Y96.515 E6.63007
G1 X95.694 Y96.515 E6.90030
G1 X95.694 Y95.881 E6.92019
G1 X104.306 Y95.881 E7.19042
G1 E5.19042 F2400.00000
G92 E0
G1 X88.650 Y104.650 F7800.000
G1 E2.00000 F2400.00000
G1 X79.350 Y104.650 E2.28775 F1800.000
G1 X79.350 Y95.350 E2.57551
G1 X88.650 Y95.350 E2.86326
G1 X88.650 Y104.575 E3.14870
G1 X88.306 Y104.119 F7800.000
G1 X79.694 Y104.119 E3.41893 F1800.000
G1 X79.694 Y103.485 E3.43881
G1 X88.306 Y103.485 E3.70904
G1 X88.306 Y102.852 E3.72893
G1 X79.694 Y102.852 E3.99916
G1 X79.694 Y102.218 E4.01904
G1 X88.306 Y102.218 E4.28927
G1 X88.306 Y101.584 E4.30915
G1 X79.694 Y101.584 E4.57939
G1 X79.694 Y100.951 E4.59927
G1 X88.306 Y100.951 E4.86950
G1 X88.306 Y100.317 E4.88938
G1 X79.694 Y100.317 E5.15962
G1 X79.694 Y99.683 E5.17950
G1 X88.306 Y99.683 E5.44973
G1 X88.306 Y99.049 E5.46961
G1 X79.694 Y99.049 E5.73985
G1 X79.694 Y98.416 E5.75973
G1 X88.306 Y98.416 E6.02996
G1 X88.306 Y97.782 E6.04984
G1 X79.694 Y97.782 E6.32007
G1 X79.694 Y97.148 E6.33996
G1 X88.306 Y97.148 E6.61019
G1 X88.306 Y96.515 E6.63007
G1 X79.694 Y96.515 E6.90030
G1 X79.694 Y95.881 E6.92019
G1 X88.306 Y95.881 E7.19042
G1 E5.19042 F2400.00000
G92 E0
G1 X88.650 Y88.650 F7800.000
G1 E2.00000 F2400.00000
G1 X79.350 Y88.650 E2.28775 F1800.000
G1 X79.350 Y79.350 E2.57551
G1 X88.650 Y79.350 E2.86326
G1 X88.650 Y88.575 E3.14870
G1 X88.306 Y88.119 F7800.000
G1 X79.694 Y88.119 E3.41893 F1800.000
G1 X79.694 Y87.485 E3.43881
G1 X88.306 Y87.485 E3.70904
G1 X88.306 Y86.852 E3.72893
G1 X79.694 Y86.852 E3.99916
G1 X79.694 Y86.218 E4.01904
G1 X88.306 Y86.218 E4.28927
G1 X88.306 Y85.584 E4.30915
G1 X79.694 Y85.584 E4.57939
G1 X79.694 Y84.951 E4.59927
G1 X88.306 Y84.951 E4.86950
G1 X88.306 Y84.317 E4.88938
G1 X79.694 Y84.317 E5.15962
G1 X79.694 Y83.683 E5.17950
G1 X88.306 Y83.683 E5.44973
G1 X88.306 Y83.049 E5.46961
G1 X79.694 Y83.049 E5.73985
G1 X79.694 Y82.416 E5.75973
G1 X88.306 Y82.416 E6.02996
G1 X88.306 Y81.782 E6.04984
G1 X79.694 Y81.782 E6.32007
G1 X79.694 Y81.148 E6.33996
G1 X88.306 Y81.148 E6.61019
G1 X88.306 Y80.515 E6.63007
G1 X79.694 Y80.515 E6.90030
G1 X79.694 Y79.881 E6.92019
G1 X88.306 Y79.881 E7.19042
G1 E5.19042 F2400.00000
G92 E0
G1 X104.650 Y88.650 F7800.000
G1 E2.00000 F2400.00000
G1 X95.350 Y88.650 E2.28775 F1800.000
G1 X95.350 Y79.350 E2.57551
G1 X104.650 Y79.350 E2.86326
G1 X104.650 Y88.575 E3.14870
G1 X104.306 Y88.119 F7800.000
G1 X95.694 Y88.119 E3.41893 F1800.000
G1 X95.694 Y87.485 E3.43881
G1 X104.306 Y87.485 E3.70904
G1 X104.306 Y86.852 E3.72893
G1 X95.694 Y86.852 E3.99916
G1 X95.694 Y86.218 E4.01904
G1 X104.306 Y86.218 E4.28927
G1 X104.306 Y85.584 E4.30915
G1 X95.694 Y85.584 E4.57939
G1 X95.694 Y84.951 E4.59927
G1 X104.306 Y84.951 E4.86950
G1 X104.306 Y84.317 E4.88938
G1 X95.694 Y84.317 E5.15962
G1 X95.694 Y83.683 E5.17950
G1 X104.306 Y83.683 E5.44973
G1 X104.306 Y83.049 E5.46961
G1 X95.694 Y83.049 E5.73985
G1 X95.694 Y82.416 E5.75973
G1 X104.306 Y82.416 E6.02996
G1 X104.306 Y81.782 E6.04984
G1 X95.694 Y81.782 E6.32007
G1 X95.694 Y81.148 E6.33996
G1 X104.306 Y81.148 E6.61019
G1 X104.306 Y80.515 E6.63007
G1 X95.694 Y80.515 E6.90030
G1 X95.694 Y79.881 E6.92019
G1 X104.306 Y79.881 E7.19042
G1 E5.19042 F2400.00000
G92 E0
G1 X120.650 Y88.650 F7800.000
G1 E2.00000 F2400.00000
G1 X111.350 Y88.650 E2.28775 F1800.000
G1 X111.350 Y79.350 E2.57551
G1 X120.650 Y79.350 E2.86326
G1 X120.650 Y88.575 E3.14870
G1 X120.306 Y88.119 F7800.000
G1 X111.694 Y88.119 E3.41893 F1800.000
G1 X111.694 Y87.485 E3.43881
G1 X120.306 Y87.485 E3.70904
G1 X120.306 Y86.852 E3.72893
G1 X111.694 Y86.852 E3.99916
G1 X111.694 Y86.218 E4.01904
G1 X120.306 Y86.218 E4.28927
G1 X120.306 Y85.584 E4.30915
G1 X111.694 Y85.584 E4.57939
G1 X111.694 Y84.951 E4.59927
G1 X120.306 Y84.951 E4.86950
G1 X120.306 Y84.317 E4.88938
G1 X111.694 Y84.317 E5.15962
G1 X111.694 Y83.683 E5.17950
G1 X120.306 Y83.683 E5.44973
G1 X120.306 Y83.049 E5.46961
G1 X111.694 Y83.049 E5.73985
G1 X111.694 Y82.416 E5.75973
G1 X120.306 Y82.416 E6.02996
G1 X120.306 Y81.782 E6.04984
G1 X111.694 Y81.782 E6.32007
G1 X111.694 Y81.148 E6.33996
G1 X120.306 Y81.148 E6.61019
G1 X120.306 Y80.515 E6.63007
G1 X111.694 Y80.515 E6.90030
G1 X111.694 Y79.881 E6.92019
G1 X120.306 Y79.881 E7.19042
G1 E5.19042 F2400.00000
G92 E0
G1 X120.650 Y104.650 F7800.000
G1 E2.00000 F2400.00000
G1 X111.350 Y104.650 E2.28775 F1800.000
G1 X111.350 Y95.350 E2.57551
G1 X120.650 Y95.350 E2.86326
G1 X120.650 Y104.575 E3.14870
G1 X120.306 Y104.119 F7800.000
G1 X111.694 Y104.119 E3.41893 F1800.000
G1 X111.694 Y103.485 E3.43881
G1 X120.306 Y103.485 E3.70904
G1 X120.306 Y102.852 E3.72893
G1 X111.694 Y102.852 E3.99916
G1 X111.694 Y102.218 E4.01904
G1 X120.306 Y102.218 E4.28927
G1 X120.306 Y101.584 E4.30915
G1 X111.694 Y101.584 E4.57939
G1 X111.694 Y100.951 E4.59927
G1 X120.306 Y100.951 E4.86950
G1 X120.306 Y100.317 E4.88938
G1 X111.694 Y100.317 E5.15962
G1 X111.694 Y99.683 E5.17950
G1 X120.306 Y99.683 E5.44973
G1 X120.306 Y99.049 E5.46961
G1 X111.694 Y99.049 E5.73985
G1 X111.694 Y98.416 E5.75973
G1 X120.306 Y98.416 E6.02996
G1 X120.306 Y97.782 E6.04984
G1 X111.694 Y97.782 E6.32007
G1 X111.694 Y97.148 E6.33996
G1 X120.306 Y97.148 E6.61019
G1 X120.306 Y96.515 E6.63007
G1 X111.694 Y96.515 E6.90030
G1 X111.694 Y95.881 E6.92019
G1 X120.306 Y95.881 E7.19042
G1 E5.19042 F2400.00000
G92 E0
G1 X120.650 Y120.650 F7800.000
G1 E2.00000 F2400.00000
G1 X111.350 Y120.650 E2.28775 F1800.000
G1 X111.350 Y111.350 E2.57551
G1 X120.650 Y111.350 E2.86326
G1 X120.650 Y120.575 E3.14870
G1 X120.306 Y120.119 F7800.000
G1 X111.694 Y120.119 E3.41893 F1800.000
G1 X111.694 Y119.485 E3.43881
G1 X120.306 Y119.485 E3.70904
G1 X120.306 Y118.852 E3.72893
G1 X111.694 Y118.852 E3.99916
G1 X111.694 Y118.218 E4.01904
G1 X120.306 Y118.218 E4.28927
G1 X120.306 Y117.584 E4.30915
G1 X111.694 Y117.584 E4.57939
G1 X111.694 Y116.951 E4.59927
G1 X120.306 Y116.951 E4.86950
G1 X120.306 Y116.317 E4.88938
G1 X111.694 Y116.317 E5.15962
G1 X111.694 Y115.683 E5.17950
G1 X120.306 Y115.683 E5.44973
G1 X120.306 Y115.049 E5.46961
G1 X111.694 Y115.049 E5.73985
G1 X111.694 Y114.416 E5.75973
G1 X120.306 Y114.416 E6.02996
G1 X120.306 Y113.782 E6.04984
G1 X111.694 Y113.782 E6.32007
G1 X111.694 Y113.148 E6.33996
G1 X120.306 Y113.148 E6.61019
G1 X120.306 Y112.515 E6.63007
G1 X111.694 Y112.515 E6.90030
G1 X111.694 Y111.881 E6.92019
G1 X120.306 Y111.881 E7.19042
G1 E5.19042 F2400.00000
G92 E0
G1 X104.650 Y120.650 F7800.000
G1 E2.00000 F2400.00000
G1 X95.350 Y120.650 E2.28775 F1800.000
G1 X95.350 Y111.350 E2.57551
G1 X104.650 Y111.350 E2.86326
G1 X104.650 Y120.575 E3.14870
G1 X104.306 Y120.119 F7800.000
G1 X95.694 Y120.119 E3.41893 F1800.000
G1 X95.694 Y119.485 E3.43881
G1 X104.306 Y119.485 E3.70904
G1 X104.306 Y118.852 E3.72893
G1 X95.694 Y118.852 E3.99916
G1 X95.694 Y118.218 E4.01904
G1 X104.306 Y118.218 E4.28927
G1 X104.306 Y117.584 E4.30915
G1 X95.694 Y117.584 E4.57939
G1 X95.694 Y116.951 E4.59927
G1 X104.306 Y116.951 E4.86950
G1 X104.306 Y116.317 E4.88938
G1 X95.694 Y116.317 E5.15962
G1 X95.694 Y115.683 E5.17950
G1 X104.306 Y115.683 E5.44973
G1 X104.306 Y115.049 E5.46961
G1 X95.694 Y115.049 E5.73985
G1 X95.694 Y114.416 E5.75973
G1 X104.306 Y114.416 E6.02996
G1 X104.306 Y113.782 E6.04984
G1 X95.694 Y113.782 E6.32007
G1 X95.694 Y113.148 E6.33996
G1 X104.306 Y113.148 E6.61019
G1 X104.306 Y112.515 E6.63007
G1 X95.694 Y112.515 E6.90030
G1 X95.694 Y111.881 E6.92019
G1 X104.306 Y111.881 E7.19042
G1 E5.19042 F2400.00000
G92 E0
G1 X88.650 Y120.650 F7800.000
G1 E2.00000 F2400.00000
G1 X79.350 Y120.650 E2.28775 F1800.000
G1 X79.350 Y111.350 E2.57551
G1 X88.650 Y111.350 E2.86326
G1 X88.650 Y120.575 E3.14870
G1 X88.306 Y120.119 F7800.000
G1 X79.694 Y120.119 E3.41893 F1800.000
G1 X79.694 Y119.485 E3.43881
G1 X88.306 Y119.485 E3.70904
G1 X88.306 Y118.852 E3.72893
G1 X79.694 Y118.852 E3.99916
G1 X79.694 Y118.218 E4.01904
G1 X88.306 Y118.218 E4.28927
G1 X88.306 Y117.584 E4.30915
G1 X79.694 Y117.584 E4.57939
G1 X79.694 Y116.951 E4.59927
G1 X88.306 Y116.951 E4.86950
G1 X88.306 Y116.317 E4.88938
G1 X79.694 Y116.317 E5.15962
G1 X79.694 Y115.683 E5.17950
G1 X88.306 Y115.683 E5.44973
G1 X88.306 Y115.049 E5.46961
G1 X79.694 Y115.049 E5.73985
G1 X79.694 Y114.416 E5.75973
G1 X88.306 Y114.416 E6.02996
G1 X88.306 Y113.782 E6.04984
G1 X79.694 Y113.782 E6.32007
G1 X79.694 Y113.148 E6.33996
G1 X88.306 Y113.148 E6.61019
G1 X88.306 Y112.515 E6.63007
G1 X79.694 Y112.515 E6.90030
G1 X79.694 Y111.881 E6.92019
G1 X88.306 Y111.881 E7.19042
G1 Z0.650 F7800.000
G1 E5.19042 F2400.00000
G92 E0
G1 X73.915 Y74.753 F7800.000
G1 E2.00000 F2400.00000
G1 X75.668 Y73.274 E2.06187 F3600.000
G1 X77.820 Y72.481 E2.12374
G1 X79.000 Y72.375 E2.15569
G1 X121.000 Y72.375 E3.28871
G1 X123.259 Y72.772 E3.35058
G1 X125.247 Y73.915 E3.41245 F3600.000
G1 X126.726 Y75.668 E3.47432
G1 X127.519 Y77.820 E3.53618
G1 X127.625 Y79.000 E3.56814
G1 X127.625 Y121.000 E4.70115
G1 X127.228 Y123.259 E4.76302
G1 X126.085 Y125.247 E4.82489
G1 X124.332 Y126.726 E4.88676
G1 X122.180 Y127.519 E4.94863
G1 X121.000 Y127.625 E4.98059
G1 X79.000 Y127.625 E6.11360
G1 X76.741 Y127.228 E6.17547
G1 X74.753 Y126.085 E6.23734
G1 X73.274 Y124.332 E6.29921
G1 X72.481 Y122.180 E6.36108
G1 X72.375 Y121.000 E6.39303
G1 X72.375 Y79.000 E7.52605
G1 X72.772 Y76.741 E7.58791
G1 X73.878 Y74.818 E7.64776
G1 E5.64776 F2400.00000
G92 E0
G1 X104.750 Y104.750 F7800.000
G1 E2.00000 F2400.00000
G1 X95.250 Y104.750 E2.17564 F900.000
G1 X95.250 Y95.250 E2.35128
G1 X104.750 Y95.250 E2.52692
G1 X104.750 Y104.675 E2.70117
G1 X103.455 Y104.457 F7800.000
G1 X103.455 Y95.563 E2.94820 F4800.000
G1 X96.910 Y95.563 E3.13000
G1 X96.910 Y104.457 E3.37703
G1 E1.37703 F2400.00000
G92 E0
G1 X88.750 Y104.750 F7800.000
G1 E2.00000 F2400.00000
G1 X79.250 Y104.750 E2.17564 F900.000
G1 X79.250 Y95.250 E2.35128
G1 X88.750 Y95.250 E2.52692
G1 X88.750 Y104.675 E2.70117
G1 X87.455 Y104.457 F7800.000
G1 X87.455 Y95.563 E2.94820 F4800.000
G1 X80.910 Y95.563 E3.13000
G1 X80.910 Y104.457 E3.37703
G1 E1.37703 F2400.00000
G92 E0
G1 X88.750 Y88.750 F7800.000
G1 E2.00000 F2400.00000
G1 X79.250 Y88.750 E2.17564 F900.000
G1 X79.250 Y79.250 E2.35128
G1 X88.750 Y79.250 E2.52692
G1 X88.750 Y88.675 E2.70117
G1 X87.455 Y88.457 F7800.000
G1 X87.455 Y79.563 E2.94820 F4800.000
G1 X80.910 Y79.563 E3.13000
G1 X80.910 Y88.457 E3.37703
G1 E1.37703 F2400.00000
G92 E0
G1 X104.750 Y88.750 F7800.000
G1 E2.00000 F2400.00000
G1 X95.250 Y88.750 E2.17564 F900.000
G1 X95.250 Y79.250 E2.35128
G1 X104.750 Y79.250 E2.52692
G1 X104.750 Y88.675 E2.70117
G1 X103.455 Y88.457 F7800.000
G1 X103.455 Y79.563 E2.94820 F4800.000
G1 X96.910 Y79.563 E3.13000
G1 X96.910 Y88.457 E3.37703
G1 E1.37703 F2400.00000
G92 E0
G1 X120.750 Y88.750 F7800.000
G1 E2.00000 F2400.00000
G1 X111.250 Y88.750 E2.17564 F900.000
G1 X111.250 Y79.250 E2.35128
G1 X120.750 Y79.250 E2.52692
G1 X120.750 Y88.675 E2.70117
G1 X119.455 Y88.457 F7800.000
G1 X119.455 Y79.563 E2.94820 F4800.000
G1 X112.910 Y79.563 E3.13000
G1 X112.910 Y88.457 E3.37703
G1 E1.37703 F2400.00000
G92 E0
G1 X120.750 Y104.750 F7800.000
G1 E2.00000 F2400.00000
G1 X111.250 Y104.750 E2.17564 F900.000
G1 X111.250 Y95.250 E2.35128
G1 X120.750 Y95.250 E2.52692
G1 X120.750 Y104.675 E2.70117
G1 X119.455 Y104.457 F7800.000
G1 X119.455 Y95.563 E2.94820 F4800.000
G1 X112.910 Y95.563 E3.13000
G1 X112.910 Y104.457 E3.37703
G1 E1.37703 F2400.00000
G92 E0
G1 X120.750 Y120.750 F7800.000
G1 E2.00000 F2400.00000
G1 X111.250 Y120.750 E2.17564 F900.000
G1 X111.250 Y111.250 E2.35128
G1 X120.750 Y111.250 E2.52692
G1 X120.750 Y120.675 E2.70117
G1 X119.455 Y120.457 F7800.000
G1 X119.455 Y111.563 E2.94820 F4800.000
G1 X112.910 Y111.563 E3.13000
G1 X112.910 Y120.457 E3.37703
G1 E1.37703 F2400.00000
G92 E0
G1 X104.750 Y120.750 F7800.000
G1 E2.00000 F2400.00000
G1 X95.250 Y120.750 E2.17564 F900.000
G1 X95.250 Y111.250 E2.35128
G1 X104.750 Y111.250 E2.52692
G1 X104.750 Y120.675 E2.70117
G1 X103.455 Y120.457 F7800.000
G1 X103.455 Y111.563 E2.94820 F4800.000
G1 X96.910 Y111.563 E3.13000
G1 X96.910 Y120.457 E3.37703
G1 E1.37703 F2400.00000
G92 E0
G1 X88.750 Y120.750 F7800.000
G1 E2.00000 F2400.00000
G1 X79.250 Y120.750 E2.17564 F900.000
G1 X79.250 Y111.250 E2.35128
G1 X88.750 Y111.250 E2.52692
G1 X88.750 Y120.675 E2.70117
G1 X87.455 Y120.457 F7800.000
G1 X87.455 Y111.563 E2.94820 F4800.000
G1 X80.910 Y111.563 E3.13000
G1 X80.910 Y120.457 E3.37703
G1 Z0.950 F7800.000
G1 E1.37703 F2400.00000
G92 E0
G1 X73.915 Y74.753 F7800.000
G1 E2.00000 F2400.00000
G1 X75.668 Y73.274 E2.06187 F3600.000
G1 X77.820 Y72.481 E2.12374
G1 X79.000 Y72.375 E2.15569
G1 X121.000 Y72.375 E3.28871
G1 X123.259 Y72.772 E3.35058
G1 X125.247 Y73.915 E3.41245 F3600.000
G1 X126.726 Y75.668 E3.47432
G1 X127.519 Y77.820 E3.53618
G1 X127.625 Y79.000 E3.56814
G1 X127.625 Y121.000 E4.70115
G1 X127.228 Y123.259 E4.76302
G1 X126.085 Y125.247 E4.82489
G1 X124.332 Y126.726 E4.88676
G1 X122.180 Y127.519 E4.94863
G1 X121.000 Y127.625 E4.98059
G1 X79.000 Y127.625 E6.11360
G1 X76.741 Y127.228 E6.17547
G1 X74.753 Y126.085 E6.23734
G1 X73.274 Y124.332 E6.29921
G1 X72.481 Y122.180 E6.36108
G1 X72.375 Y121.000 E6.39303
G1 X72.375 Y79.000 E7.52605
G1 X72.772 Y76.741 E7.58791
G1 X73.878 Y74.818 E7.64776
G1 E5.64776 F2400.00000
G92 E0
G1 X104.750 Y104.750 F7800.000
G1 E2.00000 F2400.00000
G1 X95.250 Y104.750 E2.17564 F900.000
G1 X95.250 Y95.250 E2.35128
G1 X104.750 Y95.250 E2.52692
G1 X104.750 Y104.675 E2.70117
G1 X104.457 Y103.090 F7800.000
G1 X95.563 Y103.090 E2.94820 F4800.000
G1 X95.563 Y96.545 E3.13000
G1 X104.457 Y96.545 E3.37703
G1 E1.37703 F2400.00000
G92 E0
G1 X88.750 Y104.750 F7800.000
G1 E2.00000 F2400.00000
G1 X79.250 Y104.750 E2.17564 F900.000
G1 X79.250 Y95.250 E2.35128
G1 X88.750 Y95.250 E2.52692
G1 X88.750 Y104.675 E2.70117
G1 X88.457 Y103.090 F7800.000
G1 X79.563 Y103.090 E2.94820 F4800.000
G1 X79.563 Y96.545 E3.13000
G1 X88.457 Y96.545 E3.37703
G1 E1.37703 F2400.00000
G92 E0
