; generated by Slic3r 1.2.9 on 2015-11-05 at 16:31:25

; external perimeters extrusion width = 0.50mm
; perimeters extrusion width = 0.72mm
; infill extrusion width = 0.72mm
; solid infill extrusion width = 0.72mm
; top infill extrusion width = 0.72mm

M107
M104 S200 ; set temperature
G28 ; home all axes
G1 Z5 F5000 ; lift nozzle

M109 S200 ; wait for temperature to be reached
G21 ; set units to millimeters
G90 ; use absolute coordinates
M82 ; use absolute distances for extrusion
G92 E0
G1 Z0.350 F7800.000
G1 E-2.00000 F2400.00000
G92 E0
G1 X77.010 Y76.940 F7800.000
G1 E2.00000 F2400.00000
G1 X77.957 Y76.047 E2.04028 F1800.000
G1 X79.063 Y75.088 E2.08559
G1 X80.041 Y74.309 E2.12427
G1 X80.842 Y73.718 E2.15506
G1 X82.083 Y72.861 E2.20173
G1 X83.139 Y72.203 E2.24021
G1 X84.225 Y71.577 E2.27900
G1 X85.241 Y71.028 E2.31474
G1 X86.470 Y70.427 E2.35707
G1 X87.765 Y69.860 E2.40081
G1 X88.714 Y69.484 E2.43241
G1 X89.743 Y69.116 E2.46623
G1 X91.261 Y68.637 E2.51546
G1 X92.322 Y68.356 E2.54943
G1 X93.518 Y68.088 E2.58737
G1 X94.449 Y67.909 E2.61670
G1 X95.812 Y67.709 E2.65931
G1 X97.252 Y67.544 E2.70417
G1 X98.299 Y67.468 E2.73664
G1 X99.413 Y67.425 E2.77114
G1 X100.775 Y67.425 E2.81328
G1 X101.921 Y67.480 E2.84878 F1800.000
G1 X103.178 Y67.581 E2.88778
G1 X104.302 Y67.721 E2.92284
G1 X105.398 Y67.886 E2.95712
G1 X106.387 Y68.064 E2.98824
G1 X107.780 Y68.379 E3.03243
G1 X109.017 Y68.708 E3.07201
G1 X110.122 Y69.058 E3.10790
G1 X111.242 Y69.454 E3.14463
G1 X112.356 Y69.894 E3.18170
G1 X114.243 Y70.749 E3.24581
G1 X115.357 Y71.326 E3.28464
G1 X116.555 Y72.005 E3.32722
G1 X117.707 Y72.710 E3.36901
G1 X118.585 Y73.296 E3.40167
G1 X119.687 Y74.091 E3.44373
G1 X120.455 Y74.687 E3.47381
G1 X121.253 Y75.348 E3.50587
G1 X122.266 Y76.244 E3.54771
G1 X123.046 Y76.996 E3.58124
G1 X124.092 Y78.097 E3.62821
G1 X124.929 Y79.055 E3.66759
G1 X125.617 Y79.914 E3.70163
G1 X126.355 Y80.883 E3.73933
G1 X126.996 Y81.792 E3.77373
G1 X127.776 Y83.000 E3.81823
G1 X128.341 Y83.951 E3.85245
G1 X128.972 Y85.135 E3.89397
G1 X129.509 Y86.233 E3.93180
G1 X130.032 Y87.436 E3.97238
G1 X130.611 Y88.915 E4.02153
G1 X130.982 Y89.982 E4.05648
G1 X131.324 Y91.119 E4.09321
G1 X131.661 Y92.393 E4.13399
G1 X131.911 Y93.562 E4.17099
G1 X132.124 Y94.761 E4.20865
G1 X132.291 Y95.970 E4.24643
G1 X132.405 Y97.101 E4.28158
G1 X132.477 Y98.063 E4.31143
G1 X132.520 Y99.326 E4.35054
G1 X132.516 Y100.701 E4.39309
G1 X132.467 Y102.052 E4.43490
G1 X132.388 Y103.094 E4.46724
G1 X132.267 Y104.194 E4.50150
G1 X132.100 Y105.369 E4.53821
G1 X131.886 Y106.555 E4.57548
G1 X131.586 Y107.918 E4.61870
G1 X131.313 Y108.945 E4.65157
G1 X130.967 Y110.078 E4.68822
G1 X130.669 Y110.961 E4.71705
G1 X130.183 Y112.218 E4.75875
G1 X129.627 Y113.534 E4.80295
G1 X129.184 Y114.473 E4.83509
G1 X128.563 Y115.676 E4.87697
G1 X128.012 Y116.645 E4.91145
G1 X127.401 Y117.620 E4.94705
G1 X126.869 Y118.419 E4.97676
G1 X126.128 Y119.439 E5.01579
G1 X125.316 Y120.482 E5.05667
G1 X124.467 Y121.494 E5.09754
G1 X123.672 Y122.358 E5.13386
G1 X122.754 Y123.291 E5.17436
G1 X121.871 Y124.107 E5.21156
G1 X120.937 Y124.912 E5.24973
G1 X119.959 Y125.691 E5.28841
G1 X119.008 Y126.389 E5.32491
G1 X118.180 Y126.965 E5.35612
G1 X117.064 Y127.675 E5.39704
G1 X115.775 Y128.423 E5.44315
G1 X114.531 Y129.089 E5.48683
G1 X113.530 Y129.573 E5.52121
G1 X112.235 Y130.140 E5.56495
G1 X111.286 Y130.516 E5.59655
G1 X110.107 Y130.936 E5.63528
G1 X108.739 Y131.363 E5.67960
G1 X107.678 Y131.644 E5.71357
G1 X106.482 Y131.912 E5.75151
G1 X105.239 Y132.143 E5.79062
G1 X103.014 Y132.430 E5.86003
G1 X101.701 Y132.532 E5.90077
G1 X100.340 Y132.580 E5.94290
G1 X99.225 Y132.575 E5.97742
G1 X98.079 Y132.520 E6.01292
G1 X96.822 Y132.419 E6.05192
G1 X95.698 Y132.279 E6.08698
G1 X94.602 Y132.114 E6.12126
G1 X93.613 Y131.936 E6.15238
G1 X92.220 Y131.621 E6.19657
G1 X90.983 Y131.292 E6.23615
G1 X89.877 Y130.942 E6.27204
G1 X88.983 Y130.629 E6.30136
G1 X87.888 Y130.206 E6.33770
G1 X86.622 Y129.656 E6.38040
G1 X85.481 Y129.115 E6.41947
G1 X84.446 Y128.566 E6.45573
G1 X83.446 Y127.995 E6.49136
G1 X82.506 Y127.425 E6.52537
G1 X81.623 Y126.848 E6.55799
G1 X80.506 Y126.052 E6.60044
G1 X79.545 Y125.314 E6.63794
G1 X78.595 Y124.523 E6.67618
G1 X77.539 Y123.574 E6.72011
G1 X76.759 Y122.807 E6.75397
G1 X75.908 Y121.903 E6.79236
G1 X75.071 Y120.945 E6.83173
G1 X74.383 Y120.086 E6.86578
G1 X73.645 Y119.117 E6.90347
G1 X72.861 Y117.993 E6.94587
G1 X72.093 Y116.786 E6.99013
G1 X71.503 Y115.768 E7.02654
G1 X70.934 Y114.679 E7.06455
G1 X70.361 Y113.481 E7.10567
G1 X69.889 Y112.372 E7.14293
G1 X69.465 Y111.290 E7.17889
G1 X69.112 Y110.302 E7.21137
G1 X68.731 Y109.075 E7.25112
G1 X68.418 Y107.928 E7.28790
G1 X68.134 Y106.662 E7.32805
G1 X67.876 Y105.239 E7.37280
G1 X67.709 Y104.030 E7.41058
G1 X67.595 Y102.899 E7.44572
G1 X67.523 Y101.937 E7.47557
G1 X67.480 Y100.674 E7.51468
G1 X67.484 Y99.299 E7.55724
G1 X67.533 Y97.948 E7.59905
G1 X67.612 Y96.906 E7.63139
G1 X67.763 Y95.570 E7.67300
G1 X67.938 Y94.405 E7.70944
G1 X68.114 Y93.445 E7.73963
G1 X68.354 Y92.336 E7.77476
G1 X68.614 Y91.313 E7.80742
G1 X69.033 Y89.922 E7.85236
G1 X69.438 Y88.748 E7.89079
G1 X70.266 Y86.708 E7.95892
G1 X70.710 Y85.744 E7.99174
G1 X71.321 Y84.539 E8.03355
G1 X71.827 Y83.627 E8.06583
G1 X72.493 Y82.545 E8.10514
G1 X73.308 Y81.329 E8.15043
G1 X73.991 Y80.404 E8.18602
G1 X74.684 Y79.518 E8.22081
G1 X75.338 Y78.729 E8.25251
G1 X76.189 Y77.789 E8.29173
G1 X76.957 Y76.994 E8.32596
G1 E6.32596 F2400.00000
G92 E0
G1 X81.959 Y81.856 F7800.000
G1 E2.00000 F2400.00000
G1 X82.705 Y81.157 E2.03165 F1800.000
G1 X83.438 Y80.520 E2.06170
G1 X84.189 Y79.917 E2.09149
G1 X84.980 Y79.333 E2.12191
G1 X85.797 Y78.765 E2.15271
G1 X86.638 Y78.237 E2.18342
G1 X87.659 Y77.648 E2.21990
G1 X88.542 Y77.172 E2.25094
G1 X89.292 Y76.805 E2.27677
G1 X90.348 Y76.339 E2.31250
G1 X91.113 Y76.035 E2.33797
G1 X92.170 Y75.656 E2.37271
G1 X93.089 Y75.368 E2.40249
G1 X93.867 Y75.157 E2.42743
G1 X94.963 Y74.912 E2.46219
G1 X95.746 Y74.762 E2.48686
G1 X97.792 Y74.498 E2.55070
G1 X98.579 Y74.438 E2.57511
G1 X99.680 Y74.394 E2.60921
G1 X100.456 Y74.393 E2.63322
G1 X100.604 Y74.408 E2.63781
G1 X101.407 Y74.436 E2.66267 F1800.000
G1 X102.344 Y74.506 E2.69173
G1 X103.267 Y74.618 E2.72053
G1 X104.353 Y74.782 E2.75449
G1 X105.122 Y74.923 E2.77868
G1 X106.035 Y75.132 E2.80766
G1 X106.943 Y75.368 E2.83670
G1 X107.827 Y75.644 E2.86535
G1 X108.710 Y75.953 E2.89429
G1 X109.566 Y76.287 E2.92274
G1 X111.282 Y77.064 E2.98101
G1 X112.106 Y77.497 E3.00981
G1 X113.063 Y78.044 E3.04392
G1 X113.867 Y78.532 E3.07301
G1 X114.525 Y78.967 E3.09743
G1 X115.424 Y79.612 E3.13165
G1 X116.165 Y80.185 E3.16065
G1 X116.896 Y80.798 E3.19016
G1 X117.604 Y81.432 E3.21958
G1 X118.179 Y81.992 E3.24439
G1 X118.954 Y82.814 E3.27938
G1 X119.491 Y83.422 E3.30448
G1 X120.103 Y84.186 E3.33475
G1 X120.797 Y85.097 E3.37019
G1 X121.270 Y85.776 E3.39579
G1 X121.900 Y86.758 E3.43188
G1 X122.326 Y87.482 E3.45788
G1 X122.794 Y88.373 E3.48902
G1 X123.231 Y89.273 E3.51999
G1 X123.619 Y90.177 E3.55042
G1 X124.038 Y91.249 E3.58602
G1 X124.311 Y92.018 E3.61129
G1 X124.594 Y92.949 E3.64137
G1 X124.847 Y93.884 E3.67136
G1 X125.049 Y94.815 E3.70082
G1 X125.220 Y95.756 E3.73043
G1 X125.353 Y96.686 E3.75949
G1 X125.450 Y97.631 E3.78887
G1 X125.522 Y98.580 E3.81832
G1 X125.548 Y99.518 E3.84737
G1 X125.541 Y100.622 E3.88153
G1 X125.509 Y101.559 E3.91054
G1 X125.453 Y102.342 E3.93482
G1 X125.334 Y103.430 E3.96868
G1 X125.201 Y104.343 E3.99724
G1 X125.031 Y105.264 E4.02620
G1 X124.833 Y106.171 E4.05492
G1 X124.637 Y106.926 E4.07906
G1 X124.318 Y107.972 E4.11292
G1 X124.067 Y108.710 E4.13703
G1 X123.303 Y110.592 E4.19988
G1 X122.973 Y111.300 E4.22405
G1 X122.473 Y112.276 E4.25797
G1 X122.090 Y112.960 E4.28223
G1 X121.592 Y113.759 E4.31136
G1 X121.067 Y114.547 E4.34066
G1 X120.511 Y115.304 E4.36974
G1 X119.825 Y116.182 E4.40420
G1 X119.314 Y116.793 E4.42884
G1 X118.668 Y117.500 E4.45848
G1 X117.995 Y118.191 E4.48833
G1 X117.295 Y118.843 E4.51793
G1 X116.562 Y119.480 E4.54798
G1 X115.811 Y120.083 E4.57777
G1 X115.020 Y120.667 E4.60819
G1 X114.203 Y121.235 E4.63899
G1 X113.362 Y121.763 E4.66970
G1 X112.341 Y122.352 E4.70618
G1 X111.458 Y122.828 E4.73722
G1 X110.708 Y123.195 E4.76305
G1 X109.652 Y123.661 E4.79878
G1 X108.751 Y124.019 E4.82876
G1 X107.830 Y124.343 E4.85897
G1 X106.911 Y124.632 E4.88877
G1 X106.133 Y124.843 E4.91371
G1 X105.037 Y125.088 E4.94848
G1 X104.254 Y125.238 E4.97314
G1 X102.208 Y125.502 E5.03698
G1 X101.421 Y125.562 E5.06140
G1 X100.320 Y125.606 E5.09550
G1 X99.534 Y125.607 E5.11981
G1 X98.595 Y125.564 E5.14889
G1 X97.656 Y125.494 E5.17801
G1 X96.733 Y125.382 E5.20681
G1 X95.647 Y125.218 E5.24076
G1 X94.878 Y125.077 E5.26496
G1 X93.965 Y124.868 E5.29393
G1 X93.057 Y124.632 E5.32297
G1 X92.173 Y124.356 E5.35162
G1 X91.290 Y124.047 E5.38057
G1 X90.434 Y123.713 E5.40902
G1 X88.718 Y122.936 E5.46728
G1 X87.894 Y122.503 E5.49608
G1 X86.937 Y121.956 E5.53020
G1 X86.133 Y121.468 E5.55929
G1 X85.475 Y121.033 E5.58371
G1 X84.576 Y120.388 E5.61793
G1 X83.835 Y119.815 E5.64692
G1 X83.104 Y119.202 E5.67644
G1 X82.396 Y118.568 E5.70585
G1 X81.821 Y118.008 E5.73067
G1 X81.046 Y117.186 E5.76565
G1 X80.509 Y116.578 E5.79075
G1 X79.897 Y115.814 E5.82103
G1 X79.203 Y114.903 E5.85646
G1 X78.730 Y114.224 E5.88207
G1 X78.100 Y113.242 E5.91815
G1 X77.674 Y112.518 E5.94416
G1 X77.206 Y111.627 E5.97530
G1 X76.769 Y110.727 E6.00626
G1 X76.381 Y109.823 E6.03670
G1 X75.962 Y108.751 E6.07230
G1 X75.689 Y107.982 E6.09756
G1 X75.406 Y107.051 E6.12765
G1 X75.153 Y106.116 E6.15764
G1 X74.951 Y105.185 E6.18710
G1 X74.780 Y104.244 E6.21671
G1 X74.647 Y103.314 E6.24576
G1 X74.550 Y102.369 E6.27515
G1 X74.478 Y101.420 E6.30460
G1 X74.452 Y100.482 E6.33364
G1 X74.459 Y99.378 E6.36781
G1 X74.491 Y98.441 E6.39681
G1 X74.547 Y97.658 E6.42109
G1 X74.666 Y96.570 E6.45495
G1 X74.799 Y95.657 E6.48352
G1 X74.969 Y94.736 E6.51248
G1 X75.167 Y93.829 E6.54120
G1 X75.363 Y93.074 E6.56534
G1 X75.682 Y92.028 E6.59919
G1 X75.933 Y91.290 E6.62330
G1 X76.697 Y89.408 E6.68615
G1 X77.027 Y88.700 E6.71032
G1 X77.527 Y87.724 E6.74424
G1 X77.910 Y87.040 E6.76850
G1 X78.408 Y86.241 E6.79764
G1 X78.933 Y85.453 E6.82694
G1 X79.489 Y84.696 E6.85602
G1 X80.175 Y83.818 E6.89047
G1 X80.686 Y83.207 E6.91511
G1 X81.332 Y82.500 E6.94476
G1 X81.906 Y81.910 E6.97023
G1 X76.177 Y108.069 F7800.000
G1 X91.919 Y123.812 E7.66078 F1800.000
G1 X93.237 Y124.244 E7.70381
G1 X75.763 Y106.769 E8.47034
G1 X75.455 Y105.576 E8.50858
G1 X94.432 Y124.553 E9.34101
G1 X95.555 Y124.790 E9.37661
G1 X75.231 Y104.466 E10.26812
G1 X75.063 Y103.412 E10.30121
G1 X96.610 Y124.959 E11.24636
G1 X97.629 Y125.092 E11.27824
G1 X74.949 Y102.412 E12.27311
G1 X74.871 Y101.448 E12.30313
G1 X98.598 Y125.175 E13.34392
G1 X99.531 Y125.222 E13.37290
G1 X74.836 Y100.527 E14.45616
G1 X74.835 Y99.640 E14.48366
G1 X100.422 Y125.227 E15.60603
G1 X101.275 Y125.194 E15.63251
G1 X74.854 Y98.773 E16.79149
G1 X74.897 Y97.931 E16.81764
G1 X102.107 Y125.140 E18.01118
G1 X102.900 Y125.047 E18.03594
G1 X74.973 Y97.120 E19.26097
G1 X75.066 Y96.327 E19.28572
G1 X103.684 Y124.946 E20.54107
G1 X104.460 Y124.836 E20.56538
G1 X75.180 Y95.556 E21.84974
G1 X75.318 Y94.808 E21.87334
G1 X105.200 Y124.690 E23.18412
G1 X105.924 Y124.528 E23.20713
G1 X75.474 Y94.078 E24.54283
G1 X75.648 Y93.366 E24.56556
G1 X106.629 Y124.347 E25.92456
G1 X107.312 Y124.145 E25.94666
G1 X75.845 Y92.678 E27.32697
G1 X76.054 Y92.000 E27.34895
G1 X107.981 Y123.927 E28.74944
G1 X108.636 Y123.696 E28.77098
G1 X76.278 Y91.339 E30.19036
G1 X76.534 Y90.709 E30.21146
G1 X109.272 Y123.447 E31.64754
G1 X109.897 Y123.185 E31.66853
G1 X76.790 Y90.078 E33.12078
G1 X77.047 Y89.450 E33.14186
G1 X110.511 Y122.914 E34.60979
G1 X111.110 Y122.627 E34.63038
G1 X77.329 Y88.846 E36.11220
G1 X77.627 Y88.258 E36.13264
G1 X111.694 Y122.324 E37.62697
G1 X112.268 Y122.013 E37.64725
G1 X77.932 Y87.677 E39.15341
G1 X78.252 Y87.111 E39.17357
G1 X112.830 Y121.689 E40.69034
G1 X113.387 Y121.360 E40.71040
G1 X78.593 Y86.566 E42.23666
G1 X78.942 Y86.029 E42.25651
G1 X113.931 Y121.018 E43.79132
G1 X114.458 Y120.660 E43.81110
G1 X79.301 Y85.502 E45.35330
G1 X79.676 Y84.992 E45.37295
G1 X114.978 Y120.293 E46.92147
G1 X115.488 Y119.917 E46.94112
G1 X80.062 Y84.491 E48.49508
G1 X80.451 Y83.994 E48.51466
G1 X115.984 Y119.528 E50.07333
G1 X116.471 Y119.129 E50.09285
G1 X80.854 Y83.512 E51.65522
G1 X81.273 Y83.045 E51.67468
G1 X116.946 Y118.717 E53.23946
G1 X117.407 Y118.293 E53.25891
G1 X81.707 Y82.593 E54.82493
G1 X82.150 Y82.150 E54.84436
G1 X117.850 Y117.850 E56.41037
G1 X118.293 Y117.407 E56.42980
G1 X82.593 Y81.707 E57.99582
G1 X83.054 Y81.283 E58.01527
G1 X118.727 Y116.955 E59.58005
G1 X119.146 Y116.488 E59.59951
G1 X83.529 Y80.871 E61.16188
G1 X84.016 Y80.472 E61.18140
G1 X119.549 Y116.006 E62.74007
G1 X119.938 Y115.509 E62.75965
G1 X84.512 Y80.083 E64.31361
G1 X85.022 Y79.707 E64.33326
G1 X120.324 Y115.008 E65.88178
G1 X120.699 Y114.498 E65.90144
G1 X85.541 Y79.340 E67.44364
G1 X86.069 Y78.982 E67.46342
G1 X121.058 Y113.971 E68.99822
G1 X121.407 Y113.434 E69.01808
G1 X86.613 Y78.640 E70.54433
G1 X87.170 Y78.311 E70.56440
G1 X121.748 Y112.889 E72.08116
G1 X122.068 Y112.323 E72.10132
G1 X87.732 Y77.987 E73.60749
G1 X88.306 Y77.676 E73.62776
G1 X122.373 Y111.742 E75.12209
G1 X122.671 Y111.154 E75.14253
G1 X88.890 Y77.373 E76.62435
G1 X89.488 Y77.086 E76.64494
G1 X122.953 Y110.551 E78.11288
G1 X123.210 Y109.922 E78.13395
G1 X90.103 Y76.815 E79.58620
G1 X90.727 Y76.553 E79.60720
G1 X123.466 Y109.292 E81.04329
G1 X123.722 Y108.661 E81.06438
G1 X91.367 Y76.307 E82.48363
G1 X92.020 Y76.073 E82.50512
G1 X123.946 Y108.000 E83.90559
G1 X124.155 Y107.322 E83.92757
G1 X92.688 Y75.855 E85.30788
G1 X93.371 Y75.653 E85.32998
G1 X124.352 Y106.634 E86.68898
G1 X124.526 Y105.922 E86.71171
G1 X94.076 Y75.472 E88.04741
G1 X94.800 Y75.310 E88.07042
G1 X124.682 Y105.192 E89.38121
G1 X124.820 Y104.444 E89.40480
G1 X95.540 Y75.164 E90.68916
G1 X96.316 Y75.054 E90.71347
G1 X124.934 Y103.673 E91.96882
G1 X125.027 Y102.880 E91.99358
G1 X97.100 Y74.953 E93.21860
G1 X97.893 Y74.860 E93.24337
G1 X125.103 Y102.069 E94.43690
G1 X125.146 Y101.227 E94.46306
G1 X98.725 Y74.806 E95.62204
G1 X99.578 Y74.773 E95.64852
G1 X125.165 Y100.360 E96.77090
G1 X125.164 Y99.473 E96.79840
G1 X100.478 Y74.787 E97.88127
G1 X101.402 Y74.825 E97.90997
G1 X125.129 Y98.552 E98.95076
G1 X125.051 Y97.588 E98.98078
G1 X102.371 Y74.908 E99.97565
G1 X103.390 Y75.041 E100.00753
G1 X124.937 Y96.588 E100.95268
G1 X124.769 Y95.534 E100.98577
G1 X104.445 Y75.210 E101.87729
G1 X105.568 Y75.447 E101.91289
G1 X124.545 Y94.424 E102.74532
G1 X124.237 Y93.231 E102.78356
G1 X106.762 Y75.756 E103.55009
G1 X108.081 Y76.188 E103.59312
G1 X123.823 Y91.931 E104.28368
G1 X123.275 Y90.497 F7800.000
G1 X109.544 Y76.766 E104.88598 F1800.000
G1 X111.199 Y77.535 F7800.000
G1 X122.536 Y88.872 E105.38330 F1800.000
G1 X121.398 Y86.848 F7800.000
G1 X113.259 Y78.709 E105.74033 F1800.000
G1 X116.999 Y81.563 F7800.000
G1 X118.407 Y82.971 E105.80208 F1800.000
G1 X90.456 Y123.234 F7800.000
G1 X76.725 Y109.503 E106.40438 F1800.000
G1 X77.464 Y111.128 F7800.000
G1 X88.801 Y122.465 E106.90169 F1800.000
G1 X86.741 Y121.291 F7800.000
G1 X78.602 Y113.152 E107.25871 F1800.000
G1 X81.594 Y117.030 F7800.000
G1 X83.000 Y118.436 E107.32040 F1800.000
G1 Z0.650 F7800.000
G1 X82.540 Y118.954 F7800.000
G1 X81.989 Y118.464 E107.33405 F1800.000
G1 X81.618 Y118.104 E107.34359
G1 X80.289 Y116.653 E107.37997
G1 X80.002 Y116.253 E107.38908
G1 X79.681 Y115.865 E107.39839
G1 X78.797 Y114.716 E107.42518
G1 X78.492 Y114.278 E107.43506
G1 X77.690 Y113.025 E107.46255
G1 X77.416 Y112.560 E107.47254
G1 X76.525 Y110.741 E107.51000
G1 X76.378 Y110.325 E107.51815
G1 X76.156 Y109.823 E107.52830
G1 X75.455 Y107.960 E107.56509
G1 X74.924 Y106.068 E107.60143
G1 X74.862 Y105.648 E107.60927
G1 X74.743 Y105.134 E107.61902
G1 X74.684 Y104.696 E107.62720
G1 X74.586 Y104.183 E107.63685
G1 X74.549 Y103.781 E107.64431
G1 X74.471 Y103.269 E107.65390
G1 X74.453 Y102.833 E107.66197
G1 X74.394 Y102.308 E107.67172
G1 X74.323 Y101.350 E107.68949
G1 X74.335 Y100.924 E107.69737
