; generated by Slic3r 1.2.9 on 2015-11-05 at 16:27:11

; external perimeters extrusion width = 0.35mm
; perimeters extrusion width = 0.37mm
; infill extrusion width = 0.37mm
; solid infill extrusion width = 0.37mm
; top infill extrusion width = 0.37mm

M107
M104 S200 ; set temperature
G28 ; home all axes
G1 Z5 F5000 ; lift nozzle

M109 S200 ; wait for temperature to be reached
G21 ; set units to millimeters
G90 ; use absolute coordinates
M82 ; use absolute distances for extrusion
G92 E0
G1 Z0.350 F7800.000
G1 E-2.00000 F2400.00000
G92 E0
G1 X72.092 Y75.659 F7800.000
G1 E2.00000 F2400.00000
G1 X80.892 Y68.275 E2.35545 F1800.000
G1 X83.965 Y66.832 E2.46049
G1 X94.965 Y64.832 E2.80643
G1 X96.150 Y64.725 E2.84325
G1 X104.150 Y64.725 E3.09078
G1 X105.335 Y64.832 E3.12759
G1 X116.335 Y66.832 E3.47353 F1800.000
G1 X118.486 Y67.627 E3.54449
G1 X119.835 Y68.666 E3.59715
G1 X128.335 Y77.166 E3.96909
G1 X129.651 Y79.043 E4.04005
G1 X130.275 Y81.850 E4.12901
G1 X130.275 Y93.350 E4.48483
G1 X129.878 Y95.609 E4.55580
G1 X128.335 Y98.035 E4.64476
G1 X93.035 Y133.335 E6.18940
G1 X91.157 Y134.651 E6.26036
G1 X88.350 Y135.275 E6.34932
G1 X80.350 Y135.275 E6.59685
G1 X78.091 Y134.878 E6.66781
G1 X75.665 Y133.335 E6.75677
G1 X71.665 Y129.335 E6.93180
G1 X70.349 Y127.457 E7.00276
G1 X69.725 Y124.650 E7.09172
G1 X69.725 Y80.734 E8.45054
G1 X70.122 Y78.475 E8.52150
G1 X71.265 Y76.487 E8.59246
G1 X72.055 Y75.696 E8.62703
G1 E6.62703 F2400.00000
G92 E0
G1 X89.544 Y110.443 F7800.000
G1 E2.00000 F2400.00000
G1 X88.880 Y111.181 E2.03074 F1800.000
G1 X88.076 Y111.765 E2.06148
G1 X87.168 Y112.169 E2.09221
G1 X86.197 Y112.376 E2.12295
G1 X85.203 Y112.376 E2.15369
G1 X84.232 Y112.169 E2.18443
G1 X83.324 Y111.765 E2.21516
G1 X82.520 Y111.181 E2.24590
G1 X81.856 Y110.443 E2.27664
G1 X81.359 Y109.583 E2.30738
G1 X81.052 Y108.638 E2.33812
G1 X80.950 Y107.664 E2.36840
G1 X81.052 Y106.663 E2.39956
G1 X81.359 Y105.717 E2.43032
G1 X81.856 Y104.857 E2.46106
G1 X82.520 Y104.119 E2.49179
G1 X83.324 Y103.535 E2.52253
G1 X84.232 Y103.131 E2.55327
G1 X85.203 Y102.924 E2.58401
G1 X86.197 Y102.924 E2.61475 F1800.000
G1 X87.168 Y103.131 E2.64548
G1 X88.076 Y103.535 E2.67622
G1 X88.880 Y104.119 E2.70696
G1 X89.544 Y104.857 E2.73770
G1 X90.041 Y105.717 E2.76844
G1 X90.348 Y106.662 E2.79917
G1 X90.452 Y107.650 E2.82991
G1 X90.348 Y108.638 E2.86065
G1 X90.041 Y109.583 E2.89138
G1 X89.571 Y110.398 E2.92050
G1 X89.676 Y110.768 F7800.000
G1 X87.696 Y120.297 F7800.000
G1 X88.084 Y120.369 E2.93271 F1800.000
G1 X89.011 Y120.989 E2.96721
G1 X89.628 Y121.912 E3.00155
G1 X89.844 Y123.000 E3.03588
G1 X89.628 Y124.088 E3.07022
G1 X89.011 Y125.011 E3.10455
G1 X88.088 Y125.628 E3.13889
G1 X87.000 Y125.844 E3.17322
G1 X85.912 Y125.628 E3.20756
G1 X84.989 Y125.011 E3.24189
G1 X84.372 Y124.088 E3.27622
G1 X84.156 Y123.000 E3.31056
G1 X84.372 Y121.912 E3.34490
G1 X84.989 Y120.989 E3.37923
G1 X85.912 Y120.372 E3.41356
G1 X86.974 Y120.161 E3.44708 F1800.000
G1 X87.644 Y120.287 E3.46818
G1 X87.581 Y120.911 F7800.000
G1 X87.843 Y120.960 E3.47644 F1800.000
G1 X88.560 Y121.440 E3.50314
G1 X89.039 Y122.155 E3.52978
G1 X89.207 Y123.000 E3.55643
G1 X89.039 Y123.845 E3.58307
G1 X88.560 Y124.560 E3.60971
G1 X87.845 Y125.039 E3.63635
G1 X87.000 Y125.207 E3.66300
G1 X86.155 Y125.039 E3.68964
G1 X85.440 Y124.560 E3.71628
G1 X84.961 Y123.845 E3.74292
G1 X84.793 Y123.000 E3.76957
G1 X84.961 Y122.155 E3.79621
G1 X85.440 Y121.440 E3.82285
G1 X86.155 Y120.961 E3.84950
G1 X86.977 Y120.798 E3.87543 F1800.000
G1 X87.529 Y120.901 E3.89279
G1 X87.754 Y120.708 F7800.000
G1 E1.89279 F2400.00000
G92 E0
G1 X115.989 Y94.011 F7800.000
G1 E2.00000 F2400.00000
G1 X115.372 Y93.088 E2.03433 F1800.000
G1 X115.156 Y92.000 E2.06867
G1 X115.372 Y90.912 E2.10301
G1 X115.989 Y89.989 E2.13734
G1 X116.912 Y89.372 E2.17167
G1 X117.974 Y89.161 E2.20519 F1800.000
G1 X119.084 Y89.369 E2.24013
G1 X120.011 Y89.989 E2.27463
G1 X120.628 Y90.912 E2.30896
G1 X120.844 Y92.000 E2.34330
G1 X120.628 Y93.088 E2.37764
G1 X120.011 Y94.011 E2.41197
G1 X119.088 Y94.628 E2.44630
G1 X118.000 Y94.844 E2.48064
G1 X116.912 Y94.628 E2.51497
G1 X116.033 Y94.040 E2.54768
G1 X116.440 Y93.560 F7800.000
G1 X115.961 Y92.845 E2.57432 F1800.000
G1 X115.793 Y92.000 E2.60097
G1 X115.961 Y91.155 E2.62761
G1 X116.440 Y90.440 E2.65425
G1 X117.155 Y89.961 E2.68089
G1 X117.977 Y89.798 E2.70683 F1800.000
G1 X118.843 Y89.960 E2.73407
G1 X119.560 Y90.440 E2.76078
G1 X120.039 Y91.155 E2.78742
G1 X120.207 Y92.000 E2.81406
G1 X120.039 Y92.845 E2.84071
G1 X119.560 Y93.560 E2.86735
G1 X118.845 Y94.039 E2.89399
G1 X118.000 Y94.207 E2.92063
G1 X117.155 Y94.039 E2.94728
G1 X116.483 Y93.590 E2.97229
G1 X116.096 Y93.629 F7800.000
G1 X90.481 Y92.000 F7800.000
G1 X90.216 Y93.332 E3.01432 F1800.000
G1 X89.461 Y94.461 E3.05635
G1 X88.332 Y95.216 E3.09837
G1 X87.000 Y95.481 E3.14040
G1 X85.668 Y95.216 E3.18243
G1 X84.538 Y94.461 E3.22445
G1 X83.784 Y93.332 E3.26648
G1 X83.519 Y92.000 E3.30851
G1 X83.784 Y90.668 E3.35053
G1 X84.538 Y89.539 E3.39256
G1 X85.668 Y88.784 E3.43458
G1 X86.970 Y88.525 E3.47568 F1800.000
G1 X88.325 Y88.779 E3.51832
G1 X89.461 Y89.539 E3.56062
G1 X90.216 Y90.668 E3.60264
G1 X90.471 Y91.949 E3.64305
G1 X89.844 Y92.000 F7800.000
G1 X89.628 Y93.088 E3.67738 F1800.000
G1 X89.011 Y94.011 E3.71172
G1 X88.088 Y94.628 E3.74605
G1 X87.000 Y94.844 E3.78039
G1 X85.912 Y94.628 E3.81472
G1 X84.989 Y94.011 E3.84906
G1 X84.372 Y93.088 E3.88339
G1 X84.156 Y92.000 E3.91772
G1 X84.372 Y90.912 E3.95206
G1 X84.989 Y89.989 E3.98639
G1 X85.912 Y89.372 E4.02073
G1 X86.974 Y89.161 E4.05424 F1800.000
G1 X88.084 Y89.369 E4.08918
G1 X89.011 Y89.989 E4.12368
G1 X89.628 Y90.912 E4.15802
G1 X89.834 Y91.949 E4.19073
G1 X89.207 Y92.000 F7800.000
G1 X89.039 Y92.845 E4.21737 F1800.000
G1 X88.560 Y93.560 E4.24401
G1 X87.845 Y94.039 E4.27066
G1 X87.000 Y94.207 E4.29730
G1 X86.155 Y94.039 E4.32394
G1 X85.440 Y93.560 E4.35059
G1 X84.961 Y92.845 E4.37723
G1 X84.793 Y92.000 E4.40387
G1 X84.961 Y91.155 E4.43051
G1 X85.440 Y90.440 E4.45716
G1 X86.155 Y89.961 E4.48380
G1 X86.977 Y89.798 E4.50973 F1800.000
G1 X87.843 Y89.960 E4.53698
G1 X88.560 Y90.440 E4.56368
G1 X89.039 Y91.155 E4.59032
G1 X89.197 Y91.949 E4.61534
G1 X89.498 Y92.194 F7800.000
G1 X89.750 Y94.750 F7800.000
G1 X89.750 Y103.206 E4.87698 F1800.000
G1 X88.704 Y102.446 E4.91699
G1 X87.557 Y101.936 E4.95585
G1 X86.328 Y101.674 E4.99472
G1 X85.072 Y101.674 E5.03359
G1 X83.843 Y101.936 E5.07245
G1 X82.696 Y102.446 E5.11132
G1 X81.679 Y103.185 E5.15018
G1 X80.839 Y104.118 E5.18905
G1 X80.211 Y105.206 E5.22792
G1 X79.822 Y106.403 E5.26686
G1 X79.693 Y107.666 E5.30615
G1 X79.823 Y108.899 E5.34451
G1 X80.211 Y110.094 E5.38337
G1 X80.839 Y111.182 E5.42224
G1 X81.679 Y112.115 E5.46111
G1 X82.696 Y112.854 E5.49997
G1 X83.843 Y113.364 E5.53884
G1 X85.072 Y113.626 E5.57771
G1 X86.328 Y113.626 E5.61657
G1 X87.557 Y113.364 E5.65544
G1 X88.704 Y112.854 E5.69431
G1 X89.750 Y112.094 E5.73431
G1 X89.750 Y120.732 E6.00158
G1 X88.325 Y119.779 E6.05463
G1 X86.970 Y119.525 E6.09726
G1 X85.668 Y119.784 E6.13836
G1 X84.538 Y120.539 E6.18039
G1 X83.784 Y121.668 E6.22241
G1 X83.519 Y123.000 E6.26444
G1 X83.784 Y124.332 E6.30647
G1 X84.538 Y125.461 E6.34849
G1 X85.668 Y126.216 E6.39052
G1 X87.000 Y126.481 E6.43254
G1 X88.099 Y126.263 E6.46720
G1 X88.230 Y126.508 E6.47581
G1 X87.687 Y127.050 E6.49954
G1 X81.013 Y127.050 E6.70606
G1 X77.950 Y123.987 E6.84009
G1 X77.950 Y81.480 E8.15532
G1 X85.732 Y74.950 E8.46966
G1 X97.750 Y74.950 E8.84150
G1 X97.750 Y72.950 E8.90338
G1 X102.550 Y72.950 E9.05191
G1 X102.550 Y74.950 E9.11380
G1 X114.487 Y74.950 E9.48315
G1 X122.050 Y82.513 E9.81408
G1 X122.050 Y92.687 E10.12890
G1 X121.508 Y93.230 E10.15263
G1 X121.263 Y93.099 E10.16124
G1 X121.481 Y92.000 E10.19589
G1 X121.216 Y90.668 E10.23793
G1 X120.461 Y89.539 E10.27995
G1 X119.325 Y88.779 E10.32225
G1 X117.970 Y88.525 E10.36488
G1 X116.668 Y88.784 E10.40598
G1 X115.539 Y89.539 E10.44801
G1 X114.784 Y90.668 E10.49003
G1 X114.519 Y92.000 E10.53206
G1 X114.784 Y93.332 E10.57409
G1 X115.732 Y94.750 E10.62686
G1 X89.803 Y94.750 E11.42913
G1 X90.375 Y95.375 F7800.000
G1 X90.375 Y104.845 E11.72216 F1800.000
G1 X89.300 Y103.652 E11.77187
G1 X88.390 Y102.991 E11.80667
G1 X87.363 Y102.533 E11.84147
G1 X86.262 Y102.299 E11.87627
G1 X85.138 Y102.299 E11.91108
G1 X84.037 Y102.533 E11.94588
G1 X83.010 Y102.991 E11.98068
G1 X82.100 Y103.652 E12.01548
G1 X81.347 Y104.488 E12.05028
G1 X80.785 Y105.462 E12.08509
G1 X80.437 Y106.533 E12.11993
G1 X80.321 Y107.665 E12.15516
G1 X80.437 Y108.769 E12.18948
G1 X80.785 Y109.838 E12.22428
G1 X81.347 Y110.812 E12.25909
G1 X82.100 Y111.648 E12.29389
G1 X83.010 Y112.309 E12.32869
G1 X84.037 Y112.767 E12.36349
G1 X85.138 Y113.001 E12.39829
G1 X86.262 Y113.001 E12.43310
G1 X87.363 Y112.767 E12.46790
G1 X88.390 Y112.309 E12.50270
G1 X89.300 Y111.648 E12.53750
G1 X90.375 Y110.455 E12.58721
G1 X90.375 Y125.246 E13.04488
G1 X87.946 Y127.675 E13.15117
G1 X80.754 Y127.675 E13.37371
G1 X77.325 Y124.246 E13.52375
G1 X77.325 Y81.189 E14.85601
G1 X85.505 Y74.325 E15.18640
G1 X97.125 Y74.325 E15.54594
G1 X97.125 Y72.325 E15.60783
G1 X103.175 Y72.325 E15.79503
G1 X103.175 Y74.325 E15.85691
G1 X114.746 Y74.325 E16.21494
G1 X122.675 Y82.254 E16.56189
G1 X122.675 Y92.946 E16.89272
G1 X120.246 Y95.375 E16.99901
G1 X90.428 Y95.375 E17.92163
G1 X91.000 Y96.000 F7800.000
G1 X91.000 Y125.505 E18.83456 F1800.000
G1 X88.205 Y128.300 E18.95686
G1 X80.495 Y128.300 E19.19542
G1 X76.700 Y124.505 E19.36148
G1 X76.700 Y80.897 E20.71076
G1 X85.277 Y73.700 E21.05721
G1 X96.500 Y73.700 E21.40445
G1 X96.500 Y71.700 E21.46633
G1 X103.800 Y71.700 E21.69220
G1 X103.800 Y73.700 E21.75409
G1 X115.005 Y73.700 E22.10078
G1 X123.300 Y81.995 E22.46375
G1 X123.300 Y93.205 E22.81061
G1 X120.505 Y96.000 E22.93291
G1 X91.052 Y96.000 E23.84421
G1 X90.650 Y96.000 F7800.000
G1 X89.427 Y95.580 F7800.000
G1 X88.520 Y95.580 E23.87255 F1800.000
G1 X89.427 Y96.212 E23.90709
G1 X78.293 Y96.212 E24.25515
G1 X78.293 Y96.843 E24.27489
G1 X89.427 Y96.843 E24.62296
G1 X89.427 Y97.474 E24.64270
G1 X78.293 Y97.474 E24.99077
G1 X78.293 Y98.106 E25.01051
G1 X89.427 Y98.106 E25.35857
G1 X89.427 Y98.737 E25.37831
G1 X78.293 Y98.737 E25.72638
G1 X78.293 Y99.369 E25.74612
G1 X89.427 Y99.369 E26.09419
G1 X89.427 Y100.000 E26.11393
G1 X78.293 Y100.000 E26.46199
G1 X78.293 Y100.631 E26.48173
G1 X89.427 Y100.631 E26.82980
G1 X89.427 Y101.263 E26.84954
G1 X86.663 Y101.263 E26.93594
G1 X84.737 Y101.263 F7800.000
G1 X78.293 Y101.263 E27.13739 F1800.000
G1 X78.293 Y101.894 E27.15713
G1 X82.867 Y101.894 E27.30011
G1 X81.905 Y102.526 E27.33609
G1 X78.293 Y102.526 E27.44898
G1 X78.293 Y103.157 E27.46872
G1 X81.204 Y103.157 E27.55972
G1 X80.635 Y103.788 E27.58629
G1 X78.293 Y103.788 E27.65951
G1 X78.293 Y104.420 E27.67925
G1 X80.262 Y104.420 E27.74079
G1 X79.911 Y105.051 E27.76338
G1 X78.293 Y105.051 E27.81396
G1 X78.293 Y105.683 E27.83370
G1 X79.706 Y105.683 E27.87786
G1 X79.505 Y106.314 E27.89858
G1 X78.293 Y106.314 E27.93645
G1 X78.293 Y106.945 E27.95619
G1 X79.440 Y106.945 E27.99204
G1 X79.376 Y107.577 E28.01189
G1 X78.293 Y107.577 E28.04573
G1 X78.293 Y108.208 E28.06547
G1 X79.424 Y108.208 E28.10080
G1 X79.490 Y108.840 E28.12065
G1 X78.293 Y108.840 E28.15806
G1 X78.293 Y109.471 E28.17780
G1 X79.659 Y109.471 E28.22048
G1 X79.864 Y110.103 E28.24124
G1 X78.293 Y110.103 E28.29033
G1 X78.293 Y110.734 E28.31007
G1 X80.178 Y110.734 E28.36898
G1 X80.542 Y111.365 E28.39177
G1 X78.293 Y111.365 E28.46208
G1 X78.293 Y111.997 E28.48182
G1 X81.072 Y111.997 E28.56870
G1 X81.703 Y112.628 E28.59660
G1 X78.293 Y112.628 E28.70321
G1 X78.293 Y113.260 E28.72295
G1 X82.572 Y113.260 E28.85673
G1 X84.049 Y113.891 F7800.000
G1 X78.293 Y113.891 E29.03668 F1800.000
G1 X78.293 Y114.522 E29.05642
G1 X89.427 Y114.522 E29.40449
G1 X89.427 Y113.891 E29.42423
G1 X87.351 Y113.891 E29.48913
G1 X88.828 Y113.260 F7800.000
G1 X89.427 Y113.260 E29.50785 F1800.000
G1 X89.427 Y115.154 F7800.000
G1 X78.293 Y115.154 E29.85592 F1800.000
G1 X78.293 Y115.785 E29.87566
G1 X89.427 Y115.785 E30.22372
G1 X89.427 Y116.417 E30.24347
G1 X78.293 Y116.417 E30.59153
G1 X78.293 Y117.048 E30.61127
G1 X89.427 Y117.048 E30.95934
G1 X89.427 Y117.679 E30.97908
G1 X78.293 Y117.679 E31.32714
G1 X78.293 Y118.311 E31.34688
G1 X89.427 Y118.311 E31.69495
G1 X89.427 Y118.942 E31.71469
G1 X78.293 Y118.942 E32.06276
G1 X78.293 Y119.574 E32.08250
G1 X85.250 Y119.574 E32.29998
G1 X84.334 Y120.205 E32.33476
G1 X78.293 Y120.205 E32.52361
G1 X78.293 Y120.836 E32.54335
G1 X83.912 Y120.836 E32.71902
G1 X83.490 Y121.468 E32.74276
G1 X78.293 Y121.468 E32.90523
G1 X78.293 Y122.099 E32.92497
G1 X83.364 Y122.099 E33.08351
G1 X83.239 Y122.731 E33.10363
G1 X78.293 Y122.731 E33.25824
G1 X78.293 Y123.362 E33.27799
G1 X83.257 Y123.362 E33.43317
G1 X83.383 Y123.993 E33.45330
G1 X78.491 Y123.993 E33.60623
G1 X79.123 Y124.625 E33.63414
G1 X83.552 Y124.625 E33.77263
G1 X83.974 Y125.256 E33.79637
G1 X79.754 Y125.256 E33.92830
G1 X80.386 Y125.888 E33.95622
G1 X84.444 Y125.888 E34.08310
G1 X84.329 Y126.519 E34.10317
G1 X81.017 Y126.519 E34.20671
G1 E32.20671 F2400.00000
G92 E0
G1 X88.750 Y119.574 F7800.000
G1 E2.00000 F2400.00000
G1 X89.427 Y119.574 E2.02115 F1800.000
G1 E0.02115 F2400.00000
G92 E0
G1 X89.427 Y101.894 F7800.000
G1 E2.00000 F2400.00000
G1 X88.533 Y101.894 E2.02793 F1800.000
G1 X85.480 Y95.580 F7800.000
G1 X78.293 Y95.580 E2.25261 F1800.000
G1 X78.293 Y94.949 E2.27235
G1 X84.535 Y94.949 E2.46749
G1 X84.015 Y94.317 E2.49307
G1 X78.293 Y94.317 E2.67195
G1 X78.293 Y93.686 E2.69169
G1 X83.593 Y93.686 E2.85737
G1 X83.395 Y93.055 E2.87806
G1 X78.293 Y93.055 E3.03755
G1 X78.293 Y92.423 E3.05729
G1 X83.269 Y92.423 E3.21286
G1 X83.227 Y91.792 E3.23265
G1 X78.293 Y91.792 E3.38688
G1 X78.293 Y91.160 E3.40662
G1 X83.352 Y91.160 E3.56478
G1 X83.478 Y90.529 E3.58490
G1 X78.293 Y90.529 E3.74699
G1 X78.293 Y89.898 E3.76673
G1 X83.871 Y89.898 E3.94111
G1 X84.293 Y89.266 E3.96486
G1 X78.293 Y89.266 E4.15243
G1 X78.293 Y88.635 E4.17217
G1 X85.159 Y88.635 E4.38680
G1 E2.38680 F2400.00000
G92 E0
G1 X90.407 Y93.686 F7800.000
G1 E2.00000 F2400.00000
G1 X114.593 Y93.686 E2.75615 F1800.000
G1 X114.395 Y93.055 E2.77683
G1 X90.605 Y93.055 E3.52060
G1 X90.731 Y92.423 E3.54073
G1 X114.269 Y92.423 E4.27664
G1 X114.227 Y91.792 E4.29643
G1 X90.773 Y91.792 E5.02967
G1 X90.648 Y91.160 E5.04980
G1 X114.352 Y91.160 E5.79090
G1 X114.478 Y90.529 E5.81102
G1 X90.522 Y90.529 E6.55997
G1 X90.129 Y89.898 E6.58323
G1 X114.871 Y89.898 E7.35679
G1 X115.293 Y89.266 E7.38053
G1 X89.707 Y89.266 E8.18047
G1 X88.841 Y88.635 E8.21396
G1 X116.159 Y88.635 E9.06800
G1 X121.295 Y89.266 F7800.000
G1 X120.707 Y89.266 E9.08640 F1800.000
G1 X119.841 Y88.635 E9.11988
G1 X121.707 Y88.635 E9.17819
G1 X121.707 Y88.003 E9.19793
G1 X78.293 Y88.003 E10.55520
G1 X78.293 Y87.372 E10.57494
G1 X121.707 Y87.372 E11.93221
G1 X121.707 Y86.740 E11.95195
G1 X78.293 Y86.740 E13.30922
G1 X78.293 Y86.109 E13.32896
G1 X121.707 Y86.109 E14.68623
G1 X121.707 Y85.478 E14.70597
G1 X78.293 Y85.478 E16.06324
G1 X78.293 Y84.846 E16.08298
G1 X121.707 Y84.846 E17.44025
G1 X121.707 Y84.215 E17.45999
G1 X78.293 Y84.215 E18.81726
G1 X78.293 Y83.583 E18.83700
G1 X121.707 Y83.583 E20.19427
G1 X121.707 Y82.952 E20.21401
G1 X78.293 Y82.952 E21.57128
G1 X78.293 Y82.321 E21.59102
G1 X121.323 Y82.321 E22.93629
G1 X120.691 Y81.689 E22.96421
G1 X78.308 Y81.689 E24.28928
G1 X79.061 Y81.058 E24.31999
G1 X120.060 Y81.058 E25.60179
G1 X119.429 Y80.426 E25.62971
G1 X79.813 Y80.426 E26.86824
G1 X80.566 Y79.795 E26.89895
G1 X118.797 Y79.795 E28.09423
G1 X118.166 Y79.164 E28.12214
G1 X81.318 Y79.164 E29.27415
G1 X82.071 Y78.532 E29.30486
G1 X117.534 Y78.532 E30.41360
G1 X116.903 Y77.901 E30.44151
G1 X82.823 Y77.901 E31.50699
G1 X83.576 Y77.269 E31.53770
G1 X116.272 Y77.269 E32.55990
G1 X115.640 Y76.638 E32.58782
G1 X84.328 Y76.638 E33.56676
G1 X85.081 Y76.007 E33.59747
G1 X115.009 Y76.007 E34.53315
G1 X102.227 Y75.375 F7800.000
G1 X98.073 Y75.375 E34.66299 F1800.000
G1 X98.073 Y74.744 E34.68273
G1 X102.227 Y74.744 E34.81257
G1 X102.227 Y74.112 E34.83231
G1 X98.073 Y74.112 E34.96216
