; generated by Slic3r 1.2.9 on 2015-12-03 at 16:18:19

; external perimeters extrusion width = 0.40mm
; perimeters extrusion width = 0.48mm
; infill extrusion width = 0.48mm
; solid infill extrusion width = 0.48mm
; top infill extrusion width = 0.48mm

M190 S80 ; set bed temperature
M109 S230
G28 ; home all axes
G92 E0  ;reset extruder
G21 ; set units to millimeters
G90 ; use absolute coordinates
M83 ; use relative distances for extrusion
G1 E-1.00000 F1800.00000
G1 Z0.350 F7800.000
G1 X50.303 Y53.246 F7800.000
G1 E1.00000 F1800.00000
G1 X52.055 Y51.767 E0.21588 F1440.000
G1 X55.301 Y50.868 E0.31698
G1 X121.779 Y50.002 E6.25808
G1 X141.779 Y50.002 E1.88258
G1 X144.038 Y50.399 E0.21588
G1 X146.026 Y51.543 E0.21588 F1440.000
G1 X147.505 Y53.296 E0.21588
G1 X148.398 Y56.342 E0.29878
G1 X151.238 Y122.247 E6.20942
G1 X151.238 Y142.247 E1.88258
G1 X150.841 Y144.506 E0.21588
G1 X149.697 Y146.494 E0.21588
G1 X147.945 Y147.973 E0.21588
G1 X144.721 Y148.871 E0.31495
G1 X76.076 Y149.997 E6.46237
G1 X55.968 Y149.998 E1.89281
G1 X53.709 Y149.601 E0.21588
G1 X51.721 Y148.457 E0.21588
G1 X50.242 Y146.704 E0.21588
G1 X49.343 Y143.431 E0.31952
G1 X48.763 Y77.551 E6.20146
G1 X48.762 Y57.493 E1.88808
G1 X49.159 Y55.234 E0.21588
G1 X50.273 Y53.298 E0.21023
G1 E-1.00000 F1800.00000
G1 X141.429 Y76.277 F7800.000
G1 E1.00000 F1800.00000
G1 X122.129 Y76.277 E1.81670 F588.000
G1 X122.129 Y56.977 E1.81670
G1 X141.429 Y56.977 E1.81670
G1 X141.429 Y76.217 E1.81105
G1 X141.051 Y57.661 F7800.000
G1 X140.745 Y57.356 E0.04089 F1080.000
G1 X139.856 Y57.356 E0.08430
G1 X141.051 Y58.551 E0.16011
G1 X141.051 Y59.440 E0.08430
G1 X138.966 Y57.356 E0.27934
G1 X138.077 Y57.356 E0.08430
G1 X141.051 Y60.330 E0.39856
G1 X141.051 Y61.220 E0.08430
G1 X137.187 Y57.356 E0.51778
G1 X136.297 Y57.356 E0.08430
G1 X141.051 Y62.109 E0.63700
G1 X141.051 Y62.999 E0.08430
G1 X135.408 Y57.356 E0.75623
G1 X134.518 Y57.356 E0.08430
G1 X141.051 Y63.889 E0.87545
G1 X141.051 Y64.778 E0.08430
G1 X133.628 Y57.356 E0.99467
G1 X132.739 Y57.356 E0.08430
G1 X141.051 Y65.668 E1.11390
G1 X141.051 Y66.558 E0.08430
G1 X131.849 Y57.356 E1.23312
G1 X130.959 Y57.356 E0.08430
G1 X141.051 Y67.447 E1.35234
G1 X141.051 Y68.337 E0.08430
G1 X130.070 Y57.356 E1.47157
G1 X129.180 Y57.356 E0.08430
G1 X141.051 Y69.226 E1.59079
G1 X141.051 Y70.116 E0.08430
G1 X128.290 Y57.356 E1.71001
G1 X127.401 Y57.356 E0.08430
G1 X141.051 Y71.006 E1.82924
G1 X141.051 Y71.895 E0.08430
G1 X126.511 Y57.356 E1.94846
G1 X125.621 Y57.356 E0.08430
G1 X141.051 Y72.785 E2.06768
G1 X141.051 Y73.675 E0.08430
G1 X124.732 Y57.356 E2.18690
G1 X123.842 Y57.356 E0.08430
G1 X141.051 Y74.564 E2.30613
G1 X141.051 Y75.454 E0.08430
G1 X122.952 Y57.356 E2.42535
G1 X122.508 Y57.801 E0.05961
G1 X140.606 Y75.899 E2.42535
G1 X139.716 Y75.899 E0.08430
G1 X122.508 Y58.690 E2.30612
G1 X122.508 Y59.580 E0.08430
G1 X138.826 Y75.899 E2.18690
G1 X137.937 Y75.899 E0.08430
G1 X122.508 Y60.470 E2.06768
G1 X122.508 Y61.359 E0.08430
G1 X137.047 Y75.899 E1.94846
G1 X136.158 Y75.899 E0.08430
G1 X122.508 Y62.249 E1.82923
G1 X122.508 Y63.139 E0.08430
G1 X135.268 Y75.899 E1.71001
G1 X134.378 Y75.899 E0.08430
G1 X122.508 Y64.028 E1.59079
G1 X122.508 Y64.918 E0.08430
G1 X133.489 Y75.899 E1.47156
G1 X132.599 Y75.899 E0.08430
G1 X122.508 Y65.808 E1.35234
G1 X122.508 Y66.697 E0.08430
G1 X131.709 Y75.899 E1.23312
G1 X130.820 Y75.899 E0.08430
G1 X122.508 Y67.587 E1.11389
G1 X122.508 Y68.477 E0.08430
G1 X129.930 Y75.899 E0.99467
G1 X129.040 Y75.899 E0.08430
G1 X122.508 Y69.366 E0.87545
G1 X122.508 Y70.256 E0.08430
G1 X128.151 Y75.899 E0.75622
G1 X127.261 Y75.899 E0.08430
G1 X122.508 Y71.145 E0.63700
G1 X122.508 Y72.035 E0.08430
G1 X126.371 Y75.899 E0.51778
G1 X125.482 Y75.899 E0.08430
G1 X122.508 Y72.925 E0.39856
G1 X122.508 Y73.814 E0.08430
G1 X124.592 Y75.899 E0.27933
G1 X123.702 Y75.899 E0.08430
G1 X122.508 Y74.704 E0.16011
G1 X122.508 Y75.594 E0.08430
G1 X122.813 Y75.899 E0.04089
G1 E-1.00000 F1800.00000
G1 X144.263 Y141.897 F7800.000
G1 E1.00000 F1800.00000
G1 X124.963 Y141.897 E1.81670 F588.000
G1 X124.963 Y122.597 E1.81670
G1 X144.263 Y122.597 E1.81670
G1 X144.263 Y141.837 E1.81105
G1 X143.884 Y123.281 F7800.000
G1 X143.579 Y122.976 E0.04089 F1080.000
G1 X142.690 Y122.976 E0.08430
G1 X143.884 Y124.171 E0.16011
G1 X143.884 Y125.060 E0.08430
G1 X141.800 Y122.976 E0.27934
G1 X140.910 Y122.976 E0.08430
G1 X143.884 Y125.950 E0.39856
G1 X143.884 Y126.840 E0.08430
G1 X140.021 Y122.976 E0.51778
G1 X139.131 Y122.976 E0.08430
G1 X143.884 Y127.729 E0.63700
G1 X143.884 Y128.619 E0.08430
G1 X138.241 Y122.976 E0.75623
G1 X137.352 Y122.976 E0.08430
G1 X143.884 Y129.509 E0.87545
G1 X143.884 Y130.398 E0.08430
G1 X136.462 Y122.976 E0.99467
G1 X135.572 Y122.976 E0.08430
G1 X143.884 Y131.288 E1.11390
G1 X143.884 Y132.178 E0.08430
G1 X134.683 Y122.976 E1.23312
G1 X133.793 Y122.976 E0.08430
G1 X143.884 Y133.067 E1.35234
G1 X143.884 Y133.957 E0.08430
G1 X132.903 Y122.976 E1.47157
G1 X132.014 Y122.976 E0.08430
G1 X143.884 Y134.846 E1.59079
G1 X143.884 Y135.736 E0.08430
G1 X131.124 Y122.976 E1.71001
G1 X130.234 Y122.976 E0.08430
G1 X143.884 Y136.626 E1.82924
G1 X143.884 Y137.515 E0.08430
G1 X129.345 Y122.976 E1.94846
G1 X128.455 Y122.976 E0.08430
G1 X143.884 Y138.405 E2.06768
G1 X143.884 Y139.295 E0.08430
G1 X127.565 Y122.976 E2.18690
G1 X126.676 Y122.976 E0.08430
G1 X143.884 Y140.184 E2.30613
G1 X143.884 Y141.074 E0.08430
G1 X125.786 Y122.976 E2.42535
G1 X125.341 Y123.421 E0.05961
G1 X143.439 Y141.519 E2.42535
G1 X142.550 Y141.519 E0.08430
G1 X125.341 Y124.310 E2.30612
G1 X125.341 Y125.200 E0.08430
G1 X141.660 Y141.519 E2.18690
G1 X140.770 Y141.519 E0.08430
G1 X125.341 Y126.090 E2.06768
G1 X125.341 Y126.979 E0.08430
G1 X139.881 Y141.519 E1.94846
G1 X138.991 Y141.519 E0.08430
G1 X125.341 Y127.869 E1.82923
G1 X125.341 Y128.759 E0.08430
G1 X138.102 Y141.519 E1.71001
G1 X137.212 Y141.519 E0.08430
G1 X125.341 Y129.648 E1.59079
G1 X125.341 Y130.538 E0.08430
G1 X136.322 Y141.519 E1.47156
G1 X135.433 Y141.519 E0.08430
G1 X125.341 Y131.428 E1.35234
G1 X125.341 Y132.317 E0.08430
G1 X134.543 Y141.519 E1.23312
G1 X133.653 Y141.519 E0.08430
G1 X125.341 Y133.207 E1.11389
G1 X125.341 Y134.097 E0.08430
G1 X132.764 Y141.519 E0.99467
G1 X131.874 Y141.519 E0.08430
G1 X125.341 Y134.986 E0.87545
G1 X125.341 Y135.876 E0.08430
G1 X130.984 Y141.519 E0.75622
G1 X130.095 Y141.519 E0.08430
G1 X125.341 Y136.765 E0.63700
G1 X125.341 Y137.655 E0.08430
G1 X129.205 Y141.519 E0.51778
G1 X128.315 Y141.519 E0.08430
G1 X125.341 Y138.545 E0.39856
G1 X125.341 Y139.434 E0.08430
G1 X127.426 Y141.519 E0.27933
G1 X126.536 Y141.519 E0.08430
G1 X125.341 Y140.324 E0.16011
G1 X125.341 Y141.214 E0.08430
G1 X125.646 Y141.519 E0.04089
G1 E-1.00000 F1800.00000
G1 X75.618 Y143.023 F7800.000
G1 E1.00000 F1800.00000
G1 X56.318 Y143.023 E1.81670 F588.000
G1 X56.318 Y123.723 E1.81670
G1 X75.618 Y123.723 E1.81670
G1 X75.618 Y142.963 E1.81105
G1 X75.239 Y124.406 F7800.000
G1 X74.934 Y124.101 E0.04089 F1080.000
G1 X74.045 Y124.101 E0.08430
G1 X75.239 Y125.296 E0.16011
G1 X75.239 Y126.186 E0.08430
G1 X73.155 Y124.101 E0.27934
G1 X72.265 Y124.101 E0.08430
G1 X75.239 Y127.075 E0.39856
G1 X75.239 Y127.965 E0.08430
G1 X71.376 Y124.101 E0.51778
G1 X70.486 Y124.101 E0.08430
G1 X75.239 Y128.855 E0.63700
G1 X75.239 Y129.744 E0.08430
G1 X69.596 Y124.101 E0.75623
G1 X68.707 Y124.101 E0.08430
G1 X75.239 Y130.634 E0.87545
G1 X75.239 Y131.523 E0.08430
G1 X67.817 Y124.101 E0.99467
G1 X66.927 Y124.101 E0.08430
G1 X75.239 Y132.413 E1.11390
G1 X75.239 Y133.303 E0.08430
G1 X66.038 Y124.101 E1.23312
G1 X65.148 Y124.101 E0.08430
G1 X75.239 Y134.192 E1.35234
G1 X75.239 Y135.082 E0.08430
G1 X64.258 Y124.101 E1.47157
G1 X63.369 Y124.101 E0.08430
G1 X75.239 Y135.972 E1.59079
G1 X75.239 Y136.861 E0.08430
G1 X62.479 Y124.101 E1.71001
G1 X61.589 Y124.101 E0.08430
G1 X75.239 Y137.751 E1.82924
G1 X75.239 Y138.641 E0.08430
G1 X60.700 Y124.101 E1.94846
G1 X59.810 Y124.101 E0.08430
G1 X75.239 Y139.530 E2.06768
G1 X75.239 Y140.420 E0.08430
G1 X58.920 Y124.101 E2.18690
G1 X58.031 Y124.101 E0.08430
G1 X75.239 Y141.310 E2.30613
G1 X75.239 Y142.199 E0.08430
G1 X57.141 Y124.101 E2.42535
G1 X56.696 Y124.546 E0.05961
G1 X74.794 Y142.644 E2.42535
G1 X73.905 Y142.644 E0.08430
G1 X56.696 Y125.436 E2.30612
G1 X56.696 Y126.325 E0.08430
G1 X73.015 Y142.644 E2.18690
G1 X72.126 Y142.644 E0.08430
G1 X56.696 Y127.215 E2.06768
G1 X56.696 Y128.105 E0.08430
G1 X71.236 Y142.644 E1.94846
G1 X70.346 Y142.644 E0.08430
G1 X56.696 Y128.994 E1.82923
G1 X56.696 Y129.884 E0.08430
G1 X69.457 Y142.644 E1.71001
G1 X68.567 Y142.644 E0.08430
G1 X56.696 Y130.774 E1.59079
G1 X56.696 Y131.663 E0.08430
G1 X67.677 Y142.644 E1.47156
G1 X66.788 Y142.644 E0.08430
G1 X56.696 Y132.553 E1.35234
G1 X56.696 Y133.443 E0.08430
G1 X65.898 Y142.644 E1.23312
G1 X65.008 Y142.644 E0.08430
G1 X56.696 Y134.332 E1.11389
G1 X56.696 Y135.222 E0.08430
G1 X64.119 Y142.644 E0.99467
G1 X63.229 Y142.644 E0.08430
G1 X56.696 Y136.111 E0.87545
G1 X56.696 Y137.001 E0.08430
G1 X62.339 Y142.644 E0.75622
G1 X61.450 Y142.644 E0.08430
G1 X56.696 Y137.891 E0.63700
G1 X56.696 Y138.780 E0.08430
G1 X60.560 Y142.644 E0.51778
G1 X59.670 Y142.644 E0.08430
G1 X56.696 Y139.670 E0.39856
G1 X56.696 Y140.560 E0.08430
G1 X58.781 Y142.644 E0.27933
G1 X57.891 Y142.644 E0.08430
G1 X56.696 Y141.449 E0.16011
G1 X56.696 Y142.339 E0.08430
G1 X57.001 Y142.644 E0.04089
G1 E-1.00000 F1800.00000
G1 X75.037 Y77.143 F7800.000
G1 E1.00000 F1800.00000
G1 X55.737 Y77.143 E1.81670 F588.000
G1 X55.737 Y57.843 E1.81670
G1 X75.037 Y57.843 E1.81670
G1 X75.037 Y77.083 E1.81105
G1 X74.659 Y58.526 F7800.000
G1 X74.354 Y58.221 E0.04089 F1080.000
G1 X73.464 Y58.221 E0.08430
G1 X74.659 Y59.416 E0.16011
G1 X74.659 Y60.306 E0.08430
G1 X72.574 Y58.221 E0.27934
G1 X71.685 Y58.221 E0.08430
G1 X74.659 Y61.195 E0.39856
G1 X74.659 Y62.085 E0.08430
G1 X70.795 Y58.221 E0.51778
G1 X69.905 Y58.221 E0.08430
G1 X74.659 Y62.975 E0.63700
G1 X74.659 Y63.864 E0.08430
G1 X69.016 Y58.221 E0.75623
G1 X68.126 Y58.221 E0.08430
G1 X74.659 Y64.754 E0.87545
G1 X74.659 Y65.644 E0.08430
G1 X67.236 Y58.221 E0.99467
G1 X66.347 Y58.221 E0.08430
G1 X74.659 Y66.533 E1.11390
G1 X74.659 Y67.423 E0.08430
G1 X65.457 Y58.221 E1.23312
G1 X64.567 Y58.221 E0.08430
G1 X74.659 Y68.313 E1.35234
G1 X74.659 Y69.202 E0.08430
G1 X63.678 Y58.221 E1.47157
G1 X62.788 Y58.221 E0.08430
G1 X74.659 Y70.092 E1.59079
G1 X74.659 Y70.982 E0.08430
G1 X61.898 Y58.221 E1.71001
G1 X61.009 Y58.221 E0.08430
G1 X74.659 Y71.871 E1.82924
G1 X74.659 Y72.761 E0.08430
G1 X60.119 Y58.221 E1.94846
G1 X59.229 Y58.221 E0.08430
G1 X74.659 Y73.651 E2.06768
G1 X74.659 Y74.540 E0.08430
G1 X58.340 Y58.221 E2.18690
G1 X57.450 Y58.221 E0.08430
G1 X74.659 Y75.430 E2.30613
G1 X74.659 Y76.319 E0.08430
G1 X56.561 Y58.221 E2.42535
G1 X56.116 Y58.666 E0.05961
G1 X74.214 Y76.764 E2.42535
G1 X73.324 Y76.764 E0.08430
G1 X56.116 Y59.556 E2.30612
G1 X56.116 Y60.445 E0.08430
G1 X72.435 Y76.764 E2.18690
G1 X71.545 Y76.764 E0.08430
G1 X56.116 Y61.335 E2.06768
G1 X56.116 Y62.225 E0.08430
G1 X70.655 Y76.764 E1.94846
G1 X69.766 Y76.764 E0.08430
G1 X56.116 Y63.114 E1.82923
G1 X56.116 Y64.004 E0.08430
G1 X68.876 Y76.764 E1.71001
G1 X67.986 Y76.764 E0.08430
G1 X56.116 Y64.894 E1.59079
G1 X56.116 Y65.783 E0.08430
G1 X67.097 Y76.764 E1.47156
G1 X66.207 Y76.764 E0.08430
G1 X56.116 Y66.673 E1.35234
G1 X56.116 Y67.563 E0.08430
G1 X65.317 Y76.764 E1.23312
G1 X64.428 Y76.764 E0.08430
G1 X56.116 Y68.452 E1.11389
G1 X56.116 Y69.342 E0.08430
G1 X63.538 Y76.764 E0.99467
G1 X62.648 Y76.764 E0.08430
G1 X56.116 Y70.232 E0.87545
G1 X56.116 Y71.121 E0.08430
G1 X61.759 Y76.764 E0.75622
G1 X60.869 Y76.764 E0.08430
G1 X56.116 Y72.011 E0.63700
G1 X56.116 Y72.901 E0.08430
G1 X59.979 Y76.764 E0.51778
G1 X59.090 Y76.764 E0.08430
G1 X56.116 Y73.790 E0.39856
G1 X56.116 Y74.680 E0.08430
G1 X58.200 Y76.764 E0.27933
G1 X57.310 Y76.764 E0.08430
G1 X56.116 Y75.570 E0.16011
G1 X56.116 Y76.459 E0.08430
G1 X56.421 Y76.764 E0.04089
M104 S231 ; set temperature
M140 S85 ; wait for bed temperature to be reached
G1 E-1.00000 F1800.00000
G1 Z0.650 F7800.000
G1 X141.579 Y76.427 F7800.000
G1 E1.00000 F1800.00000
G1 X121.979 Y76.427 E0.84934 F1470.000
G1 X121.979 Y56.827 E0.84934
G1 X141.579 Y56.827 E0.84934
G1 X141.579 Y76.367 E0.84674
G1 X141.132 Y76.198 F7800.000
G1 X141.350 Y75.980 E0.01689 F2700.000
G1 X141.350 Y75.379 E0.03295
G1 X140.531 Y76.198 E0.06348
G1 X139.931 Y76.198 E0.03295
G1 X141.350 Y74.779 E0.11008
G1 X141.350 Y74.178 E0.03295
G1 X139.330 Y76.198 E0.15668
G1 X138.729 Y76.198 E0.03295
G1 X141.350 Y73.577 E0.20327
G1 X141.350 Y72.976 E0.03295
G1 X138.128 Y76.198 E0.24987
G1 X137.528 Y76.198 E0.03295
G1 X141.350 Y72.376 E0.29647
G1 X141.350 Y71.775 E0.03295
G1 X136.927 Y76.198 E0.34306
G1 X136.326 Y76.198 E0.03295
G1 X141.350 Y71.174 E0.38966
G1 X141.350 Y70.574 E0.03295
G1 X135.725 Y76.198 E0.43626
G1 X135.125 Y76.198 E0.03295
G1 X141.350 Y69.973 E0.48285
G1 X141.350 Y69.372 E0.03295
G1 X134.524 Y76.198 E0.52945
G1 X133.923 Y76.198 E0.03295
G1 X141.350 Y68.771 E0.57604
G1 X141.350 Y68.171 E0.03295
G1 X133.322 Y76.198 E0.62264
G1 X132.722 Y76.198 E0.03295
G1 X141.350 Y67.570 E0.66924
G1 X141.350 Y66.969 E0.03295
G1 X132.121 Y76.198 E0.71583
G1 X131.520 Y76.198 E0.03295
G1 X141.350 Y66.368 E0.76243
G1 X141.350 Y65.768 E0.03295
G1 X130.919 Y76.198 E0.80903
G1 X130.319 Y76.198 E0.03295
G1 X141.350 Y65.167 E0.85562
G1 X141.350 Y64.566 E0.03295
G1 X129.718 Y76.198 E0.90222
G1 X129.117 Y76.198 E0.03295
G1 X141.350 Y63.965 E0.94882
G1 X141.350 Y63.365 E0.03295
G1 X128.516 Y76.198 E0.99541
G1 X127.916 Y76.198 E0.03295
G1 X141.350 Y62.764 E1.04201
G1 X141.350 Y62.163 E0.03295
G1 X127.315 Y76.198 E1.08861
G1 X126.714 Y76.198 E0.03295
G1 X141.350 Y61.562 E1.13520
G1 X141.350 Y60.962 E0.03295
G1 X126.113 Y76.198 E1.18180
G1 X125.513 Y76.198 E0.03295
G1 X141.350 Y60.361 E1.22840
G1 X141.350 Y59.760 E0.03295
G1 X124.912 Y76.198 E1.27499
G1 X124.311 Y76.198 E0.03295
G1 X141.350 Y59.159 E1.32159
G1 X141.350 Y58.559 E0.03295
G1 X123.710 Y76.198 E1.36819
G1 X123.110 Y76.198 E0.03295
G1 X141.350 Y57.958 E1.41478
G1 X141.350 Y57.357 E0.03295
G1 X122.509 Y76.198 E1.46138
G1 X122.209 Y75.898 E0.02330
G1 X141.049 Y57.057 E1.46138
G1 X140.449 Y57.057 E0.03295
G1 X122.209 Y75.297 E1.41478
G1 X122.209 Y74.696 E0.03295
G1 X139.848 Y57.057 E1.36818
G1 X139.247 Y57.057 E0.03295
G1 X122.209 Y74.095 E1.32159
G1 X122.209 Y73.495 E0.03295
G1 X138.646 Y57.057 E1.27499
G1 X138.046 Y57.057 E0.03295
G1 X122.209 Y72.894 E1.22840
G1 X122.209 Y72.293 E0.03295
G1 X137.445 Y57.057 E1.18180
G1 X136.844 Y57.057 E0.03295
G1 X122.209 Y71.692 E1.13520
G1 X122.209 Y71.092 E0.03295
G1 X136.243 Y57.057 E1.08861
G1 X135.643 Y57.057 E0.03295
G1 X122.209 Y70.491 E1.04201
G1 X122.209 Y69.890 E0.03295
G1 X135.042 Y57.057 E0.99541
G1 X134.441 Y57.057 E0.03295
G1 X122.209 Y69.289 E0.94882
G1 X122.209 Y68.689 E0.03295
G1 X133.840 Y57.057 E0.90222
G1 X133.240 Y57.057 E0.03295
G1 X122.209 Y68.088 E0.85562
G1 X122.209 Y67.487 E0.03295
G1 X132.639 Y57.057 E0.80903
G1 X132.038 Y57.057 E0.03295
G1 X122.209 Y66.886 E0.76243
G1 X122.209 Y66.286 E0.03295
G1 X131.437 Y57.057 E0.71583
G1 X130.837 Y57.057 E0.03295
G1 X122.209 Y65.685 E0.66924
G1 X122.209 Y65.084 E0.03295
G1 X130.236 Y57.057 E0.62264
G1 X129.635 Y57.057 E0.03295
G1 X122.209 Y64.483 E0.57604
G1 X122.209 Y63.883 E0.03295
G1 X129.034 Y57.057 E0.52945
G1 X128.434 Y57.057 E0.03295
G1 X122.209 Y63.282 E0.48285
G1 X122.209 Y62.681 E0.03295
G1 X127.833 Y57.057 E0.43626
G1 X127.232 Y57.057 E0.03295
G1 X122.209 Y62.080 E0.38966
G1 X122.209 Y61.480 E0.03295
G1 X126.631 Y57.057 E0.34306
G1 X126.031 Y57.057 E0.03295
G1 X122.209 Y60.879 E0.29647
G1 X122.209 Y60.278 E0.03295
G1 X125.430 Y57.057 E0.24987
G1 X124.829 Y57.057 E0.03295
G1 X122.209 Y59.677 E0.20327
G1 X122.209 Y59.077 E0.03295
G1 X124.229 Y57.057 E0.15668
G1 X123.628 Y57.057 E0.03295
G1 X122.209 Y58.476 E0.11008
G1 X122.209 Y57.875 E0.03295
G1 X123.027 Y57.057 E0.06348
G1 X122.426 Y57.057 E0.03295
G1 X122.209 Y57.275 E0.01689
G1 E-1.00000 F1800.00000
G1 X144.413 Y142.047 F7800.000
G1 E1.00000 F1800.00000
