; generated by Slic3r 1.2.9 on 2015-12-03 at 16:43:26

; external perimeters extrusion width = 0.35mm
; perimeters extrusion width = 0.39mm
; infill extrusion width = 0.39mm
; solid infill extrusion width = 0.39mm
; top infill extrusion width = 0.39mm

M190 S80 ; set bed temperature
M109 S230
G28 ; home all axes
G92 E0  ;reset extruder
G21 ; set units to millimeters
G90 ; use absolute coordinates
M83 ; use relative distances for extrusion
G1 E-2.00000 F1800.00000
G1 Z0.350 F7800.000
G1 X73.786 Y35.455 F7800.000
G1 E2.00000 F1800.00000
G1 X73.976 Y35.078 E0.03975 F1440.000
G1 X74.406 Y34.391 E0.07624
G1 X74.548 Y34.197 E0.02266
G1 X75.286 Y33.352 E0.10559
G1 X86.991 Y22.484 E1.50350
G1 X87.489 Y22.051 E0.06212
G1 X88.168 Y21.553 E0.07931
G1 X88.759 Y21.199 E0.06478
G1 X89.292 Y20.939 E0.05584
G1 X89.843 Y20.720 E0.05579
G1 X90.377 Y20.551 E0.05274
G1 X91.144 Y20.389 E0.07375
G1 X91.818 Y20.311 E0.06387
G1 X92.572 Y20.296 E0.07101
G1 X108.448 Y20.858 E1.49529 F1440.000
G1 X108.967 Y20.895 E0.04901
G1 X109.957 Y21.054 E0.09436
G1 X110.738 Y21.274 E0.07645
G1 X111.199 Y21.446 E0.04633
G1 X111.926 Y21.788 E0.07558
G1 X112.356 Y22.043 E0.04707
G1 X112.951 Y22.459 E0.06834
G1 X113.605 Y23.024 E0.08134
G1 X113.890 Y23.313 E0.03825
G1 X124.674 Y34.934 E1.49226
G1 X124.984 Y35.290 E0.04445
G1 X125.346 Y35.761 E0.05589
G1 X125.693 Y36.294 E0.05987
G1 X125.951 Y36.762 E0.05035
G1 X126.131 Y37.143 E0.03965
G1 X126.459 Y38.022 E0.08829
G1 X126.631 Y38.712 E0.06697
G1 X126.764 Y39.761 E0.09946
G1 X126.776 Y40.161 E0.03772
G1 X127.555 Y145.814 E9.94530
G1 X126.985 Y161.970 E1.52167
G1 X126.932 Y162.667 E0.06582
G1 X126.839 Y163.251 E0.05563
G1 X126.598 Y164.172 E0.08962
G1 X126.206 Y165.133 E0.09769
G1 X125.982 Y165.556 E0.04511
G1 X125.591 Y166.176 E0.06893
G1 X125.131 Y166.760 E0.07002
G1 X124.767 Y167.150 E0.05020
G1 X124.260 Y167.613 E0.06462
G1 X123.682 Y168.050 E0.06827
G1 X123.061 Y168.435 E0.06871
G1 X122.546 Y168.695 E0.05430
G1 X122.177 Y168.849 E0.03763
G1 X96.094 Y178.850 E2.62945
G1 X95.312 Y179.118 E0.07784
G1 X94.610 Y179.320 E0.06879
G1 X93.880 Y179.492 E0.07062
G1 X93.121 Y179.622 E0.07247
G1 X92.232 Y179.701 E0.08396
G1 X91.592 Y179.708 E0.06031
G1 X91.160 Y179.682 E0.04073
G1 X90.229 Y179.554 E0.08841
G1 X89.707 Y179.430 E0.05052
G1 X89.244 Y179.290 E0.04556
G1 X88.432 Y178.959 E0.08251
G1 X87.540 Y178.463 E0.09605
G1 X86.962 Y178.039 E0.06749
G1 X86.425 Y177.565 E0.06746
G1 X75.356 Y165.663 E1.52990
G1 X75.016 Y165.275 E0.04853
G1 X74.545 Y164.641 E0.07437
G1 X74.104 Y163.905 E0.08081
G1 X73.681 Y162.955 E0.09785
G1 X73.576 Y162.649 E0.03045
G1 X73.345 Y161.723 E0.08986
G1 X73.273 Y161.212 E0.04856
G1 X73.229 Y160.437 E0.07306
G1 X72.449 Y54.784 E9.94530
G1 X73.027 Y38.508 E1.53300
G1 X73.092 Y37.798 E0.06715
G1 X73.255 Y36.942 E0.08200
G1 X73.482 Y36.175 E0.07534
G1 X73.763 Y35.502 E0.06859
G1 E-2.00000 F1800.00000
G1 X118.642 Y160.953 F7800.000
G1 E2.00000 F1800.00000
G1 X118.128 Y160.644 E0.05651 F840.000
G1 X117.786 Y160.402 E0.03940
G1 X117.377 Y160.074 E0.04930
G1 X116.631 Y159.379 E0.09605
G1 X115.368 Y158.117 E0.16807
G1 X114.822 Y157.646 E0.06783
G1 X114.323 Y157.296 E0.05740
G1 X113.959 Y157.086 E0.03950
G1 X113.493 Y156.880 E0.04796
G1 X112.970 Y156.724 E0.05139
G1 X112.566 Y156.648 E0.03871
G1 X111.852 Y156.611 E0.06727
G1 X111.418 Y156.647 E0.04101
G1 X110.831 Y156.787 E0.05680
G1 X110.358 Y156.995 E0.04864
G1 X110.015 Y157.210 E0.03814
G1 X109.505 Y157.666 E0.06440
G1 X109.221 Y158.044 E0.04445
G1 X108.979 Y158.489 E0.04771
G1 X108.822 Y158.893 E0.04081
G1 X108.705 Y159.347 E0.04416
G1 X108.615 Y159.992 E0.06131
G1 X108.594 Y160.730 E0.06947
G1 X108.652 Y161.358 E0.05937
G1 X108.752 Y161.833 E0.04571
G1 X109.043 Y162.630 E0.07984
G1 X109.163 Y163.041 E0.04032
G1 X109.369 Y163.984 E0.09084
G1 X108.766 Y164.021 E0.05680
G1 X108.311 Y164.116 E0.04384
G1 X107.948 Y164.259 E0.03670
G1 X107.016 Y164.222 E0.08784
G1 X106.253 Y164.267 E0.07194
G1 X105.973 Y163.928 E0.04140
G1 X105.576 Y163.552 E0.05144
G1 X105.164 Y163.238 E0.04883
G1 X104.654 Y162.956 E0.05482
G1 X103.974 Y162.777 E0.06622
G1 X103.334 Y162.790 E0.06024
G1 X102.714 Y162.953 E0.06033
G1 X102.211 Y163.194 E0.05247
G1 X101.630 Y163.576 E0.06546
G1 X100.994 Y164.124 E0.07906
G1 X100.656 Y164.468 E0.04535
G1 X100.192 Y165.012 E0.06732
G1 X98.958 Y166.690 E0.19606
G1 X98.567 Y167.168 E0.05812
G1 X97.817 Y167.954 E0.10227
G1 X97.333 Y168.398 E0.06183
G1 X96.283 Y169.280 E0.12904
G1 X95.760 Y169.688 E0.06249
G1 X95.021 Y170.214 E0.08538
G1 X94.468 Y170.558 E0.06133
G1 X94.013 Y170.800 E0.04844
G1 X93.491 Y171.039 E0.05402
G1 X92.897 Y171.254 E0.05950
G1 X92.729 Y171.049 E0.02496
G1 X93.131 Y170.443 E0.06844
G1 X93.719 Y169.752 E0.08541
G1 X95.513 Y167.936 E0.24027
G1 X95.930 Y167.435 E0.06136
G1 X96.349 Y166.787 E0.07267
G1 X96.572 Y166.321 E0.04864
G1 X96.775 Y165.669 E0.06423
G1 X96.850 Y165.266 E0.03855
G1 X96.889 Y164.691 E0.05434
G1 X96.848 Y164.097 E0.05604
G1 X96.697 Y163.509 E0.05708
G1 X96.418 Y162.917 E0.06162
G1 X96.075 Y162.461 E0.05374
G1 X95.636 Y162.061 E0.05588
G1 X95.311 Y161.849 E0.03651
G1 X94.705 Y161.567 E0.06290
G1 X93.920 Y161.378 E0.07604
G1 X93.244 Y161.313 E0.06394
G1 X92.678 Y161.307 E0.05322
G1 X91.862 Y161.368 E0.07704
G1 X90.155 Y161.647 E0.16285
G1 X89.380 Y161.746 E0.07349
G1 X88.682 Y161.789 E0.06587
G1 X88.302 Y161.792 E0.03573
G1 X87.239 Y161.747 E0.10017
G1 X86.370 Y161.673 E0.08215
G1 X85.457 Y161.565 E0.08648
G1 X84.397 Y161.384 E0.10127
G1 X83.818 Y161.243 E0.05607
G1 X83.127 Y161.018 E0.06837
G1 X82.395 Y160.698 E0.07525
G1 X81.941 Y160.450 E0.04872
G1 X82.543 Y160.304 E0.05834
G1 X83.252 Y160.198 E0.06746
G1 X84.268 Y160.149 E0.09574
G1 X86.493 Y160.153 E0.20942
G1 X87.188 Y160.084 E0.06575
G1 X87.718 Y159.973 E0.05097
G1 X88.432 Y159.706 E0.07176
G1 X88.878 Y159.459 E0.04801
G1 X89.192 Y159.241 E0.03597
G1 X89.523 Y158.969 E0.04033
G1 X89.889 Y158.600 E0.04897
G1 X90.159 Y158.260 E0.04085
G1 X90.428 Y157.821 E0.04843
G1 X90.627 Y157.327 E0.05019
G1 X90.723 Y156.901 E0.04111
G1 X90.753 Y156.459 E0.04167
G1 X90.688 Y155.897 E0.05325
G1 X90.544 Y155.418 E0.04704
G1 X90.253 Y154.821 E0.06257
G1 X89.763 Y154.135 E0.07930
G1 X89.289 Y153.613 E0.06639
G1 X88.826 Y153.183 E0.05951
G1 X88.198 Y152.679 E0.07572
G1 X86.644 Y151.541 E0.18138
G1 X86.051 Y151.026 E0.07389
G1 X85.255 Y150.213 E0.10713
G1 X84.473 Y149.306 E0.11267
G1 X83.832 Y148.498 E0.09711
G1 X83.385 Y147.879 E0.07184
G1 X83.021 Y147.312 E0.06345
G1 X82.826 Y146.970 E0.03709
G1 X82.589 Y146.489 E0.05048
G1 X82.329 Y145.851 E0.06486
G1 X82.247 Y145.598 E0.02502
G1 X82.458 Y145.437 E0.02497
G1 X82.814 Y145.670 E0.04000
G1 X83.160 Y145.930 E0.04076
G1 X83.861 Y146.543 E0.08763
G1 X85.046 Y147.731 E0.15798
G1 X85.630 Y148.286 E0.07584
G1 X86.154 Y148.712 E0.06354
G1 X86.810 Y149.119 E0.07267
G1 X87.351 Y149.354 E0.05557
G1 X87.864 Y149.500 E0.05022
G1 X88.396 Y149.585 E0.05067
G1 X89.028 Y149.598 E0.05950
G1 X89.504 Y149.542 E0.04515
G1 X90.178 Y149.345 E0.06607
G1 X90.696 Y149.055 E0.05586
G1 X91.119 Y148.714 E0.05117
G1 X91.574 Y148.158 E0.06763
G1 X91.821 Y147.685 E0.05022
G1 X91.966 Y147.306 E0.03820
G1 X92.121 Y146.620 E0.06624
G1 X92.185 Y145.973 E0.06115
G1 X92.188 Y145.241 E0.06889
G1 X92.132 Y144.583 E0.06214
G1 X91.778 Y142.339 E0.21387
G1 X91.715 Y141.534 E0.07602
G1 X91.728 Y140.384 E0.10824
G1 X91.839 Y138.955 E0.13491
G1 X91.940 Y138.123 E0.07895
G1 X92.108 Y137.133 E0.09443
G1 X92.323 Y136.294 E0.08160
G1 X92.538 Y135.687 E0.06059
G1 X92.867 Y134.971 E0.07421
G1 X93.135 Y134.999 E0.02532
G1 X93.265 Y135.672 E0.06453
G1 X93.314 Y136.111 E0.04165
G1 X93.348 Y136.883 E0.07270
G1 X93.340 Y139.097 E0.20844
G1 X93.398 Y139.819 E0.06810
G1 X93.521 Y140.439 E0.05950
G1 X93.820 Y141.220 E0.07879
G1 X94.224 Y141.866 E0.07169
G1 X94.485 Y142.189 E0.03909
G1 X94.867 Y142.580 E0.05142
G1 X95.286 Y142.908 E0.05008
G1 X95.641 Y143.121 E0.03899
G1 X96.047 Y143.304 E0.04191
G1 X96.683 Y143.454 E0.06156
G1 X97.232 Y143.456 E0.05163
G1 X97.649 Y143.389 E0.03977
G1 X98.080 Y143.256 E0.04248
G1 X98.621 Y142.993 E0.05659
G1 X99.293 Y142.525 E0.07713
G1 X99.811 Y142.067 E0.06508
G1 X100.453 Y141.370 E0.08921
G1 X100.912 Y140.782 E0.07014
G1 X101.835 Y139.507 E0.14819
G1 X102.263 Y138.989 E0.06327
G1 X102.705 Y138.514 E0.06105
G1 X103.377 Y137.878 E0.08711
G1 X104.238 Y137.142 E0.10661
G1 X105.092 Y136.475 E0.10203
G1 X105.762 Y136.003 E0.07709
G1 X106.345 Y135.640 E0.06468
G1 X107.098 Y135.257 E0.07954
G1 X107.886 Y134.948 E0.07968
G1 X108.059 Y135.156 E0.02543
G1 X107.699 Y135.701 E0.06158
G1 X107.299 Y136.191 E0.05943
G1 X106.886 Y136.645 E0.05779
G1 X105.490 Y138.042 E0.18593
G1 X105.209 Y138.350 E0.03927
G1 X104.813 Y138.833 E0.05874
G1 X104.566 Y139.201 E0.04176
G1 X104.357 Y139.576 E0.04039
G1 X104.201 Y139.913 E0.03500
G1 X103.991 Y140.605 E0.06804
G1 X103.915 Y141.120 E0.04902
G1 X103.899 Y141.708 E0.05531
G1 X103.943 Y142.165 E0.04323
G1 X104.120 Y142.807 E0.06269
G1 X104.420 Y143.380 E0.06091
G1 X104.723 Y143.760 E0.04572
G1 X105.033 Y144.062 E0.04077
G1 X105.390 Y144.315 E0.04119
G1 X105.952 Y144.597 E0.05918
G1 X106.652 Y144.797 E0.06850
G1 X107.398 Y144.890 E0.07076
G1 X107.933 Y144.907 E0.05041
G1 X108.628 Y144.875 E0.06549
G1 X109.588 Y144.747 E0.09112
G1 X111.069 Y144.504 E0.14129
G1 X111.734 Y144.441 E0.06292
G1 X112.258 Y144.422 E0.04933
G1 X113.190 Y144.446 E0.08772
G1 X114.644 Y144.563 E0.13735
G1 X115.738 Y144.709 E0.10390
G1 X116.340 Y144.819 E0.05759
G1 X116.953 Y144.968 E0.05934
G1 X117.607 Y145.177 E0.06470
G1 X118.374 Y145.504 E0.07841
G1 X118.858 Y145.767 E0.05188
G1 X118.158 Y145.925 E0.06753
G1 X117.694 Y145.997 E0.04421
G1 X117.011 Y146.052 E0.06450
G1 X114.684 Y146.051 E0.21901
G1 X114.024 Y146.077 E0.06226
G1 X113.394 Y146.164 E0.05978
G1 X113.041 Y146.248 E0.03414
G1 X112.566 Y146.411 E0.04735
G1 X112.071 Y146.653 E0.05185
G1 X111.585 Y146.978 E0.05508
G1 X111.173 Y147.329 E0.05093
G1 X110.824 Y147.699 E0.04785
G1 X110.531 Y148.090 E0.04596
G1 X110.239 Y148.649 E0.05936
G1 X110.097 Y149.118 E0.04615
G1 X110.034 Y149.627 E0.04831
G1 X110.055 Y150.065 E0.04124
G1 X110.146 Y150.506 E0.04236
G1 X110.338 Y151.026 E0.05224
G1 X110.695 Y151.642 E0.06699
G1 X110.977 Y152.019 E0.04435
G1 X111.324 Y152.417 E0.04970
G1 X111.900 Y152.978 E0.07570
G1 X112.396 Y153.387 E0.06045
G1 X113.724 Y154.354 E0.15465
G1 X114.265 Y154.778 E0.06474
G1 X114.672 Y155.133 E0.05078
G1 X115.447 Y155.910 E0.10332
G1 X116.101 Y156.652 E0.09310
G1 X117.041 Y157.835 E0.14221
G1 X117.492 Y158.473 E0.07355
G1 X117.842 Y159.040 E0.06271
G1 X118.197 Y159.729 E0.07298
G1 X118.462 Y160.381 E0.06628
G1 X118.626 Y160.903 E0.05149
G1 X119.391 Y161.788 F7800.000
G1 X118.983 Y161.737 E0.03869 F840.000
G1 X118.467 Y161.548 E0.05174
G1 X118.125 Y161.372 E0.03621
G1 X117.786 Y161.167 E0.03728
G1 X117.410 Y160.902 E0.04336
G1 X116.968 Y160.547 E0.05329
G1 X116.197 Y159.829 E0.09925
G1 X114.942 Y158.575 E0.16694
G1 X114.438 Y158.140 E0.06270
G1 X113.986 Y157.824 E0.05191
G1 X113.676 Y157.644 E0.03377
G1 X113.277 Y157.468 E0.04103
G1 X112.822 Y157.332 E0.04465
G1 X112.491 Y157.269 E0.03171
G1 X111.862 Y157.237 E0.05931
G1 X111.517 Y157.265 E0.03256
G1 X111.031 Y157.382 E0.04707
G1 X110.651 Y157.549 E0.03909
G1 X110.391 Y157.711 E0.02882
G1 X109.967 Y158.090 E0.05352
G1 X109.749 Y158.382 E0.03436
G1 X109.547 Y158.752 E0.03966
G1 X109.418 Y159.085 E0.03357
G1 X109.319 Y159.469 E0.03735
G1 X109.239 Y160.044 E0.05470
G1 X109.220 Y160.710 E0.06267
G1 X109.271 Y161.265 E0.05243
G1 X109.354 Y161.661 E0.03814
G1 X109.637 Y162.435 E0.07754
G1 X109.769 Y162.887 E0.04430
G1 X109.988 Y163.892 E0.09687
G1 X110.122 Y164.770 E0.08356
G1 X109.692 Y164.666 E0.04167
G1 X109.306 Y164.614 E0.03665
G1 X108.850 Y164.642 E0.04301
G1 X108.491 Y164.717 E0.03454
G1 X108.066 Y164.884 E0.04295
G1 X107.019 Y164.847 E0.09863
G1 X106.326 Y164.889 E0.06536
G1 X106.010 Y164.955 E0.03041
G1 X105.515 Y164.355 E0.07323
G1 X105.171 Y164.028 E0.04464
G1 X104.821 Y163.762 E0.04136
G1 X104.420 Y163.540 E0.04319
G1 X103.899 Y163.404 E0.05066
G1 X103.421 Y163.413 E0.04507
G1 X102.930 Y163.542 E0.04771
G1 X102.520 Y163.739 E0.04287
G1 X102.007 Y164.076 E0.05774
G1 X101.421 Y164.580 E0.07276
G1 X101.118 Y164.890 E0.04083
G1 X100.682 Y165.400 E0.06317
G1 X99.452 Y167.073 E0.19543
G1 X98.754 Y167.894 E0.10144
G1 X98.251 Y168.404 E0.06739
G1 X97.746 Y168.868 E0.06460
G1 X96.676 Y169.766 E0.13142
G1 X96.133 Y170.189 E0.06483
G1 X95.368 Y170.735 E0.08850
G1 X94.779 Y171.100 E0.06519
G1 X94.290 Y171.360 E0.05216
G1 X93.728 Y171.617 E0.05816
G1 X93.058 Y171.860 E0.06704
G1 X92.604 Y171.988 E0.04443
G1 X92.141 Y172.083 E0.04454
G1 X91.680 Y172.114 E0.04343
G1 X91.743 Y171.765 E0.03341
G1 X91.817 Y171.508 E0.02517
G1 X91.927 Y171.228 E0.02832
G1 X92.124 Y170.841 E0.04082
G1 X92.337 Y170.488 E0.03884
G1 X92.630 Y170.069 E0.04819
G1 X92.895 Y169.737 E0.03993
G1 X93.264 Y169.325 E0.05207
G1 X95.050 Y167.516 E0.23927
G1 X95.426 Y167.064 E0.05533
G1 X95.803 Y166.481 E0.06535
G1 X95.989 Y166.092 E0.04062
G1 X96.167 Y165.519 E0.05648
G1 X96.229 Y165.188 E0.03165
G1 X96.262 Y164.691 E0.04693
G1 X96.228 Y164.196 E0.04667
G1 X96.107 Y163.722 E0.04611
G1 X95.880 Y163.242 E0.04998
G1 X95.611 Y162.883 E0.04219
G1 X95.252 Y162.557 E0.04563
G1 X95.007 Y162.397 E0.02759
G1 X94.498 Y162.160 E0.05283
G1 X93.817 Y161.996 E0.06598
G1 X93.210 Y161.938 E0.05734
G1 X92.698 Y161.932 E0.04822
G1 X91.936 Y161.989 E0.07191
G1 X90.245 Y162.266 E0.16133
G1 X89.439 Y162.368 E0.07643
G1 X88.703 Y162.414 E0.06941
G1 X88.291 Y162.417 E0.03880
G1 X87.200 Y162.371 E0.10283
G1 X86.306 Y162.295 E0.08438
G1 X85.368 Y162.184 E0.08896
G1 X84.270 Y161.997 E0.10482
G1 X83.647 Y161.845 E0.06037
G1 X82.905 Y161.603 E0.07345
G1 X82.119 Y161.260 E0.08071
G1 X81.489 Y160.915 E0.06767
G1 X81.023 Y160.578 E0.05409
G1 X80.832 Y160.383 E0.02569
G1 X81.159 Y160.159 E0.03725
G1 X81.383 Y160.038 E0.02404
G1 X81.746 Y159.882 E0.03718
G1 X82.093 Y159.770 E0.03427
G1 X82.741 Y159.632 E0.06235
G1 X83.198 Y159.575 E0.04336
G1 X84.253 Y159.524 E0.09945
G1 X86.462 Y159.528 E0.20794
G1 X87.093 Y159.466 E0.05964
G1 X87.543 Y159.371 E0.04334
G1 X88.170 Y159.137 E0.06292
G1 X88.548 Y158.928 E0.04069
G1 X88.815 Y158.743 E0.03060
G1 X89.101 Y158.507 E0.03493
G1 X89.421 Y158.184 E0.04275
G1 X89.646 Y157.901 E0.03402
G1 X89.868 Y157.539 E0.03994
G1 X90.028 Y157.140 E0.04051
G1 X90.102 Y156.810 E0.03182
G1 X90.125 Y156.473 E0.03180
G1 X90.074 Y156.023 E0.04263
G1 X89.960 Y155.647 E0.03704
G1 X89.714 Y155.142 E0.05288
G1 X89.275 Y154.528 E0.07099
G1 X88.844 Y154.052 E0.06045
G1 X88.418 Y153.656 E0.05481
G1 X87.820 Y153.177 E0.07206
G1 X86.680 Y152.357 E0.13219
G1 X86.248 Y152.025 E0.05131
G1 X85.628 Y151.487 E0.07726
G1 X85.257 Y151.126 E0.04871
G1 X84.791 Y150.631 E0.06402
G1 X83.992 Y149.705 E0.11516
G1 X83.334 Y148.875 E0.09965
G1 X82.869 Y148.231 E0.07477
G1 X82.486 Y147.636 E0.06663
G1 X82.274 Y147.263 E0.04042
G1 X82.019 Y146.745 E0.05429
G1 X81.741 Y146.065 E0.06916
G1 X81.572 Y145.538 E0.05209
G1 X81.433 Y144.943 E0.05752
G1 X81.386 Y144.443 E0.04725
G1 X81.622 Y144.446 E0.02221
G1 X81.799 Y144.478 E0.01692
G1 X82.294 Y144.654 E0.04949
G1 X82.864 Y144.956 E0.06064
G1 X83.173 Y145.158 E0.03480
G1 X83.554 Y145.444 E0.04481
G1 X84.288 Y146.086 E0.09186
G1 X85.483 Y147.284 E0.15922
G1 X86.043 Y147.817 E0.07277
G1 X86.517 Y148.202 E0.05750
G1 X87.100 Y148.564 E0.06463
G1 X87.562 Y148.764 E0.04736
G1 X88.000 Y148.889 E0.04282
G1 X88.452 Y148.961 E0.04313
G1 X88.998 Y148.972 E0.05141
G1 X89.379 Y148.928 E0.03613
G1 X89.934 Y148.765 E0.05444
G1 X90.344 Y148.535 E0.04425
G1 X90.677 Y148.268 E0.04014
G1 X91.050 Y147.812 E0.05549
G1 X91.250 Y147.428 E0.04072
G1 X91.366 Y147.125 E0.03060
G1 X91.503 Y146.520 E0.05838
G1 X91.560 Y145.941 E0.05471
G1 X91.563 Y145.266 E0.06352
G1 X91.511 Y144.659 E0.05741
G1 X91.157 Y142.412 E0.21409
G1 X91.091 Y141.564 E0.08011
G1 X91.083 Y141.095 E0.04409
G1 X91.104 Y140.351 E0.07007
G1 X91.217 Y138.893 E0.13766
G1 X91.322 Y138.032 E0.08161
G1 X91.496 Y137.004 E0.09823
G1 X91.725 Y136.111 E0.08668
G1 X91.958 Y135.452 E0.06589
