; generated by Slic3r 1.2.9 on 2015-12-08 at 09:56:00

; external perimeters extrusion width = 0.35mm
; perimeters extrusion width = 0.39mm
; infill extrusion width = 0.39mm
; solid infill extrusion width = 0.39mm
; top infill extrusion width = 0.39mm

M190 S80 ; set bed temperature
M109 S230
G28 ; home all axes
G92 E0  ;reset extruder
G21 ; set units to millimeters
G90 ; use absolute coordinates
M83 ; use relative distances for extrusion
G1 E-2.00000 F1800.00000
G1 Z0.350 F7800.000
G1 X61.915 Y40.735 F7800.000
G1 E2.00000 F1800.00000
G1 X63.668 Y39.256 E0.21588 F1440.000
G1 X65.820 Y38.463 E0.21588
G1 X67.000 Y38.357 E0.11150
G1 X133.000 Y38.357 E6.21253
G1 X135.259 Y38.754 E0.21588
G1 X137.247 Y39.897 E0.21588 F1440.000
G1 X138.726 Y41.650 E0.21588
G1 X139.519 Y43.802 E0.21588
G1 X139.625 Y44.982 E0.11150
G1 X139.625 Y70.982 E2.44736
G1 X139.151 Y73.442 E0.23579
G1 X105.547 Y157.478 E8.51928
G1 X104.340 Y159.428 E0.21588
G1 X102.540 Y160.849 E0.21588
G1 X99.396 Y161.643 E0.30525
G1 X98.396 Y161.643 E0.09413
G1 X96.137 Y161.246 E0.21588
G1 X94.149 Y160.103 E0.21588
G1 X92.190 Y157.337 E0.31905
G1 X60.794 Y73.300 E8.44430
G1 X60.375 Y70.982 E0.22177
G1 X60.375 Y44.982 E2.44736
G1 X60.772 Y42.723 E0.21588
G1 X61.889 Y40.780 E0.21094
G1 E-2.00000 F1800.00000
G1 Z0.350 F7800.000
G1 X125.975 Y45.957 F7800.000
G1 E2.00000 F1800.00000
G1 X132.025 Y45.957 E0.56951 F840.000
G1 X132.025 Y70.007 E2.26383
G1 X125.975 Y70.007 E0.56951
G1 X125.975 Y46.009 E2.25889
G1 X125.350 Y45.332 F7800.000
G1 X132.650 Y45.332 E0.68715 F588.000
G1 X132.650 Y70.632 E2.38147
G1 X125.350 Y70.632 E0.68715
G1 X125.350 Y45.384 E2.37653
G1 X125.653 Y45.507 F7800.000
G1 X131.647 Y46.640 F7800.000
G1 X131.341 Y46.335 E0.04148 F1080.000
G1 X130.439 Y46.335 E0.08675
G1 X131.647 Y47.543 E0.16416
G1 X131.647 Y48.445 E0.08675
G1 X129.537 Y46.335 E0.28684
G1 X128.634 Y46.335 E0.08675
G1 X131.647 Y49.348 E0.40952
G1 X131.647 Y50.250 E0.08675
G1 X127.732 Y46.335 E0.53220
G1 X126.829 Y46.335 E0.08675
G1 X131.647 Y51.153 E0.65488
G1 X131.647 Y52.055 E0.08675
G1 X126.353 Y46.762 E0.71955
G1 X126.353 Y47.664 E0.08675
G1 X131.647 Y52.957 E0.71955
G1 X131.647 Y53.860 E0.08675
G1 X126.353 Y48.567 E0.71955
G1 X126.353 Y49.469 E0.08675
G1 X131.647 Y54.762 E0.71955
G1 X131.647 Y55.665 E0.08675
G1 X126.353 Y50.372 E0.71955
G1 X126.353 Y51.274 E0.08675
G1 X131.647 Y56.567 E0.71955
G1 X131.647 Y57.470 E0.08675
G1 X126.353 Y52.177 E0.71955
G1 X126.353 Y53.079 E0.08675
G1 X131.647 Y58.372 E0.71955
G1 X131.647 Y59.275 E0.08675
G1 X126.353 Y53.981 E0.71955
G1 X126.353 Y54.884 E0.08675
G1 X131.647 Y60.177 E0.71955
G1 X131.647 Y61.080 E0.08675
G1 X126.353 Y55.786 E0.71955
G1 X126.353 Y56.689 E0.08675
G1 X131.647 Y61.982 E0.71955
G1 X131.647 Y62.884 E0.08675
G1 X126.353 Y57.591 E0.71955
G1 X126.353 Y58.494 E0.08675
G1 X131.647 Y63.787 E0.71955
G1 X131.647 Y64.689 E0.08675
G1 X126.353 Y59.396 E0.71955
G1 X126.353 Y60.299 E0.08675
G1 X131.647 Y65.592 E0.71955
G1 X131.647 Y66.494 E0.08675
G1 X126.353 Y61.201 E0.71955
G1 X126.353 Y62.104 E0.08675
G1 X131.647 Y67.397 E0.71955
G1 X131.647 Y68.299 E0.08675
G1 X126.353 Y63.006 E0.71955
G1 X126.353 Y63.908 E0.08675
G1 X131.647 Y69.202 E0.71955
G1 X131.171 Y69.628 E0.06143
G1 X126.353 Y64.811 E0.65487
G1 X126.353 Y65.713 E0.08675
G1 X130.268 Y69.628 E0.53219
G1 X129.366 Y69.628 E0.08675
G1 X126.353 Y66.616 E0.40951
G1 X126.353 Y67.518 E0.08675
G1 X128.463 Y69.628 E0.28683
G1 X127.561 Y69.628 E0.08675
G1 X126.353 Y68.421 E0.16416
G1 X126.353 Y69.323 E0.08675
G1 X126.659 Y69.628 E0.04148
G1 E-2.00000 F1800.00000
G1 X74.025 Y45.957 F7800.000
G1 E2.00000 F1800.00000
G1 X74.025 Y70.007 E2.26383 F840.000
G1 X67.975 Y70.007 E0.56951
G1 X67.975 Y45.957 E2.26383
G1 X73.973 Y45.957 E0.56456
G1 X74.650 Y45.332 F7800.000
G1 X74.650 Y70.632 E2.38147 F588.000
G1 X67.350 Y70.632 E0.68715
G1 X67.350 Y45.332 E2.38147
G1 X74.598 Y45.332 E0.68221
G1 X74.475 Y45.635 F7800.000
G1 X73.647 Y46.640 F7800.000
G1 X73.341 Y46.335 E0.04148 F1080.000
G1 X72.439 Y46.335 E0.08675
G1 X73.647 Y47.543 E0.16416
G1 X73.647 Y48.445 E0.08675
G1 X71.537 Y46.335 E0.28684
G1 X70.634 Y46.335 E0.08675
G1 X73.647 Y49.348 E0.40952
G1 X73.647 Y50.250 E0.08675
G1 X69.732 Y46.335 E0.53220
G1 X68.829 Y46.335 E0.08675
G1 X73.647 Y51.153 E0.65488
G1 X73.647 Y52.055 E0.08675
G1 X68.353 Y46.762 E0.71955
G1 X68.353 Y47.664 E0.08675
G1 X73.647 Y52.957 E0.71955
G1 X73.647 Y53.860 E0.08675
G1 X68.353 Y48.567 E0.71955
G1 X68.353 Y49.469 E0.08675
G1 X73.647 Y54.762 E0.71955
G1 X73.647 Y55.665 E0.08675
G1 X68.353 Y50.372 E0.71955
G1 X68.353 Y51.274 E0.08675
G1 X73.647 Y56.567 E0.71955
G1 X73.647 Y57.470 E0.08675
G1 X68.353 Y52.177 E0.71955
G1 X68.353 Y53.079 E0.08675
G1 X73.647 Y58.372 E0.71955
G1 X73.647 Y59.275 E0.08675
G1 X68.353 Y53.981 E0.71955
G1 X68.353 Y54.884 E0.08675
G1 X73.647 Y60.177 E0.71955
G1 X73.647 Y61.080 E0.08675
G1 X68.353 Y55.786 E0.71955
G1 X68.353 Y56.689 E0.08675
G1 X73.647 Y61.982 E0.71955
G1 X73.647 Y62.884 E0.08675
G1 X68.353 Y57.591 E0.71955
G1 X68.353 Y58.494 E0.08675
G1 X73.647 Y63.787 E0.71955
G1 X73.647 Y64.689 E0.08675
G1 X68.353 Y59.396 E0.71955
G1 X68.353 Y60.299 E0.08675
G1 X73.647 Y65.592 E0.71955
G1 X73.647 Y66.494 E0.08675
G1 X68.353 Y61.201 E0.71955
G1 X68.353 Y62.104 E0.08675
G1 X73.647 Y67.397 E0.71955
G1 X73.647 Y68.299 E0.08675
G1 X68.353 Y63.006 E0.71955
G1 X68.353 Y63.908 E0.08675
G1 X73.647 Y69.202 E0.71955
G1 X73.171 Y69.628 E0.06143
G1 X68.353 Y64.811 E0.65487
G1 X68.353 Y65.713 E0.08675
G1 X72.268 Y69.628 E0.53219
G1 X71.366 Y69.628 E0.08675
G1 X68.353 Y66.616 E0.40951
G1 X68.353 Y67.518 E0.08675
G1 X70.463 Y69.628 E0.28683
G1 X69.561 Y69.628 E0.08675
G1 X68.353 Y68.421 E0.16416
G1 X68.353 Y69.323 E0.08675
G1 X68.659 Y69.628 E0.04148
M104 S231 ; set temperature
M140 S85 ; wait for bed temperature to be reached
G1 E-2.00000 F1800.00000
G1 Z0.650 F7800.000
G1 X99.221 Y154.843 F7800.000
G1 E2.00000 F1800.00000
G1 X98.571 Y154.843 E0.02397 F2100.000
G1 X98.571 Y154.193 E0.02397
G1 X99.221 Y154.193 E0.02397
G1 X99.221 Y154.791 E0.02204
G1 X98.918 Y154.668 F7800.000
G1 X99.036 Y154.483 F7800.000
G1 X98.860 Y154.659 E0.01031 F2700.000
G1 E-2.00000 F1800.00000
G1 Z0.650 F7800.000
G1 X125.478 Y45.460 F7800.000
G1 E2.00000 F1800.00000
G1 X132.522 Y45.460 E0.29166 F2100.000
G1 X132.522 Y70.504 E1.03700
G1 X125.478 Y70.504 E0.29166
G1 X125.478 Y45.512 E1.03482
G1 X125.175 Y45.157 F7800.000
G1 X132.825 Y45.157 E0.28211 F1470.000
G1 X132.825 Y70.807 E0.94591
G1 X125.175 Y70.807 E0.28211
G1 X125.175 Y45.209 E0.94398
G1 X125.478 Y45.332 F7800.000
G1 X125.839 Y45.644 F7800.000
G1 X125.663 Y45.820 E0.01036 F2700.000
G1 X125.663 Y46.276 E0.01897
G1 X126.295 Y45.644 E0.03719
G1 X126.750 Y45.644 E0.01897
G1 X125.663 Y46.732 E0.06402
G1 X125.663 Y47.188 E0.01897
G1 X127.206 Y45.644 E0.09085
G1 X127.662 Y45.644 E0.01897
G1 X125.663 Y47.644 E0.11768
G1 X125.663 Y48.100 E0.01897
G1 X128.118 Y45.644 E0.14451
G1 X128.574 Y45.644 E0.01897
G1 X125.663 Y48.556 E0.17133
G1 X125.663 Y49.011 E0.01897
G1 X129.030 Y45.644 E0.19816
G1 X129.485 Y45.644 E0.01897
G1 X125.663 Y49.467 E0.22499
G1 X125.663 Y49.923 E0.01897
G1 X129.941 Y45.644 E0.25182
G1 X130.397 Y45.644 E0.01897
G1 X125.663 Y50.379 E0.27865
G1 X125.663 Y50.835 E0.01897
G1 X130.853 Y45.644 E0.30548
G1 X131.309 Y45.644 E0.01897
G1 X125.663 Y51.291 E0.33231
G1 X125.663 Y51.746 E0.01897
G1 X131.765 Y45.644 E0.35914
G1 X132.220 Y45.644 E0.01897
G1 X125.663 Y52.202 E0.38597
G1 X125.663 Y52.658 E0.01897
G1 X132.337 Y45.983 E0.39284
G1 X132.337 Y46.439 E0.01897
G1 X125.663 Y53.114 E0.39284
G1 X125.663 Y53.570 E0.01897
G1 X132.337 Y46.895 E0.39284
G1 X132.337 Y47.351 E0.01897
G1 X125.663 Y54.026 E0.39284
G1 X125.663 Y54.481 E0.01897
G1 X132.337 Y47.807 E0.39284
G1 X132.337 Y48.263 E0.01897
G1 X125.663 Y54.937 E0.39284
G1 X125.663 Y55.393 E0.01897
G1 X132.337 Y48.718 E0.39284
G1 X132.337 Y49.174 E0.01897
G1 X125.663 Y55.849 E0.39284
G1 X125.663 Y56.305 E0.01897
G1 X132.337 Y49.630 E0.39284
G1 X132.337 Y50.086 E0.01897
G1 X125.663 Y56.761 E0.39284
G1 X125.663 Y57.216 E0.01897
G1 X132.337 Y50.542 E0.39284
G1 X132.337 Y50.998 E0.01897
G1 X125.663 Y57.672 E0.39284
G1 X125.663 Y58.128 E0.01897
G1 X132.337 Y51.454 E0.39284
G1 X132.337 Y51.909 E0.01897
G1 X125.663 Y58.584 E0.39284
G1 X125.663 Y59.040 E0.01897
G1 X132.337 Y52.365 E0.39284
G1 X132.337 Y52.821 E0.01897
G1 X125.663 Y59.496 E0.39284
G1 X125.663 Y59.952 E0.01897
G1 X132.337 Y53.277 E0.39284
G1 X132.337 Y53.733 E0.01897
G1 X125.663 Y60.407 E0.39284
G1 X125.663 Y60.863 E0.01897
G1 X132.337 Y54.189 E0.39284
G1 X132.337 Y54.644 E0.01897
G1 X125.663 Y61.319 E0.39284
G1 X125.663 Y61.775 E0.01897
G1 X132.337 Y55.100 E0.39284
G1 X132.337 Y55.556 E0.01897
G1 X125.663 Y62.231 E0.39284
G1 X125.663 Y62.687 E0.01897
G1 X132.337 Y56.012 E0.39284
G1 X132.337 Y56.468 E0.01897
G1 X125.663 Y63.142 E0.39284
G1 X125.663 Y63.598 E0.01897
G1 X132.337 Y56.924 E0.39284
G1 X132.337 Y57.379 E0.01897
G1 X125.663 Y64.054 E0.39284
G1 X125.663 Y64.510 E0.01897
G1 X132.337 Y57.835 E0.39284
G1 X132.337 Y58.291 E0.01897
G1 X125.663 Y64.966 E0.39284
G1 X125.663 Y65.422 E0.01897
G1 X132.337 Y58.747 E0.39284
G1 X132.337 Y59.203 E0.01897
G1 X125.663 Y65.877 E0.39284
G1 X125.663 Y66.333 E0.01897
G1 X132.337 Y59.659 E0.39284
G1 X132.337 Y60.115 E0.01897
G1 X125.663 Y66.789 E0.39284
G1 X125.663 Y67.245 E0.01897
G1 X132.337 Y60.570 E0.39284
G1 X132.337 Y61.026 E0.01897
G1 X125.663 Y67.701 E0.39284
G1 X125.663 Y68.157 E0.01897
G1 X132.337 Y61.482 E0.39284
G1 X132.337 Y61.938 E0.01897
G1 X125.663 Y68.613 E0.39284
G1 X125.663 Y69.068 E0.01897
G1 X132.337 Y62.394 E0.39284
G1 X132.337 Y62.850 E0.01897
G1 X125.663 Y69.524 E0.39284
G1 X125.663 Y69.980 E0.01897
G1 X132.337 Y63.305 E0.39284
G1 X132.337 Y63.761 E0.01897
G1 X125.779 Y70.319 E0.38597
G1 X126.235 Y70.319 E0.01897
G1 X132.337 Y64.217 E0.35914
G1 X132.337 Y64.673 E0.01897
G1 X126.691 Y70.319 E0.33231
G1 X127.147 Y70.319 E0.01897
G1 X132.337 Y65.129 E0.30548
G1 X132.337 Y65.585 E0.01897
G1 X127.603 Y70.319 E0.27865
G1 X128.059 Y70.319 E0.01897
G1 X132.337 Y66.040 E0.25182
G1 X132.337 Y66.496 E0.01897
G1 X128.515 Y70.319 E0.22499
G1 X128.970 Y70.319 E0.01897
G1 X132.337 Y66.952 E0.19816
G1 X132.337 Y67.408 E0.01897
G1 X129.426 Y70.319 E0.17134
G1 X129.882 Y70.319 E0.01897
G1 X132.337 Y67.864 E0.14451
G1 X132.337 Y68.320 E0.01897
G1 X130.338 Y70.319 E0.11768
G1 X130.794 Y70.319 E0.01897
G1 X132.337 Y68.775 E0.09085
G1 X132.337 Y69.231 E0.01897
G1 X131.250 Y70.319 E0.06402
G1 X131.705 Y70.319 E0.01897
G1 X132.337 Y69.687 E0.03719
G1 X132.337 Y70.143 E0.01897
G1 X132.161 Y70.319 E0.01036
G1 E-2.00000 F1800.00000
G1 X74.522 Y45.460 F7800.000
G1 E2.00000 F1800.00000
G1 X74.522 Y70.504 E1.03700 F2100.000
G1 X67.478 Y70.504 E0.29166
G1 X67.478 Y45.460 E1.03700
G1 X74.469 Y45.460 E0.28949
G1 X74.825 Y45.157 F7800.000
G1 X74.825 Y70.807 E0.94591 F1470.000
G1 X67.175 Y70.807 E0.28211
G1 X67.175 Y45.157 E0.94591
G1 X74.773 Y45.157 E0.28018
G1 X74.650 Y45.460 F7800.000
G1 X67.839 Y45.644 F7800.000
G1 X67.663 Y45.820 E0.01036 F2700.000
G1 X67.663 Y46.276 E0.01897
G1 X68.295 Y45.644 E0.03719
G1 X68.750 Y45.644 E0.01897
G1 X67.663 Y46.732 E0.06402
G1 X67.663 Y47.188 E0.01897
G1 X69.206 Y45.644 E0.09085
G1 X69.662 Y45.644 E0.01897
G1 X67.663 Y47.644 E0.11768
G1 X67.663 Y48.100 E0.01897
G1 X70.118 Y45.644 E0.14451
G1 X70.574 Y45.644 E0.01897
G1 X67.663 Y48.556 E0.17133
G1 X67.663 Y49.011 E0.01897
G1 X71.030 Y45.644 E0.19816
G1 X71.485 Y45.644 E0.01897
G1 X67.663 Y49.467 E0.22499
G1 X67.663 Y49.923 E0.01897
G1 X71.941 Y45.644 E0.25182
G1 X72.397 Y45.644 E0.01897
G1 X67.663 Y50.379 E0.27865
G1 X67.663 Y50.835 E0.01897
G1 X72.853 Y45.644 E0.30548
G1 X73.309 Y45.644 E0.01897
G1 X67.663 Y51.291 E0.33231
G1 X67.663 Y51.746 E0.01897
G1 X73.765 Y45.644 E0.35914
G1 X74.220 Y45.644 E0.01897
G1 X67.663 Y52.202 E0.38597
G1 X67.663 Y52.658 E0.01897
G1 X74.337 Y45.983 E0.39284
G1 X74.337 Y46.439 E0.01897
G1 X67.663 Y53.114 E0.39284
G1 X67.663 Y53.570 E0.01897
G1 X74.337 Y46.895 E0.39284
G1 X74.337 Y47.351 E0.01897
G1 X67.663 Y54.026 E0.39284
G1 X67.663 Y54.481 E0.01897
G1 X74.337 Y47.807 E0.39284
G1 X74.337 Y48.263 E0.01897
G1 X67.663 Y54.937 E0.39284
G1 X67.663 Y55.393 E0.01897
G1 X74.337 Y48.718 E0.39284
G1 X74.337 Y49.174 E0.01897
G1 X67.663 Y55.849 E0.39284
G1 X67.663 Y56.305 E0.01897
G1 X74.337 Y49.630 E0.39284
G1 X74.337 Y50.086 E0.01897
G1 X67.663 Y56.761 E0.39284
G1 X67.663 Y57.216 E0.01897
G1 X74.337 Y50.542 E0.39284
G1 X74.337 Y50.998 E0.01897
G1 X67.663 Y57.672 E0.39284
G1 X67.663 Y58.128 E0.01897
G1 X74.337 Y51.454 E0.39284
G1 X74.337 Y51.909 E0.01897
G1 X67.663 Y58.584 E0.39284
G1 X67.663 Y59.040 E0.01897
G1 X74.337 Y52.365 E0.39284
G1 X74.337 Y52.821 E0.01897
G1 X67.663 Y59.496 E0.39284
G1 X67.663 Y59.952 E0.01897
G1 X74.337 Y53.277 E0.39284
G1 X74.337 Y53.733 E0.01897
G1 X67.663 Y60.407 E0.39284
G1 X67.663 Y60.863 E0.01897
G1 X74.337 Y54.189 E0.39284
G1 X74.337 Y54.644 E0.01897
G1 X67.663 Y61.319 E0.39284
G1 X67.663 Y61.775 E0.01897
G1 X74.337 Y55.100 E0.39284
G1 X74.337 Y55.556 E0.01897
G1 X67.663 Y62.231 E0.39284
G1 X67.663 Y62.687 E0.01897
G1 X74.337 Y56.012 E0.39284
G1 X74.337 Y56.468 E0.01897
G1 X67.663 Y63.142 E0.39284
G1 X67.663 Y63.598 E0.01897
G1 X74.337 Y56.924 E0.39284
G1 X74.337 Y57.379 E0.01897
G1 X67.663 Y64.054 E0.39284
G1 X67.663 Y64.510 E0.01897
G1 X74.337 Y57.835 E0.39284
G1 X74.337 Y58.291 E0.01897
G1 X67.663 Y64.966 E0.39284
G1 X67.663 Y65.422 E0.01897
G1 X74.337 Y58.747 E0.39284
G1 X74.337 Y59.203 E0.01897
G1 X67.663 Y65.877 E0.39284
G1 X67.663 Y66.333 E0.01897
G1 X74.337 Y59.659 E0.39284
G1 X74.337 Y60.115 E0.01897
G1 X67.663 Y66.789 E0.39284
G1 X67.663 Y67.245 E0.01897
G1 X74.337 Y60.570 E0.39284
G1 X74.337 Y61.026 E0.01897
G1 X67.663 Y67.701 E0.39284
G1 X67.663 Y68.157 E0.01897
G1 X74.337 Y61.482 E0.39284
G1 X74.337 Y61.938 E0.01897
G1 X67.663 Y68.613 E0.39284
G1 X67.663 Y69.068 E0.01897
G1 X74.337 Y62.394 E0.39284
G1 X74.337 Y62.850 E0.01897
G1 X67.663 Y69.524 E0.39284
G1 X67.663 Y69.980 E0.01897
G1 X74.337 Y63.305 E0.39284
G1 X74.337 Y63.761 E0.01897
G1 X67.779 Y70.319 E0.38597
G1 X68.235 Y70.319 E0.01897
G1 X74.337 Y64.217 E0.35914
G1 X74.337 Y64.673 E0.01897
G1 X68.691 Y70.319 E0.33231
G1 X69.147 Y70.319 E0.01897
G1 X74.337 Y65.129 E0.30548
G1 X74.337 Y65.585 E0.01897
G1 X69.603 Y70.319 E0.27865
G1 X70.059 Y70.319 E0.01897
G1 X74.337 Y66.040 E0.25182
G1 X74.337 Y66.496 E0.01897
G1 X70.515 Y70.319 E0.22499
G1 X70.970 Y70.319 E0.01897
G1 X74.337 Y66.952 E0.19816
G1 X74.337 Y67.408 E0.01897
G1 X71.426 Y70.319 E0.17134
G1 X71.882 Y70.319 E0.01897
G1 X74.337 Y67.864 E0.14451
G1 X74.337 Y68.320 E0.01897
G1 X72.338 Y70.319 E0.11768
G1 X72.794 Y70.319 E0.01897
G1 X74.337 Y68.775 E0.09085
G1 X74.337 Y69.231 E0.01897
G1 X73.250 Y70.319 E0.06402
G1 X73.705 Y70.319 E0.01897
G1 X74.337 Y69.687 E0.03719
G1 X74.337 Y70.143 E0.01897
G1 X74.161 Y70.319 E0.01036
G1 E-2.00000 F1800.00000
G1 Z0.950 F7800.000
G1 X99.221 Y154.843 F7800.000
G1 E2.00000 F1800.00000
G1 X98.571 Y154.843 E0.02397 F2100.000
G1 X98.571 Y154.193 E0.02397
G1 X99.221 Y154.193 E0.02397
G1 X99.221 Y154.791 E0.02204
G1 X98.918 Y154.668 F7800.000
G1 X99.036 Y154.554 F7800.000
G1 X98.860 Y154.378 E0.01031 F2400.000
G1 E-2.00000 F1800.00000
G1 Z0.950 F7800.000
G1 X125.478 Y45.460 F7800.000
G1 E2.00000 F1800.00000
G1 X132.522 Y45.460 E0.29166 F2100.000
G1 X132.522 Y70.504 E1.03700
G1 X125.478 Y70.504 E0.29166
G1 X125.478 Y45.512 E1.03482
G1 X125.175 Y45.157 F7800.000
G1 X132.825 Y45.157 E0.28211 F1470.000
G1 X132.825 Y70.807 E0.94591
G1 X125.175 Y70.807 E0.28211
G1 X125.175 Y45.209 E0.94398
G1 X125.478 Y45.332 F7800.000
G1 X132.337 Y46.871 F7800.000
G1 X131.111 Y45.644 E0.07182 F2700.000
G1 X128.843 Y45.644 E0.09390
G1 X132.337 Y49.139 E0.20461
G1 X132.337 Y51.406 E0.09390
G1 X126.575 Y45.644 E0.33741
G1 X125.663 Y46.999 E0.06765
G1 X132.337 Y53.674 E0.39086
G1 X132.337 Y55.942 E0.09390
G1 X125.663 Y49.267 E0.39086
G1 X125.663 Y51.535 E0.09390
G1 X132.337 Y58.209 E0.39086
G1 X132.337 Y60.477 E0.09390
G1 X125.663 Y53.803 E0.39086
G1 X125.663 Y56.070 E0.09390
G1 X132.337 Y62.745 E0.39086
