; generated by Slic3r 1.2.9 on 2015-12-08 at 09:27:51

; external perimeters extrusion width = 0.35mm
; perimeters extrusion width = 0.39mm
; infill extrusion width = 0.39mm
; solid infill extrusion width = 0.39mm
; top infill extrusion width = 0.39mm

M190 S80 ; set bed temperature
M109 S230
G28 ; home all axes
G92 E0  ;reset extruder
G21 ; set units to millimeters
G90 ; use absolute coordinates
M83 ; use relative distances for extrusion
G1 E-2.00000 F1800.00000
G1 Z0.350 F7800.000
G1 X94.005 Y68.650 F7800.000
G1 E2.00000 F1800.00000
G1 X95.594 Y66.996 E0.21588 F1440.000
G1 X97.652 Y65.984 E0.21588
G1 X99.504 Y65.719 E0.17613
G1 X100.504 Y65.719 E0.09413
G1 X102.763 Y66.116 E0.21588
G1 X104.751 Y67.260 E0.21588 F1440.000
G1 X106.230 Y69.013 E0.21588
G1 X106.933 Y70.747 E0.17622
G1 X119.430 Y121.059 E4.87966
G1 X119.625 Y122.656 E0.15144
G1 X119.625 Y127.656 E0.47065
G1 X119.228 Y129.915 E0.21588
G1 X118.085 Y131.903 E0.21588
G1 X116.332 Y133.382 E0.21588
G1 X114.180 Y134.175 E0.21588
G1 X113.000 Y134.281 E0.11150
G1 X87.000 Y134.281 E2.44736
G1 X84.741 Y133.884 E0.21588
G1 X82.753 Y132.740 E0.21588
G1 X81.274 Y130.987 E0.21588
G1 X80.481 Y128.835 E0.21588
G1 X80.375 Y127.656 E0.11150
G1 X80.375 Y122.656 E0.47065
G1 X80.571 Y121.058 E0.15153
G1 X93.075 Y70.746 E4.87984
G1 X93.983 Y68.698 E0.21094
G1 E-2.00000 F1800.00000
G1 Z0.350 F7800.000
G1 X106.600 Y124.255 F7800.000
G1 E2.00000 F1800.00000
G1 X111.400 Y124.255 E0.45186 F840.000
G1 X111.400 Y126.056 E0.16948
G1 X106.600 Y126.056 E0.45186
G1 X106.600 Y124.308 E0.16453
G1 X105.975 Y123.631 F7800.000
G1 X112.025 Y123.631 E0.56950 F840.000
G1 X112.025 Y126.681 E0.28712
G1 X105.975 Y126.681 E0.56950
G1 X105.975 Y123.683 E0.28218
G1 X105.350 Y123.006 F7800.000
G1 X112.650 Y123.006 E0.68715 F840.000
G1 X112.650 Y127.306 E0.40476
G1 X105.350 Y127.306 E0.68715
G1 X105.350 Y123.058 E0.39982
G1 X105.653 Y123.181 F7800.000
G1 X107.283 Y125.677 F7800.000
G1 X106.978 Y125.372 E0.04115 F1080.000
G1 X107.135 Y124.634 E0.07197
G1 X108.179 Y125.677 E0.14070
G1 X109.074 Y125.677 E0.08537
G1 X108.031 Y124.634 E0.14070
G1 X108.926 Y124.634 E0.08537
G1 X109.969 Y125.677 E0.14070
G1 X110.865 Y125.677 E0.08537
G1 X109.821 Y124.634 E0.14070
G1 X110.717 Y124.634 E0.08537
G1 X111.022 Y124.939 E0.04115
G1 E-2.00000 F1800.00000
G1 X93.400 Y124.255 F7800.000
G1 E2.00000 F1800.00000
G1 X93.400 Y126.056 E0.16948 F840.000
G1 X88.600 Y126.056 E0.45186
G1 X88.600 Y124.255 E0.16948
G1 X93.348 Y124.255 E0.44692
G1 X94.025 Y123.631 F7800.000
G1 X94.025 Y126.681 E0.28712 F840.000
G1 X87.975 Y126.681 E0.56950
G1 X87.975 Y123.631 E0.28712
G1 X93.973 Y123.631 E0.56456
G1 X94.650 Y123.006 F7800.000
G1 X94.650 Y127.306 E0.40476 F840.000
G1 X87.350 Y127.306 E0.68715
G1 X87.350 Y123.006 E0.40476
G1 X94.598 Y123.006 E0.68220
G1 X94.475 Y123.309 F7800.000
G1 X93.022 Y124.939 F7800.000
G1 X92.717 Y124.634 E0.04115 F1080.000
G1 X91.821 Y124.634 E0.08537
G1 X92.865 Y125.677 E0.14070
G1 X91.969 Y125.677 E0.08537
G1 X90.926 Y124.634 E0.14070
G1 X90.031 Y124.634 E0.08537
G1 X91.074 Y125.677 E0.14070
G1 X90.179 Y125.677 E0.08537
G1 X89.135 Y124.634 E0.14070
G1 X88.978 Y125.372 E0.07197
G1 X89.283 Y125.677 E0.04115
M104 S231 ; set temperature
M140 S85 ; wait for bed temperature to be reached
G1 E-2.00000 F1800.00000
G1 Z0.650 F7800.000
G1 X100.329 Y73.169 F7800.000
G1 E2.00000 F1800.00000
G1 X99.679 Y73.169 E0.02397 F2100.000
G1 X99.679 Y72.519 E0.02397
G1 X100.329 Y72.519 E0.02397
G1 X100.329 Y73.117 E0.02204
G1 X100.026 Y72.994 F7800.000
G1 X100.144 Y72.809 F7800.000
G1 X99.968 Y72.985 E0.01031 F2700.000
G1 E-2.00000 F1800.00000
G1 Z0.650 F7800.000
G1 X105.799 Y123.455 F7800.000
G1 E2.00000 F1800.00000
G1 X112.201 Y123.455 E0.26510 F2100.000
G1 X112.201 Y126.857 E0.14088
G1 X105.799 Y126.857 E0.26510
G1 X105.799 Y123.507 E0.13871
G1 X105.478 Y123.134 F7800.000
G1 X112.522 Y123.134 E0.29166 F2100.000
G1 X112.522 Y127.178 E0.16744
G1 X105.478 Y127.178 E0.29166
G1 X105.478 Y123.186 E0.16527
G1 X105.175 Y122.831 F7800.000
G1 X112.825 Y122.831 E0.28211 F2100.000
G1 X112.825 Y127.481 E0.17148
G1 X105.175 Y127.481 E0.28211
G1 X105.175 Y122.883 E0.16955
G1 X105.478 Y123.006 F7800.000
G1 X105.983 Y123.815 F7800.000
G1 X106.159 Y123.639 E0.01043 F2700.000
G1 X106.618 Y123.639 E0.01920
G1 X105.983 Y124.274 E0.03759
G1 X105.983 Y124.732 E0.01921
G1 X107.077 Y123.639 E0.06475
G1 X107.535 Y123.639 E0.01921
G1 X105.983 Y125.191 E0.09191
G1 X105.983 Y125.650 E0.01921
G1 X107.994 Y123.639 E0.11907
G1 X108.453 Y123.639 E0.01921
G1 X105.983 Y126.108 E0.14623
G1 X105.983 Y126.567 E0.01921
G1 X108.911 Y123.639 E0.17339
G1 X109.370 Y123.639 E0.01920
G1 X106.337 Y126.672 E0.17962
G1 X106.795 Y126.672 E0.01921
G1 X109.829 Y123.639 E0.17962
G1 X110.287 Y123.639 E0.01921
G1 X107.254 Y126.672 E0.17962
G1 X107.713 Y126.672 E0.01920
G1 X110.746 Y123.639 E0.17962
G1 X111.205 Y123.639 E0.01921
G1 X108.171 Y126.672 E0.17962
G1 X108.630 Y126.672 E0.01921
G1 X111.663 Y123.639 E0.17962
G1 X112.017 Y123.744 E0.01544
G1 X109.089 Y126.672 E0.17339
G1 X109.547 Y126.672 E0.01921
G1 X112.017 Y124.203 E0.14623
G1 X112.017 Y124.662 E0.01920
G1 X110.006 Y126.672 E0.11907
G1 X110.465 Y126.672 E0.01921
G1 X112.017 Y125.120 E0.09191
G1 X112.017 Y125.579 E0.01921
G1 X110.923 Y126.672 E0.06475
G1 X111.382 Y126.672 E0.01920
G1 X112.017 Y126.038 E0.03759
G1 X112.017 Y126.496 E0.01921
G1 X111.841 Y126.672 E0.01043
G1 E-2.00000 F1800.00000
G1 X94.201 Y123.455 F7800.000
G1 E2.00000 F1800.00000
G1 X94.201 Y126.857 E0.14088 F2100.000
G1 X87.799 Y126.857 E0.26510
G1 X87.799 Y123.455 E0.14088
G1 X94.149 Y123.455 E0.26293
G1 X94.522 Y123.134 F7800.000
G1 X94.522 Y127.178 E0.16744 F2100.000
G1 X87.478 Y127.178 E0.29166
G1 X87.478 Y123.134 E0.16744
G1 X94.469 Y123.134 E0.28949
G1 X94.825 Y122.831 F7800.000
G1 X94.825 Y127.481 E0.17148 F2100.000
G1 X87.175 Y127.481 E0.28211
G1 X87.175 Y122.831 E0.17148
G1 X94.773 Y122.831 E0.28018
G1 X94.650 Y123.134 F7800.000
G1 X93.841 Y126.672 F7800.000
G1 X94.017 Y126.496 E0.01043 F2700.000
G1 X94.017 Y126.038 E0.01921
G1 X93.382 Y126.672 E0.03759
G1 X92.923 Y126.672 E0.01920
G1 X94.017 Y125.579 E0.06475
G1 X94.017 Y125.120 E0.01921
G1 X92.465 Y126.672 E0.09191
G1 X92.006 Y126.672 E0.01920
G1 X94.017 Y124.662 E0.11907
G1 X94.017 Y124.203 E0.01920
G1 X91.547 Y126.672 E0.14623
G1 X91.089 Y126.672 E0.01921
G1 X94.017 Y123.744 E0.17339
G1 X93.663 Y123.639 E0.01544
G1 X90.630 Y126.672 E0.17962
G1 X90.171 Y126.672 E0.01921
G1 X93.205 Y123.639 E0.17962
G1 X92.746 Y123.639 E0.01920
G1 X89.713 Y126.672 E0.17962
G1 X89.254 Y126.672 E0.01920
G1 X92.287 Y123.639 E0.17962
G1 X91.829 Y123.639 E0.01921
G1 X88.795 Y126.672 E0.17962
G1 X88.337 Y126.672 E0.01921
G1 X91.370 Y123.639 E0.17962
G1 X90.911 Y123.639 E0.01920
G1 X87.983 Y126.567 E0.17339
G1 X87.983 Y126.108 E0.01921
G1 X90.453 Y123.639 E0.14623
G1 X89.994 Y123.639 E0.01921
G1 X87.983 Y125.650 E0.11907
G1 X87.983 Y125.191 E0.01920
G1 X89.535 Y123.639 E0.09191
G1 X89.077 Y123.639 E0.01920
G1 X87.983 Y124.732 E0.06475
G1 X87.983 Y124.274 E0.01921
G1 X88.618 Y123.639 E0.03759
G1 X88.159 Y123.639 E0.01920
G1 X87.983 Y123.815 E0.01043
G1 E-2.00000 F1800.00000
G1 Z0.950 F7800.000
G1 X100.329 Y73.169 F7800.000
G1 E2.00000 F1800.00000
G1 X99.679 Y73.169 E0.02397 F2100.000
G1 X99.679 Y72.519 E0.02397
G1 X100.329 Y72.519 E0.02397
G1 X100.329 Y73.117 E0.02204
G1 X100.026 Y72.994 F7800.000
G1 X100.144 Y72.880 F7800.000
G1 X99.968 Y72.704 E0.01031 F2400.000
G1 E-2.00000 F1800.00000
G1 Z0.950 F7800.000
G1 X105.799 Y123.455 F7800.000
G1 E2.00000 F1800.00000
G1 X112.201 Y123.455 E0.26510 F2100.000
G1 X112.201 Y126.857 E0.14088
G1 X105.799 Y126.857 E0.26510
G1 X105.799 Y123.507 E0.13871
G1 X105.478 Y123.134 F7800.000
G1 X112.522 Y123.134 E0.29166 F2100.000
G1 X112.522 Y127.178 E0.16744
G1 X105.478 Y127.178 E0.29166
G1 X105.478 Y123.186 E0.16527
G1 X105.175 Y122.831 F7800.000
G1 X112.825 Y122.831 E0.28211 F2100.000
G1 X112.825 Y127.481 E0.17148
G1 X105.175 Y127.481 E0.28211
G1 X105.175 Y122.883 E0.16955
G1 X105.478 Y123.006 F7800.000
G1 X106.159 Y126.672 F7800.000
G1 X105.983 Y126.496 E0.01043 F2700.000
G1 X105.983 Y126.038 E0.01920
G1 X106.618 Y126.672 E0.03759
G1 X107.077 Y126.672 E0.01921
G1 X105.983 Y125.579 E0.06475
G1 X105.983 Y125.120 E0.01921
G1 X107.535 Y126.672 E0.09191
G1 X107.994 Y126.672 E0.01920
G1 X105.983 Y124.662 E0.11907
G1 X105.983 Y124.203 E0.01921
G1 X108.453 Y126.672 E0.14623
G1 X108.911 Y126.672 E0.01920
G1 X105.983 Y123.744 E0.17339
G1 X106.337 Y123.639 E0.01544
G1 X109.370 Y126.672 E0.17962
G1 X109.829 Y126.672 E0.01921
G1 X106.795 Y123.639 E0.17962
G1 X107.254 Y123.639 E0.01920
G1 X110.287 Y126.672 E0.17962
G1 X110.746 Y126.672 E0.01921
G1 X107.713 Y123.639 E0.17962
G1 X108.171 Y123.639 E0.01920
G1 X111.205 Y126.672 E0.17962
G1 X111.663 Y126.672 E0.01921
G1 X108.630 Y123.639 E0.17962
G1 X109.089 Y123.639 E0.01921
G1 X112.017 Y126.567 E0.17339
G1 X112.017 Y126.108 E0.01921
G1 X109.547 Y123.639 E0.14623
G1 X110.006 Y123.639 E0.01921
G1 X112.017 Y125.650 E0.11907
G1 X112.017 Y125.191 E0.01920
G1 X110.465 Y123.639 E0.09191
G1 X110.923 Y123.639 E0.01921
G1 X112.017 Y124.732 E0.06475
G1 X112.017 Y124.274 E0.01920
G1 X111.382 Y123.639 E0.03759
G1 X111.841 Y123.639 E0.01921
G1 X112.017 Y123.815 E0.01043
G1 E-2.00000 F1800.00000
G1 X94.201 Y123.455 F7800.000
G1 E2.00000 F1800.00000
G1 X94.201 Y126.857 E0.14088 F2100.000
G1 X87.799 Y126.857 E0.26510
G1 X87.799 Y123.455 E0.14088
G1 X94.149 Y123.455 E0.26293
G1 X94.522 Y123.134 F7800.000
G1 X94.522 Y127.178 E0.16744 F2100.000
G1 X87.478 Y127.178 E0.29166
G1 X87.478 Y123.134 E0.16744
G1 X94.469 Y123.134 E0.28949
G1 X94.825 Y122.831 F7800.000
G1 X94.825 Y127.481 E0.17148 F2100.000
G1 X87.175 Y127.481 E0.28211
G1 X87.175 Y122.831 E0.17148
G1 X94.773 Y122.831 E0.28018
G1 X94.650 Y123.134 F7800.000
G1 X94.017 Y123.815 F7800.000
G1 X93.841 Y123.639 E0.01043 F2700.000
G1 X93.382 Y123.639 E0.01921
G1 X94.017 Y124.274 E0.03759
G1 X94.017 Y124.732 E0.01920
G1 X92.923 Y123.639 E0.06475
G1 X92.465 Y123.639 E0.01921
G1 X94.017 Y125.191 E0.09191
G1 X94.017 Y125.650 E0.01920
G1 X92.006 Y123.639 E0.11907
G1 X91.547 Y123.639 E0.01921
G1 X94.017 Y126.108 E0.14623
G1 X94.017 Y126.567 E0.01921
G1 X91.089 Y123.639 E0.17339
G1 X90.630 Y123.639 E0.01920
G1 X93.663 Y126.672 E0.17962
G1 X93.205 Y126.672 E0.01921
G1 X90.171 Y123.639 E0.17962
G1 X89.713 Y123.639 E0.01920
G1 X92.746 Y126.672 E0.17962
G1 X92.287 Y126.672 E0.01921
G1 X89.254 Y123.639 E0.17962
G1 X88.795 Y123.639 E0.01920
G1 X91.829 Y126.672 E0.17962
G1 X91.370 Y126.672 E0.01921
G1 X88.337 Y123.639 E0.17962
G1 X87.983 Y123.744 E0.01544
G1 X90.911 Y126.672 E0.17339
G1 X90.453 Y126.672 E0.01920
G1 X87.983 Y124.203 E0.14623
G1 X87.983 Y124.662 E0.01921
G1 X89.994 Y126.672 E0.11907
G1 X89.535 Y126.672 E0.01921
G1 X87.983 Y125.120 E0.09191
G1 X87.983 Y125.579 E0.01921
G1 X89.077 Y126.672 E0.06475
G1 X88.618 Y126.672 E0.01921
G1 X87.983 Y126.038 E0.03759
G1 X87.983 Y126.496 E0.01920
G1 X88.159 Y126.672 E0.01043
G1 E-2.00000 F1800.00000
G1 Z1.250 F7800.000
G1 X105.799 Y123.455 F7800.000
G1 E2.00000 F1800.00000
G1 X112.201 Y123.455 E0.26510 F2100.000
G1 X112.201 Y126.857 E0.14088
G1 X105.799 Y126.857 E0.26510
G1 X105.799 Y123.507 E0.13871
G1 X105.478 Y123.134 F7800.000
G1 X112.522 Y123.134 E0.29166 F2100.000
G1 X112.522 Y127.178 E0.16744
G1 X105.478 Y127.178 E0.29166
G1 X105.478 Y123.186 E0.16527
G1 X105.175 Y122.831 F7800.000
G1 X112.825 Y122.831 E0.28211 F2100.000
G1 X112.825 Y127.481 E0.17148
G1 X105.175 Y127.481 E0.28211
G1 X105.175 Y122.883 E0.16955
G1 X105.478 Y123.006 F7800.000
G1 X105.983 Y123.815 F7800.000
G1 X106.159 Y123.639 E0.01043 F2700.000
G1 X106.618 Y123.639 E0.01920
G1 X105.983 Y124.274 E0.03759
G1 X105.983 Y124.732 E0.01920
G1 X107.077 Y123.639 E0.06475
G1 X107.535 Y123.639 E0.01920
G1 X105.983 Y125.191 E0.09190
G1 X105.983 Y125.650 E0.01920
G1 X107.994 Y123.639 E0.11906
G1 X108.453 Y123.639 E0.01920
G1 X105.983 Y126.108 E0.14622
G1 X105.983 Y126.567 E0.01920
G1 X108.911 Y123.639 E0.17338
G1 X109.370 Y123.639 E0.01920
G1 X106.337 Y126.672 E0.17962
G1 X106.795 Y126.672 E0.01920
G1 X109.829 Y123.639 E0.17962
G1 X110.287 Y123.639 E0.01920
G1 X107.254 Y126.672 E0.17962
G1 X107.713 Y126.672 E0.01920
G1 X110.746 Y123.639 E0.17962
G1 X111.205 Y123.639 E0.01920
G1 X108.171 Y126.672 E0.17962
G1 X108.630 Y126.672 E0.01920
G1 X111.663 Y123.639 E0.17962
G1 X112.017 Y123.744 E0.01544
G1 X109.089 Y126.672 E0.17338
G1 X109.547 Y126.672 E0.01920
G1 X112.017 Y124.203 E0.14622
G1 X112.017 Y124.662 E0.01920
G1 X110.006 Y126.672 E0.11907
G1 X110.465 Y126.672 E0.01920
G1 X112.017 Y125.120 E0.09191
G1 X112.017 Y125.579 E0.01920
G1 X110.923 Y126.672 E0.06475
G1 X111.382 Y126.672 E0.01920
G1 X112.017 Y126.038 E0.03759
G1 X112.017 Y126.496 E0.01920
G1 X111.841 Y126.672 E0.01043
G1 E-2.00000 F1800.00000
G1 X94.201 Y123.455 F7800.000
G1 E2.00000 F1800.00000
G1 X94.201 Y126.857 E0.14088 F2100.000
G1 X87.799 Y126.857 E0.26510
G1 X87.799 Y123.455 E0.14088
G1 X94.149 Y123.455 E0.26293
G1 X94.522 Y123.134 F7800.000
G1 X94.522 Y127.178 E0.16744 F2100.000
G1 X87.478 Y127.178 E0.29166
G1 X87.478 Y123.134 E0.16744
G1 X94.469 Y123.134 E0.28949
G1 X94.825 Y122.831 F7800.000
G1 X94.825 Y127.481 E0.17148 F2100.000
G1 X87.175 Y127.481 E0.28211
G1 X87.175 Y122.831 E0.17148
G1 X94.773 Y122.831 E0.28018
G1 X94.650 Y123.134 F7800.000
G1 X93.841 Y126.672 F7800.000
G1 X94.017 Y126.496 E0.01043 F2700.000
G1 X94.017 Y126.038 E0.01920
G1 X93.382 Y126.672 E0.03759
G1 X92.923 Y126.672 E0.01920
G1 X94.017 Y125.579 E0.06475
G1 X94.017 Y125.120 E0.01920
G1 X92.465 Y126.672 E0.09191
G1 X92.006 Y126.672 E0.01920
G1 X94.017 Y124.662 E0.11907
G1 X94.017 Y124.203 E0.01920
G1 X91.547 Y126.672 E0.14622
G1 X91.089 Y126.672 E0.01920
G1 X94.017 Y123.744 E0.17338
G1 X93.663 Y123.639 E0.01544
G1 X90.630 Y126.672 E0.17962
G1 X90.171 Y126.672 E0.01920
G1 X93.205 Y123.639 E0.17962
G1 X92.746 Y123.639 E0.01920
G1 X89.713 Y126.672 E0.17962
G1 X89.254 Y126.672 E0.01920
G1 X92.287 Y123.639 E0.17962
G1 X91.829 Y123.639 E0.01920
G1 X88.795 Y126.672 E0.17962
G1 X88.337 Y126.672 E0.01920
G1 X91.370 Y123.639 E0.17962
G1 X90.911 Y123.639 E0.01920
G1 X87.983 Y126.567 E0.17338
G1 X87.983 Y126.108 E0.01920
G1 X90.453 Y123.639 E0.14622
G1 X89.994 Y123.639 E0.01920
G1 X87.983 Y125.650 E0.11906
G1 X87.983 Y125.191 E0.01920
G1 X89.535 Y123.639 E0.09190
G1 X89.077 Y123.639 E0.01920
G1 X87.983 Y124.732 E0.06475
G1 X87.983 Y124.274 E0.01920
G1 X88.618 Y123.639 E0.03759
G1 X88.159 Y123.639 E0.01920
G1 X87.983 Y123.815 E0.01043
G1 E-2.00000 F1800.00000
G1 Z1.550 F7800.000
G1 X105.799 Y123.455 F7800.000
G1 E2.00000 F1800.00000
G1 X112.201 Y123.455 E0.26510 F2100.000
G1 X112.201 Y126.857 E0.14088
G1 X105.799 Y126.857 E0.26510
G1 X105.799 Y123.507 E0.13871
G1 X105.478 Y123.134 F7800.000
G1 X112.522 Y123.134 E0.29166 F2100.000
G1 X112.522 Y127.178 E0.16744
G1 X105.478 Y127.178 E0.29166
G1 X105.478 Y123.186 E0.16527
G1 X105.175 Y122.831 F7800.000
G1 X112.825 Y122.831 E0.28211 F2100.000
G1 X112.825 Y127.481 E0.17148
G1 X105.175 Y127.481 E0.28211
G1 X105.175 Y122.883 E0.16955
G1 X105.478 Y123.006 F7800.000
G1 X106.159 Y126.672 F7800.000
G1 X105.983 Y126.496 E0.01043 F2700.000
G1 X105.983 Y126.038 E0.01920
G1 X106.618 Y126.672 E0.03759
G1 X107.077 Y126.672 E0.01920
G1 X105.983 Y125.579 E0.06475
G1 X105.983 Y125.120 E0.01920
G1 X107.535 Y126.672 E0.09190
G1 X107.994 Y126.672 E0.01920
G1 X105.983 Y124.662 E0.11906
G1 X105.983 Y124.203 E0.01920
G1 X108.453 Y126.672 E0.14622
G1 X108.911 Y126.672 E0.01920
G1 X105.983 Y123.744 E0.17338
G1 X106.337 Y123.639 E0.01544
G1 X109.370 Y126.672 E0.17962
G1 X109.829 Y126.672 E0.01920
G1 X106.795 Y123.639 E0.17962
G1 X107.254 Y123.639 E0.01920
G1 X110.287 Y126.672 E0.17962
G1 X110.746 Y126.672 E0.01920
G1 X107.713 Y123.639 E0.17962
G1 X108.171 Y123.639 E0.01920
G1 X111.205 Y126.672 E0.17962
G1 X111.663 Y126.672 E0.01920
G1 X108.630 Y123.639 E0.17962
G1 X109.089 Y123.639 E0.01920
G1 X112.017 Y126.567 E0.17338
G1 X112.017 Y126.108 E0.01920
G1 X109.547 Y123.639 E0.14622
G1 X110.006 Y123.639 E0.01920
G1 X112.017 Y125.650 E0.11906
