; generated by Slic3r 1.2.9 on 2015-12-08 at 09:39:27

; external perimeters extrusion width = 0.35mm
; perimeters extrusion width = 0.39mm
; infill extrusion width = 0.39mm
; solid infill extrusion width = 0.39mm
; top infill extrusion width = 0.39mm

M190 S80 ; set bed temperature
M109 S230
G28 ; home all axes
G92 E0  ;reset extruder
G21 ; set units to millimeters
G90 ; use absolute coordinates
M83 ; use relative distances for extrusion
G1 E-2.00000 F1800.00000
G1 Z0.350 F7800.000
G1 X71.915 Y53.731 F7800.000
G1 E2.00000 F1800.00000
G1 X73.668 Y52.252 E0.21588 F1440.000
G1 X75.820 Y51.459 E0.21588
G1 X77.000 Y51.353 E0.11150
G1 X123.000 Y51.353 E4.32994
G1 X125.259 Y51.750 E0.21588
G1 X127.247 Y52.893 E0.21588 F1440.000
G1 X128.726 Y54.646 E0.21588
G1 X129.519 Y56.798 E0.21588
G1 X129.625 Y57.978 E0.11150
G1 X129.625 Y77.978 E1.88258
G1 X129.236 Y80.213 E0.21357
G1 X106.280 Y144.258 E6.40403
G1 X105.144 Y146.250 E0.21588
G1 X103.397 Y147.736 E0.21588
G1 X101.248 Y148.537 E0.21588
G1 X100.043 Y148.647 E0.11383
G1 X99.043 Y148.647 E0.09413
G1 X96.784 Y148.250 E0.21588
G1 X94.796 Y147.107 E0.21588
G1 X93.317 Y145.354 E0.21588
G1 X92.779 Y144.178 E0.12171
G1 X70.736 Y80.134 E6.37553
G1 X70.375 Y77.978 E0.20577
G1 X70.375 Y57.978 E1.88258
G1 X70.772 Y55.719 E0.21588
G1 X71.889 Y53.776 E0.21094
G1 E-2.00000 F1800.00000
G1 Z0.350 F7800.000
G1 X115.975 Y58.953 F7800.000
G1 E2.00000 F1800.00000
G1 X122.025 Y58.953 E0.56950 F840.000
G1 X122.025 Y77.003 E1.69905
G1 X115.975 Y77.003 E0.56950
G1 X115.975 Y59.005 E1.69411
G1 X115.350 Y58.328 F7800.000
G1 X122.650 Y58.328 E0.68715 F588.000
G1 X122.650 Y77.628 E1.81670
G1 X115.350 Y77.628 E0.68715
G1 X115.350 Y58.380 E1.81175
G1 X115.653 Y58.503 F7800.000
G1 X121.647 Y59.636 F7800.000
G1 X121.341 Y59.331 E0.04208 F1080.000
G1 X120.426 Y59.331 E0.08931
G1 X121.647 Y60.552 E0.16838
G1 X121.647 Y61.468 E0.08931
G1 X119.510 Y59.331 E0.29468
G1 X118.594 Y59.331 E0.08931
G1 X121.647 Y62.383 E0.42098
G1 X121.647 Y63.299 E0.08931
G1 X117.679 Y59.331 E0.54727
G1 X116.763 Y59.331 E0.08931
G1 X121.647 Y64.215 E0.67357
G1 X121.647 Y65.130 E0.08931
G1 X116.353 Y59.837 E0.73007
G1 X116.353 Y60.753 E0.08931
G1 X121.647 Y66.046 E0.73007
G1 X121.647 Y66.962 E0.08931
G1 X116.353 Y61.669 E0.73007
G1 X116.353 Y62.584 E0.08931
G1 X121.647 Y67.877 E0.73007
G1 X121.647 Y68.793 E0.08931
G1 X116.353 Y63.500 E0.73007
G1 X116.353 Y64.416 E0.08931
G1 X121.647 Y69.709 E0.73007
G1 X121.647 Y70.624 E0.08931
G1 X116.353 Y65.331 E0.73007
G1 X116.353 Y66.247 E0.08931
G1 X121.647 Y71.540 E0.73007
G1 X121.647 Y72.456 E0.08931
G1 X116.353 Y67.163 E0.73007
G1 X116.353 Y68.078 E0.08931
G1 X121.647 Y73.371 E0.73007
G1 X121.647 Y74.287 E0.08931
G1 X116.353 Y68.994 E0.73007
G1 X116.353 Y69.910 E0.08931
G1 X121.647 Y75.203 E0.73007
G1 X121.647 Y76.118 E0.08931
G1 X116.353 Y70.825 E0.73007
G1 X116.353 Y71.741 E0.08931
G1 X121.237 Y76.624 E0.67357
G1 X120.321 Y76.624 E0.08931
G1 X116.353 Y72.657 E0.54727
G1 X116.353 Y73.572 E0.08931
G1 X119.406 Y76.624 E0.42097
G1 X118.490 Y76.624 E0.08931
G1 X116.353 Y74.488 E0.29468
G1 X116.353 Y75.404 E0.08931
G1 X117.574 Y76.624 E0.16838
G1 X116.659 Y76.624 E0.08931
G1 X116.353 Y76.319 E0.04208
G1 E-2.00000 F1800.00000
G1 X84.025 Y58.953 F7800.000
G1 E2.00000 F1800.00000
G1 X84.025 Y77.003 E1.69905 F840.000
G1 X77.975 Y77.003 E0.56950
G1 X77.975 Y58.953 E1.69905
G1 X83.973 Y58.953 E0.56456
G1 X84.650 Y58.328 F7800.000
G1 X84.650 Y77.628 E1.81670 F588.000
G1 X77.350 Y77.628 E0.68715
G1 X77.350 Y58.328 E1.81670
G1 X84.598 Y58.328 E0.68220
G1 X84.475 Y58.631 F7800.000
G1 X83.647 Y59.636 F7800.000
G1 X83.341 Y59.331 E0.04208 F1080.000
G1 X82.426 Y59.331 E0.08931
G1 X83.647 Y60.552 E0.16838
G1 X83.647 Y61.468 E0.08931
G1 X81.510 Y59.331 E0.29468
G1 X80.594 Y59.331 E0.08931
G1 X83.647 Y62.383 E0.42098
G1 X83.647 Y63.299 E0.08931
G1 X79.679 Y59.331 E0.54727
G1 X78.763 Y59.331 E0.08931
G1 X83.647 Y64.215 E0.67357
G1 X83.647 Y65.130 E0.08931
G1 X78.353 Y59.837 E0.73007
G1 X78.353 Y60.753 E0.08931
G1 X83.647 Y66.046 E0.73007
G1 X83.647 Y66.962 E0.08931
G1 X78.353 Y61.669 E0.73007
G1 X78.353 Y62.584 E0.08931
G1 X83.647 Y67.877 E0.73007
G1 X83.647 Y68.793 E0.08931
G1 X78.353 Y63.500 E0.73007
G1 X78.353 Y64.416 E0.08931
G1 X83.647 Y69.709 E0.73007
G1 X83.647 Y70.624 E0.08931
G1 X78.353 Y65.331 E0.73007
G1 X78.353 Y66.247 E0.08931
G1 X83.647 Y71.540 E0.73007
G1 X83.647 Y72.456 E0.08931
G1 X78.353 Y67.163 E0.73007
G1 X78.353 Y68.078 E0.08931
G1 X83.647 Y73.371 E0.73007
G1 X83.647 Y74.287 E0.08931
G1 X78.353 Y68.994 E0.73007
G1 X78.353 Y69.910 E0.08931
G1 X83.647 Y75.203 E0.73007
G1 X83.647 Y76.118 E0.08931
G1 X78.353 Y70.825 E0.73007
G1 X78.353 Y71.741 E0.08931
G1 X83.237 Y76.624 E0.67357
G1 X82.321 Y76.624 E0.08931
G1 X78.353 Y72.657 E0.54727
G1 X78.353 Y73.572 E0.08931
G1 X81.406 Y76.624 E0.42098
G1 X80.490 Y76.624 E0.08931
G1 X78.353 Y74.488 E0.29468
G1 X78.353 Y75.404 E0.08931
G1 X79.574 Y76.624 E0.16838
G1 X78.659 Y76.624 E0.08931
G1 X78.353 Y76.319 E0.04208
M104 S231 ; set temperature
M140 S85 ; wait for bed temperature to be reached
G1 E-2.00000 F1800.00000
G1 Z0.650 F7800.000
G1 X99.868 Y141.847 F7800.000
G1 E2.00000 F1800.00000
G1 X99.218 Y141.847 E0.02397 F2100.000
G1 X99.218 Y141.197 E0.02397
G1 X99.868 Y141.197 E0.02397
G1 X99.868 Y141.795 E0.02204
G1 X99.565 Y141.672 F7800.000
G1 X99.684 Y141.487 F7800.000
G1 X99.508 Y141.663 E0.01031 F2700.000
G1 E-2.00000 F1800.00000
G1 Z0.650 F7800.000
G1 X115.478 Y58.456 F7800.000
G1 E2.00000 F1800.00000
G1 X122.522 Y58.456 E0.29166 F2100.000
G1 X122.522 Y77.500 E0.78855
G1 X115.478 Y77.500 E0.29166
G1 X115.478 Y58.508 E0.78638
G1 X115.175 Y58.153 F7800.000
G1 X122.825 Y58.153 E0.28211 F1470.000
G1 X122.825 Y77.803 E0.72464
G1 X115.175 Y77.803 E0.28211
G1 X115.175 Y58.205 E0.72271
G1 X115.478 Y58.328 F7800.000
G1 X119.966 Y58.641 F7800.000
G1 X115.663 Y62.944 E0.25199 F2700.000
G1 X115.663 Y67.479 E0.18780
G1 X122.337 Y60.804 E0.39086
G1 X122.337 Y65.340 E0.18780
G1 X115.663 Y72.015 E0.39086
G1 X115.663 Y76.550 E0.18780
G1 X122.337 Y69.875 E0.39086
G1 X122.337 Y74.411 E0.18780
G1 X119.433 Y77.315 E0.17007
G1 E-2.00000 F1800.00000
G1 X84.522 Y58.456 F7800.000
G1 E2.00000 F1800.00000
G1 X84.522 Y77.500 E0.78855 F2100.000
G1 X77.478 Y77.500 E0.29166
G1 X77.478 Y58.456 E0.78855
G1 X84.469 Y58.456 E0.28949
G1 X84.825 Y58.153 F7800.000
G1 X84.825 Y77.803 E0.72464 F1470.000
G1 X77.175 Y77.803 E0.28211
G1 X77.175 Y58.153 E0.72464
G1 X84.773 Y58.153 E0.28018
G1 X84.650 Y58.456 F7800.000
G1 X77.663 Y60.125 F7800.000
G1 X79.147 Y58.641 E0.08691 F2700.000
G1 X83.682 Y58.641 E0.18780
G1 X77.663 Y64.660 E0.35250
G1 X77.663 Y69.196 E0.18780
G1 X84.337 Y62.521 E0.39086
G1 X84.337 Y67.056 E0.18780
G1 X77.663 Y73.731 E0.39086
G1 X78.614 Y77.315 E0.15355
G1 X84.337 Y71.592 E0.33515
G1 X84.337 Y76.127 E0.18780
G1 X83.149 Y77.315 E0.06956
G1 E-2.00000 F1800.00000
G1 Z0.950 F7800.000
G1 X99.868 Y141.847 F7800.000
G1 E2.00000 F1800.00000
G1 X99.218 Y141.847 E0.02397 F2100.000
G1 X99.218 Y141.197 E0.02397
G1 X99.868 Y141.197 E0.02397
G1 X99.868 Y141.795 E0.02204
G1 X99.565 Y141.672 F7800.000
G1 X99.684 Y141.558 F7800.000
G1 X99.508 Y141.382 E0.01031 F2400.000
G1 E-2.00000 F1800.00000
G1 Z0.950 F7800.000
G1 X115.478 Y58.456 F7800.000
G1 E2.00000 F1800.00000
G1 X122.522 Y58.456 E0.29166 F2100.000
G1 X122.522 Y77.500 E0.78855
G1 X115.478 Y77.500 E0.29166
G1 X115.478 Y58.508 E0.78638
G1 X115.175 Y58.153 F7800.000
G1 X122.825 Y58.153 E0.28211 F1470.000
G1 X122.825 Y77.803 E0.72464
G1 X115.175 Y77.803 E0.28211
G1 X115.175 Y58.205 E0.72271
G1 X115.478 Y58.328 F7800.000
G1 X122.337 Y61.545 F7800.000
G1 X119.433 Y58.641 E0.17007 F2700.000
G1 X115.663 Y59.406 E0.15930
G1 X122.337 Y66.080 E0.39086
G1 X122.337 Y70.616 E0.18780
G1 X115.663 Y63.941 E0.39086
G1 X115.663 Y68.477 E0.18780
G1 X122.337 Y75.151 E0.39086
G1 X119.966 Y77.315 E0.13293
G1 X115.663 Y73.012 E0.25199
G1 E-2.00000 F1800.00000
G1 X84.522 Y58.456 F7800.000
G1 E2.00000 F1800.00000
G1 X84.522 Y77.500 E0.78855 F2100.000
G1 X77.478 Y77.500 E0.29166
G1 X77.478 Y58.456 E0.78855
G1 X84.469 Y58.456 E0.28949
G1 X84.825 Y58.153 F7800.000
G1 X84.825 Y77.803 E0.72464 F1470.000
G1 X77.175 Y77.803 E0.28211
G1 X77.175 Y58.153 E0.72464
G1 X84.773 Y58.153 E0.28018
G1 X84.650 Y58.456 F7800.000
G1 X84.337 Y59.828 F7800.000
G1 X83.149 Y58.641 E0.06956 F2700.000
G1 X78.614 Y58.641 E0.18780
G1 X84.337 Y64.364 E0.33515
G1 X84.337 Y68.899 E0.18780
G1 X77.663 Y62.225 E0.39086
G1 X77.663 Y66.760 E0.18780
G1 X84.337 Y73.435 E0.39086
G1 X83.682 Y77.315 E0.16295
G1 X77.663 Y71.296 E0.35250
G1 X77.663 Y75.831 E0.18780
G1 X79.147 Y77.315 E0.08691
G1 E-2.00000 F1800.00000
G1 Z1.250 F7800.000
G1 X115.478 Y58.456 F7800.000
G1 E2.00000 F1800.00000
G1 X122.522 Y58.456 E0.29166 F2100.000
G1 X122.522 Y77.500 E0.78855
G1 X115.478 Y77.500 E0.29166
G1 X115.478 Y58.508 E0.78638
G1 X115.175 Y58.153 F7800.000
G1 X122.825 Y58.153 E0.28211 F1470.000
G1 X122.825 Y77.803 E0.72464
G1 X115.175 Y77.803 E0.28211
G1 X115.175 Y58.205 E0.72271
G1 X115.478 Y58.328 F7800.000
G1 X119.966 Y58.641 F7800.000
G1 X115.663 Y62.944 E0.25199 F2700.000
G1 X115.663 Y67.479 E0.18780
G1 X122.337 Y60.804 E0.39086
G1 X122.337 Y65.340 E0.18780
G1 X115.663 Y72.015 E0.39086
G1 X115.663 Y76.550 E0.18780
G1 X122.337 Y69.875 E0.39086
G1 X122.337 Y74.411 E0.18780
G1 X119.433 Y77.315 E0.17007
G1 E-2.00000 F1800.00000
G1 X84.522 Y58.456 F7800.000
G1 E2.00000 F1800.00000
G1 X84.522 Y77.500 E0.78855 F2100.000
G1 X77.478 Y77.500 E0.29166
G1 X77.478 Y58.456 E0.78855
G1 X84.469 Y58.456 E0.28949
G1 X84.825 Y58.153 F7800.000
G1 X84.825 Y77.803 E0.72464 F1470.000
G1 X77.175 Y77.803 E0.28211
G1 X77.175 Y58.153 E0.72464
G1 X84.773 Y58.153 E0.28018
G1 X84.650 Y58.456 F7800.000
G1 X77.663 Y60.125 F7800.000
G1 X79.147 Y58.641 E0.08691 F2700.000
G1 X83.682 Y58.641 E0.18780
G1 X77.663 Y64.660 E0.35250
G1 X77.663 Y69.196 E0.18780
G1 X84.337 Y62.521 E0.39086
G1 X84.337 Y67.056 E0.18780
G1 X77.663 Y73.731 E0.39086
G1 X78.614 Y77.315 E0.15355
G1 X84.337 Y71.592 E0.33515
G1 X84.337 Y76.127 E0.18780
G1 X83.149 Y77.315 E0.06956
G1 E-2.00000 F1800.00000
G1 Z1.550 F7800.000
G1 X115.478 Y58.456 F7800.000
G1 E2.00000 F1800.00000
G1 X122.522 Y58.456 E0.29166 F2100.000
G1 X122.522 Y77.500 E0.78855
G1 X115.478 Y77.500 E0.29166
G1 X115.478 Y58.508 E0.78638
G1 X115.175 Y58.153 F7800.000
G1 X122.825 Y58.153 E0.28211 F1470.000
G1 X122.825 Y77.803 E0.72464
G1 X115.175 Y77.803 E0.28211
G1 X115.175 Y58.205 E0.72271
G1 X115.478 Y58.328 F7800.000
G1 X122.337 Y61.545 F7800.000
G1 X119.433 Y58.641 E0.17007 F2700.000
G1 X115.663 Y59.406 E0.15930
G1 X122.337 Y66.080 E0.39086
G1 X122.337 Y70.616 E0.18780
G1 X115.663 Y63.941 E0.39086
G1 X115.663 Y68.477 E0.18780
G1 X122.337 Y75.151 E0.39086
G1 X119.966 Y77.315 E0.13293
G1 X115.663 Y73.012 E0.25199
G1 E-2.00000 F1800.00000
G1 X84.522 Y58.456 F7800.000
G1 E2.00000 F1800.00000
G1 X84.522 Y77.500 E0.78855 F2100.000
G1 X77.478 Y77.500 E0.29166
G1 X77.478 Y58.456 E0.78855
G1 X84.469 Y58.456 E0.28949
G1 X84.825 Y58.153 F7800.000
G1 X84.825 Y77.803 E0.72464 F1470.000
G1 X77.175 Y77.803 E0.28211
G1 X77.175 Y58.153 E0.72464
G1 X84.773 Y58.153 E0.28018
G1 X84.650 Y58.456 F7800.000
G1 X84.337 Y59.828 F7800.000
G1 X83.149 Y58.641 E0.06956 F2700.000
G1 X78.614 Y58.641 E0.18780
G1 X84.337 Y64.364 E0.33515
G1 X84.337 Y68.899 E0.18780
G1 X77.663 Y62.225 E0.39086
G1 X77.663 Y66.760 E0.18780
G1 X84.337 Y73.435 E0.39086
G1 X83.682 Y77.315 E0.16295
G1 X77.663 Y71.296 E0.35250
G1 X77.663 Y75.831 E0.18780
G1 X79.147 Y77.315 E0.08691
G1 E-2.00000 F1800.00000
G1 Z1.850 F7800.000
G1 X115.478 Y58.456 F7800.000
G1 E2.00000 F1800.00000
G1 X122.522 Y58.456 E0.29166 F2100.000
G1 X122.522 Y77.500 E0.78855
G1 X115.478 Y77.500 E0.29166
G1 X115.478 Y58.508 E0.78638
G1 X115.175 Y58.153 F7800.000
G1 X122.825 Y58.153 E0.28211 F1470.000
G1 X122.825 Y77.803 E0.72464
G1 X115.175 Y77.803 E0.28211
G1 X115.175 Y58.205 E0.72271
G1 X115.478 Y58.328 F7800.000
G1 X119.966 Y58.641 F7800.000
G1 X115.663 Y62.944 E0.25199 F2700.000
G1 X115.663 Y67.479 E0.18780
G1 X122.337 Y60.804 E0.39086
G1 X122.337 Y65.340 E0.18780
G1 X115.663 Y72.015 E0.39086
G1 X115.663 Y76.550 E0.18780
G1 X122.337 Y69.875 E0.39086
G1 X122.337 Y74.411 E0.18780
G1 X119.433 Y77.315 E0.17007
G1 E-2.00000 F1800.00000
G1 X84.522 Y58.456 F7800.000
G1 E2.00000 F1800.00000
G1 X84.522 Y77.500 E0.78855 F2100.000
G1 X77.478 Y77.500 E0.29166
G1 X77.478 Y58.456 E0.78855
G1 X84.469 Y58.456 E0.28949
G1 X84.825 Y58.153 F7800.000
G1 X84.825 Y77.803 E0.72464 F1470.000
G1 X77.175 Y77.803 E0.28211
G1 X77.175 Y58.153 E0.72464
G1 X84.773 Y58.153 E0.28018
G1 X84.650 Y58.456 F7800.000
G1 X77.663 Y60.125 F7800.000
G1 X79.147 Y58.641 E0.08691 F2700.000
G1 X83.682 Y58.641 E0.18780
G1 X77.663 Y64.660 E0.35250
G1 X77.663 Y69.196 E0.18780
G1 X84.337 Y62.521 E0.39086
G1 X84.337 Y67.056 E0.18780
G1 X77.663 Y73.731 E0.39086
G1 X78.614 Y77.315 E0.15355
G1 X84.337 Y71.592 E0.33515
G1 X84.337 Y76.127 E0.18780
G1 X83.149 Y77.315 E0.06956
G1 E-2.00000 F1800.00000
G1 Z2.150 F7800.000
G1 X115.478 Y58.456 F7800.000
G1 E2.00000 F1800.00000
G1 X122.522 Y58.456 E0.29166 F2100.000
G1 X122.522 Y77.500 E0.78855
G1 X115.478 Y77.500 E0.29166
G1 X115.478 Y58.508 E0.78638
G1 X115.175 Y58.153 F7800.000
G1 X122.825 Y58.153 E0.28211 F1470.000
G1 X122.825 Y77.803 E0.72464
G1 X115.175 Y77.803 E0.28211
G1 X115.175 Y58.205 E0.72271
G1 X115.478 Y58.328 F7800.000
G1 X122.337 Y61.545 F7800.000
G1 X119.433 Y58.641 E0.17007 F2700.000
G1 X115.663 Y59.406 E0.15930
G1 X122.337 Y66.080 E0.39086
G1 X122.337 Y70.616 E0.18780
G1 X115.663 Y63.941 E0.39086
G1 X115.663 Y68.477 E0.18780
G1 X122.337 Y75.151 E0.39086
G1 X119.966 Y77.315 E0.13293
G1 X115.663 Y73.012 E0.25199
G1 E-2.00000 F1800.00000
G1 X84.522 Y58.456 F7800.000
G1 E2.00000 F1800.00000
G1 X84.522 Y77.500 E0.78855 F2100.000
G1 X77.478 Y77.500 E0.29166
G1 X77.478 Y58.456 E0.78855
G1 X84.469 Y58.456 E0.28949
G1 X84.825 Y58.153 F7800.000
G1 X84.825 Y77.803 E0.72464 F1470.000
G1 X77.175 Y77.803 E0.28211
G1 X77.175 Y58.153 E0.72464
G1 X84.773 Y58.153 E0.28018
G1 X84.650 Y58.456 F7800.000
G1 X84.337 Y59.828 F7800.000
G1 X83.149 Y58.641 E0.06956 F2700.000
G1 X78.614 Y58.641 E0.18780
G1 X84.337 Y64.364 E0.33515
G1 X84.337 Y68.899 E0.18780
G1 X77.663 Y62.225 E0.39086
G1 X77.663 Y66.760 E0.18780
G1 X84.337 Y73.435 E0.39086
G1 X83.682 Y77.315 E0.16295
G1 X77.663 Y71.296 E0.35250
G1 X77.663 Y75.831 E0.18780
G1 X79.147 Y77.315 E0.08691
G1 E-2.00000 F1800.00000
G1 Z2.450 F7800.000
G1 X115.478 Y58.456 F7800.000
G1 E2.00000 F1800.00000
G1 X122.522 Y58.456 E0.29166 F2100.000
G1 X122.522 Y77.500 E0.78855
G1 X115.478 Y77.500 E0.29166
G1 X115.478 Y58.508 E0.78638
G1 X115.175 Y58.153 F7800.000
G1 X122.825 Y58.153 E0.28211 F1470.000
G1 X122.825 Y77.803 E0.72464
G1 X115.175 Y77.803 E0.28211
G1 X115.175 Y58.205 E0.72271
G1 X115.478 Y58.328 F7800.000
G1 X119.966 Y58.641 F7800.000
G1 X115.663 Y62.944 E0.25199 F2700.000
G1 X115.663 Y67.479 E0.18780
G1 X122.337 Y60.804 E0.39086
G1 X122.337 Y65.340 E0.18780
G1 X115.663 Y72.015 E0.39086
G1 X115.663 Y76.550 E0.18780
G1 X122.337 Y69.875 E0.39086
G1 X122.337 Y74.411 E0.18780
G1 X119.433 Y77.315 E0.17007
G1 E-2.00000 F1800.00000
G1 X84.522 Y58.456 F7800.000
G1 E2.00000 F1800.00000
G1 X84.522 Y77.500 E0.78855 F2100.000
G1 X77.478 Y77.500 E0.29166
G1 X77.478 Y58.456 E0.78855
G1 X84.469 Y58.456 E0.28949
G1 X84.825 Y58.153 F7800.000
G1 X84.825 Y77.803 E0.72464 F1470.000
G1 X77.175 Y77.803 E0.28211
G1 X77.175 Y58.153 E0.72464
G1 X84.773 Y58.153 E0.28018
G1 X84.650 Y58.456 F7800.000
G1 X77.663 Y60.125 F7800.000
G1 X79.147 Y58.641 E0.08691 F2700.000
G1 X83.682 Y58.641 E0.18780
G1 X77.663 Y64.660 E0.35250
G1 X77.663 Y69.196 E0.18780
G1 X84.337 Y62.521 E0.39086
G1 X84.337 Y67.056 E0.18780
G1 X77.663 Y73.731 E0.39086
G1 X78.614 Y77.315 E0.15355
G1 X84.337 Y71.592 E0.33515
G1 X84.337 Y76.127 E0.18780
G1 X83.149 Y77.315 E0.06956
G1 E-2.00000 F1800.00000
G1 Z2.750 F7800.000
G1 X115.478 Y58.456 F7800.000
G1 E2.00000 F1800.00000
G1 X122.522 Y58.456 E0.29166 F2100.000
G1 X122.522 Y77.500 E0.78855
G1 X115.478 Y77.500 E0.29166
G1 X115.478 Y58.508 E0.78638
