; generated by Slic3r 1.2.9 on 2015-12-17 at 17:22:30

; external perimeters extrusion width = 0.35mm
; perimeters extrusion width = 0.39mm
; infill extrusion width = 0.39mm
; solid infill extrusion width = 0.39mm
; top infill extrusion width = 0.39mm
; support material extrusion width = 0.35mm

M190 S80 ; set bed temperature
M109 S230
G28 ; home all axes
G92 E0  ;reset extruder
G21 ; set units to millimeters
G90 ; use absolute coordinates
M83 ; use relative distances for extrusion
G1 E-2.00000 F1800.00000
G1 Z0.350 F7800.000
G1 X84.363 Y63.240 F7800.000
G1 E2.00000 F1800.00000
G1 X84.816 Y62.635 E0.07118 F1440.000
G1 X87.433 Y60.202 E0.33637
G1 X88.551 Y59.364 E0.13147
G1 X90.545 Y58.175 E0.21851
G1 X91.437 Y57.731 E0.09379
G1 X93.194 Y57.014 E0.17860
G1 X93.997 Y56.745 E0.07976
G1 X95.609 Y56.318 E0.15699
G1 X96.343 Y56.167 E0.07053
G1 X97.852 Y55.945 E0.14358
G1 X98.554 Y55.880 E0.06631
G1 X99.980 Y55.823 E0.13436
G1 X100.641 Y55.830 E0.06218
G1 X101.998 Y55.912 E0.12797 F1440.000
G1 X102.624 Y55.980 E0.05928
G1 X103.920 Y56.182 E0.12350
G1 X104.521 Y56.305 E0.05772
G1 X105.761 Y56.619 E0.12046
G1 X106.343 Y56.795 E0.05723
G1 X107.531 Y57.215 E0.11857
G1 X108.169 Y57.478 E0.06495
G1 X109.648 Y58.195 E0.15474
G1 X110.744 Y58.798 E0.11773
G1 X111.331 Y59.162 E0.06500
G1 X112.367 Y59.883 E0.11885
G1 X112.846 Y60.249 E0.05673
G1 X113.830 Y61.076 E0.12094
G1 X114.284 Y61.495 E0.05820
G1 X115.211 Y62.434 E0.12424
G1 X115.638 Y62.911 E0.06026
G1 X116.503 Y63.975 E0.12907
G1 X116.898 Y64.515 E0.06292
G1 X117.691 Y65.722 E0.13595
G1 X118.044 Y66.328 E0.06602
G1 X118.752 Y67.704 E0.14568
G1 X119.066 Y68.413 E0.07302
G1 X119.664 Y70.010 E0.16049
G1 X119.913 Y70.834 E0.08100
G1 X120.355 Y72.740 E0.18420
G1 X120.511 Y73.781 E0.09906
G1 X120.681 Y76.232 E0.23123
G1 X120.697 Y76.689 E0.04310
G1 X120.697 Y123.486 E4.40493
G1 X120.595 Y124.643 E0.10935
G1 X119.829 Y128.961 E0.41275
G1 X119.228 Y130.772 E0.17961
G1 X117.413 Y134.393 E0.38126
G1 X116.321 Y135.958 E0.17968
G1 X113.321 Y139.154 E0.41259
G1 X112.080 Y140.189 E0.15217
G1 X110.015 Y141.520 E0.23122
G1 X109.088 Y142.018 E0.09907
G1 X107.296 Y142.804 E0.18419
G1 X106.486 Y143.098 E0.08107
G1 X104.849 Y143.574 E0.16046
G1 X104.098 Y143.746 E0.07255
G1 X102.571 Y144.003 E0.14575
G1 X101.872 Y144.083 E0.06625
G1 X100.430 Y144.171 E0.13596
G1 X99.756 Y144.177 E0.06340
G1 X98.387 Y144.121 E0.12904
G1 X97.755 Y144.064 E0.05971
G1 X96.447 Y143.884 E0.12425
G1 X95.838 Y143.771 E0.05832
G1 X94.587 Y143.478 E0.12094
G1 X94.005 Y143.313 E0.05698
G1 X92.807 Y142.913 E0.11885
G1 X92.253 Y142.701 E0.05583
G1 X91.106 Y142.200 E0.11781
G1 X90.577 Y141.940 E0.05550
G1 X89.480 Y141.340 E0.11772
G1 X88.974 Y141.033 E0.05572
G1 X87.927 Y140.333 E0.11857
G1 X87.444 Y139.977 E0.05651
G1 X86.449 Y139.172 E0.12044
G1 X85.988 Y138.761 E0.05808
G1 X85.050 Y137.845 E0.12349
G1 X84.618 Y137.381 E0.05961
G1 X83.741 Y136.342 E0.12798
G1 X83.338 Y135.814 E0.06251
G1 X82.530 Y134.637 E0.13442
G1 X82.167 Y134.043 E0.06552
G1 X81.441 Y132.702 E0.14353
G1 X81.121 Y132.019 E0.07104
G1 X80.499 Y130.471 E0.15704
G1 X80.234 Y129.669 E0.07940
G1 X79.757 Y127.834 E0.17855
G1 X79.579 Y126.853 E0.09381
G1 X79.337 Y124.545 E0.21844
G1 X79.302 Y123.857 E0.06489
G1 X79.302 Y77.060 E4.40493
G1 X79.340 Y76.351 E0.06681
G1 X79.722 Y72.799 E0.33625
G1 X80.386 Y70.540 E0.22170
G1 X83.404 Y64.519 E0.63398
G1 X84.331 Y63.282 E0.14551
G1 E-2.00000 F1800.00000
G1 X104.755 Y79.977 F7800.000
G1 E2.00000 F1800.00000
G1 X104.449 Y80.370 E0.04691 F840.000
G1 X103.961 Y80.881 E0.06647
G1 X103.581 Y81.203 E0.04692
G1 X103.175 Y81.493 E0.04692
G1 X102.560 Y81.840 E0.06647
G1 X102.119 Y82.034 E0.04536
G1 X101.663 Y82.190 E0.04536
G1 X100.975 Y82.351 E0.06647
G1 X100.481 Y82.413 E0.04692
G1 X99.999 Y82.433 E0.04536
G1 X99.518 Y82.413 E0.04536
G1 X98.819 Y82.313 E0.06647
G1 X98.335 Y82.190 E0.04692
G1 X97.880 Y82.034 E0.04536
G1 X97.438 Y81.840 E0.04536
G1 X97.000 Y81.603 E0.04692
G1 X96.418 Y81.203 E0.06648
G1 X95.887 Y80.737 E0.06647
G1 X95.550 Y80.370 E0.04692
G1 X95.254 Y79.990 E0.04536
G1 X94.878 Y79.392 E0.06648
G1 X94.652 Y78.929 E0.04848
G1 X94.411 Y78.265 E0.06646
G1 X94.250 Y77.578 E0.06648
G1 X94.188 Y77.083 E0.04691
G1 X94.168 Y76.602 E0.04537
G1 X94.188 Y76.120 E0.04537
G1 X94.288 Y75.421 E0.06646
G1 X94.411 Y74.938 E0.04693
G1 X94.573 Y74.466 E0.04692
G1 X94.927 Y73.729 E0.07702
G1 X95.260 Y73.205 E0.05841
G1 X95.550 Y72.833 E0.04438
G1 X95.887 Y72.466 E0.04692
G1 X96.418 Y72.000 E0.06647
G1 X97.000 Y71.601 E0.06648
G1 X97.438 Y71.363 E0.04692
G1 X97.880 Y71.170 E0.04536
G1 X98.341 Y71.011 E0.04592
G1 X98.677 Y70.923 E0.03271
G1 X99.034 Y70.851 E0.03430
G1 X99.508 Y70.792 E0.04495
G1 X100.112 Y70.774 E0.05682
G1 X100.731 Y70.817 E0.05841
G1 X101.196 Y70.895 E0.04438 F840.000
G1 X101.663 Y71.013 E0.04537
G1 X102.134 Y71.175 E0.04692
G1 X102.789 Y71.481 E0.06803
G1 X103.387 Y71.856 E0.06647
G1 X103.768 Y72.152 E0.04536
G1 X104.122 Y72.479 E0.04536
G1 X104.449 Y72.833 E0.04536
G1 X104.745 Y73.213 E0.04536
G1 X105.017 Y73.631 E0.04692
G1 X105.346 Y74.274 E0.06804
G1 X105.588 Y74.938 E0.06646
G1 X105.749 Y75.626 E0.06648
G1 X105.810 Y76.120 E0.04691
G1 X105.830 Y76.602 E0.04537
G1 X105.810 Y77.083 E0.04537
G1 X105.710 Y77.782 E0.06646
G1 X105.588 Y78.265 E0.04693
G1 X105.426 Y78.737 E0.04692
G1 X105.127 Y79.377 E0.06646
G1 X104.784 Y79.934 E0.06154
G1 X105.271 Y80.329 F7800.000
G1 X104.926 Y80.774 E0.05300 F840.000
G1 X104.380 Y81.345 E0.07437
G1 X103.965 Y81.697 E0.05118
G1 X103.522 Y82.013 E0.05118
G1 X102.835 Y82.402 E0.07437
G1 X102.346 Y82.616 E0.05023
G1 X101.841 Y82.790 E0.05023
G1 X101.072 Y82.969 E0.07437
G1 X100.532 Y83.036 E0.05118
G1 X99.999 Y83.058 E0.05023
G1 X99.466 Y83.036 E0.05023
G1 X98.684 Y82.923 E0.07437
G1 X98.157 Y82.790 E0.05118
G1 X97.652 Y82.616 E0.05023
G1 X97.164 Y82.402 E0.05023
G1 X96.685 Y82.143 E0.05118
G1 X96.034 Y81.697 E0.07437
G1 X95.441 Y81.174 E0.07437
G1 X95.072 Y80.774 E0.05118
G1 X94.745 Y80.353 E0.05023
G1 X94.325 Y79.684 E0.07438
G1 X94.082 Y79.186 E0.05213
G1 X93.811 Y78.444 E0.07437
G1 X93.632 Y77.674 E0.07438
G1 X93.565 Y77.135 E0.05117
G1 X93.543 Y76.602 E0.05023
G1 X93.565 Y76.068 E0.05023
G1 X93.678 Y75.287 E0.07436
G1 X93.811 Y74.759 E0.05119
G1 X93.988 Y74.245 E0.05118
G1 X94.080 Y74.023 E0.02268
G1 X94.383 Y73.420 E0.06347
G1 X94.749 Y72.845 E0.06415
G1 X95.072 Y72.429 E0.04963
G1 X95.441 Y72.029 E0.05118
G1 X96.034 Y71.507 E0.07437
G1 X96.685 Y71.060 E0.07437
G1 X97.164 Y70.801 E0.05118
G1 X97.652 Y70.587 E0.05023
G1 X98.160 Y70.413 E0.05057
G1 X98.536 Y70.315 E0.03654
G1 X98.933 Y70.234 E0.03817
G1 X99.460 Y70.168 E0.04998
G1 X100.124 Y70.149 E0.06252
G1 X100.804 Y70.196 E0.06415
G1 X101.324 Y70.283 E0.04963 F840.000
G1 X101.841 Y70.414 E0.05023
G1 X102.356 Y70.590 E0.05117
G1 X103.081 Y70.928 E0.07532
G1 X103.751 Y71.347 E0.07437
G1 X104.172 Y71.675 E0.05023
G1 X104.565 Y72.036 E0.05023
G1 X104.926 Y72.429 E0.05023
G1 X105.254 Y72.850 E0.05022
G1 X105.551 Y73.305 E0.05118
G1 X105.916 Y74.017 E0.07533
G1 X106.187 Y74.759 E0.07437
G1 X106.366 Y75.529 E0.07438
G1 X106.433 Y76.068 E0.05117
G1 X106.455 Y76.602 E0.05023
G1 X106.433 Y77.135 E0.05023
G1 X106.321 Y77.917 E0.07436
G1 X106.187 Y78.444 E0.05119
G1 X106.011 Y78.958 E0.05118
G1 X105.677 Y79.675 E0.07437
G1 X105.300 Y80.286 E0.06762
G1 X105.787 Y80.682 F7800.000
G1 X105.403 Y81.179 E0.05908 F588.000
G1 X104.798 Y81.810 E0.08227
G1 X104.349 Y82.190 E0.05544
G1 X103.870 Y82.532 E0.05544
G1 X103.109 Y82.964 E0.08227
G1 X102.573 Y83.199 E0.05509
G1 X102.020 Y83.389 E0.05509
G1 X101.168 Y83.586 E0.08227
G1 X100.584 Y83.659 E0.05544
G1 X99.999 Y83.683 E0.05510
G1 X99.414 Y83.659 E0.05510
G1 X98.549 Y83.534 E0.08227
G1 X97.978 Y83.389 E0.05544
G1 X97.425 Y83.199 E0.05509
G1 X96.889 Y82.964 E0.05509
G1 X96.371 Y82.684 E0.05543
G1 X95.649 Y82.190 E0.08227
G1 X94.994 Y81.612 E0.08227
G1 X94.595 Y81.179 E0.05544
G1 X94.236 Y80.717 E0.05509
G1 X93.773 Y79.975 E0.08227
G1 X93.512 Y79.443 E0.05578
G1 X93.212 Y78.622 E0.08227
G1 X93.014 Y77.771 E0.08228
G1 X92.942 Y77.187 E0.05543
G1 X92.917 Y76.602 E0.05510
G1 X92.942 Y76.017 E0.05510
G1 X93.067 Y75.152 E0.08227
G1 X93.212 Y74.581 E0.05544
G1 X93.403 Y74.024 E0.05544
G1 X93.512 Y73.762 E0.02668
G1 X93.839 Y73.112 E0.06857
G1 X94.237 Y72.485 E0.06988
G1 X94.595 Y72.025 E0.05488
G1 X94.994 Y71.591 E0.05544
G1 X95.649 Y71.013 E0.08227
G1 X96.371 Y70.520 E0.08227
G1 X96.889 Y70.240 E0.05543
G1 X97.425 Y70.004 E0.05509
G1 X97.980 Y69.814 E0.05522
G1 X98.395 Y69.706 E0.04038
G1 X98.832 Y69.617 E0.04204
G1 X99.412 Y69.544 E0.05501
G1 X100.137 Y69.523 E0.06822
G1 X100.877 Y69.575 E0.06989
G1 X101.452 Y69.671 E0.05488 F588.000
G1 X102.020 Y69.814 E0.05510
G1 X102.577 Y70.006 E0.05543
G1 X103.373 Y70.375 E0.08261
G1 X104.114 Y70.838 E0.08227
G1 X104.576 Y71.198 E0.05509
G1 X105.007 Y71.594 E0.05510
G1 X105.403 Y72.025 E0.05509
G1 X105.763 Y72.487 E0.05509
G1 X106.085 Y72.980 E0.05543
G1 X106.486 Y73.760 E0.08262
G1 X106.786 Y74.581 E0.08227
G1 X106.984 Y75.432 E0.08228
G1 X107.057 Y76.017 E0.05543
G1 X107.081 Y76.602 E0.05510
G1 X107.057 Y77.187 E0.05510
G1 X106.931 Y78.051 E0.08227
G1 X106.786 Y78.622 E0.05544
G1 X106.595 Y79.179 E0.05543
G1 X106.227 Y79.972 E0.08227
G1 X105.816 Y80.638 E0.07369
G1 X105.439 Y80.647 F7800.000
G1 E-2.00000 F1800.00000
G1 X98.696 Y81.851 F7800.000
G1 E2.00000 F1800.00000
G1 X94.747 Y77.902 E0.55704 F1080.000
G1 X94.560 Y76.779 E0.11359
G1 X99.822 Y82.041 E0.74226
G1 X100.730 Y82.012 E0.09060
G1 X94.586 Y75.868 E0.86673
G1 X94.738 Y75.084 E0.07968
G1 X101.520 Y81.865 E0.95664
G1 X102.215 Y81.624 E0.07340
G1 X94.980 Y74.390 E1.02051
G1 X95.293 Y73.766 E0.06961
G1 X102.833 Y81.306 E1.06367
G1 X103.397 Y80.933 E0.06741
G1 X95.671 Y73.207 E1.08988
G1 X96.123 Y72.723 E0.06609
G1 X103.881 Y80.480 E1.09426
G1 X104.327 Y79.990 E0.06612
G1 X96.605 Y72.268 E1.08927
G1 X97.162 Y71.889 E0.06724
G1 X104.709 Y79.436 E1.06451
G1 X105.021 Y78.812 E0.06961
G1 X97.787 Y71.578 E1.02047
G1 X98.485 Y71.339 E0.07358
G1 X105.261 Y78.115 E0.95586
G1 X105.413 Y77.331 E0.07971
G1 X99.270 Y71.188 E0.86659
G1 X100.187 Y71.168 E0.09152
G1 X105.438 Y76.419 E0.74068
G1 X105.250 Y75.294 E0.11377
G1 X101.307 Y71.351 E0.55621
G1 E-2.00000 F1800.00000
G1 X103.293 Y72.401 F7800.000
G1 E2.00000 F1800.00000
G1 X104.200 Y73.308 E0.12798 F1080.000
G1 E-2.00000 F1800.00000
G1 X96.706 Y80.798 F7800.000
G1 E2.00000 F1800.00000
G1 X95.780 Y79.872 E0.13058 F1080.000
G1 E-2.00000 F1800.00000
G1 X104.755 Y126.773 F7800.000
G1 E2.00000 F1800.00000
G1 X104.449 Y127.167 E0.04691 F840.000
G1 X103.961 Y127.678 E0.06647
G1 X103.581 Y128.000 E0.04692
G1 X103.175 Y128.289 E0.04692
G1 X102.560 Y128.637 E0.06647
G1 X102.119 Y128.830 E0.04536
G1 X101.663 Y128.987 E0.04536
G1 X100.975 Y129.148 E0.06647
G1 X100.481 Y129.209 E0.04692
G1 X99.999 Y129.229 E0.04536
G1 X99.518 Y129.209 E0.04536
G1 X98.819 Y129.109 E0.06647
G1 X98.335 Y128.987 E0.04692
G1 X97.880 Y128.830 E0.04536
G1 X97.438 Y128.637 E0.04536
G1 X97.000 Y128.399 E0.04692
G1 X96.418 Y128.000 E0.06648
G1 X95.887 Y127.534 E0.06647
G1 X95.550 Y127.167 E0.04692
G1 X95.254 Y126.787 E0.04536
G1 X94.878 Y126.188 E0.06648
G1 X94.652 Y125.726 E0.04848
G1 X94.411 Y125.062 E0.06646
G1 X94.250 Y124.374 E0.06648
G1 X94.188 Y123.880 E0.04691
G1 X94.168 Y123.398 E0.04537
G1 X94.188 Y122.917 E0.04537
G1 X94.288 Y122.218 E0.06646
G1 X94.411 Y121.735 E0.04693
G1 X94.573 Y121.263 E0.04692
G1 X94.927 Y120.526 E0.07702
G1 X95.260 Y120.002 E0.05841
G1 X95.550 Y119.630 E0.04438
G1 X95.887 Y119.263 E0.04692
G1 X96.418 Y118.797 E0.06647
G1 X97.000 Y118.397 E0.06648
G1 X97.438 Y118.160 E0.04692
G1 X97.880 Y117.966 E0.04536
G1 X98.341 Y117.808 E0.04592
G1 X98.677 Y117.720 E0.03271
G1 X99.034 Y117.648 E0.03430
G1 X99.508 Y117.589 E0.04495
G1 X100.112 Y117.571 E0.05682
G1 X100.731 Y117.614 E0.05841
G1 X101.196 Y117.692 E0.04438 F840.000
G1 X101.663 Y117.810 E0.04537
G1 X102.134 Y117.972 E0.04692
G1 X102.789 Y118.277 E0.06803
G1 X103.387 Y118.653 E0.06647
G1 X103.768 Y118.949 E0.04536
G1 X104.122 Y119.275 E0.04536
G1 X104.449 Y119.630 E0.04536
G1 X104.745 Y120.010 E0.04536
G1 X105.017 Y120.427 E0.04692
G1 X105.346 Y121.071 E0.06804
G1 X105.588 Y121.735 E0.06646
G1 X105.749 Y122.422 E0.06648
G1 X105.810 Y122.917 E0.04691
G1 X105.830 Y123.398 E0.04537
G1 X105.810 Y123.880 E0.04537
G1 X105.710 Y124.579 E0.06646
G1 X105.588 Y125.062 E0.04693
G1 X105.426 Y125.534 E0.04692
G1 X105.127 Y126.173 E0.06646
G1 X104.784 Y126.730 E0.06154
G1 X105.271 Y127.126 F7800.000
G1 X104.926 Y127.571 E0.05300 F840.000
G1 X104.380 Y128.142 E0.07437
G1 X103.965 Y128.493 E0.05118
G1 X103.522 Y128.809 E0.05118
G1 X102.835 Y129.199 E0.07437
G1 X102.346 Y129.413 E0.05023
G1 X101.841 Y129.586 E0.05023
G1 X101.072 Y129.765 E0.07437
G1 X100.532 Y129.833 E0.05118
G1 X99.999 Y129.855 E0.05023
G1 X99.466 Y129.833 E0.05023
G1 X98.684 Y129.720 E0.07437
G1 X98.157 Y129.586 E0.05118
G1 X97.652 Y129.413 E0.05023
G1 X97.164 Y129.199 E0.05023
G1 X96.685 Y128.940 E0.05118
G1 X96.034 Y128.493 E0.07437
G1 X95.441 Y127.971 E0.07437
G1 X95.072 Y127.571 E0.05118
G1 X94.745 Y127.150 E0.05023
G1 X94.325 Y126.480 E0.07438
G1 X94.082 Y125.983 E0.05213
G1 X93.811 Y125.241 E0.07437
G1 X93.632 Y124.471 E0.07438
G1 X93.565 Y123.931 E0.05117
G1 X93.543 Y123.398 E0.05023
G1 X93.565 Y122.865 E0.05023
G1 X93.678 Y122.083 E0.07436
G1 X93.811 Y121.556 E0.05119
G1 X93.988 Y121.042 E0.05118
G1 X94.080 Y120.819 E0.02268
G1 X94.383 Y120.217 E0.06347
G1 X94.749 Y119.642 E0.06415
G1 X95.072 Y119.226 E0.04963
G1 X95.441 Y118.826 E0.05118
G1 X96.034 Y118.303 E0.07437
G1 X96.685 Y117.857 E0.07437
G1 X97.164 Y117.598 E0.05118
G1 X97.652 Y117.384 E0.05023
G1 X98.160 Y117.209 E0.05057
G1 X98.536 Y117.111 E0.03654
G1 X98.933 Y117.030 E0.03817
G1 X99.460 Y116.965 E0.04998
G1 X100.124 Y116.945 E0.06252
G1 X100.804 Y116.993 E0.06415
G1 X101.324 Y117.079 E0.04963 F840.000
G1 X101.841 Y117.210 E0.05023
G1 X102.356 Y117.387 E0.05117
G1 X103.081 Y117.725 E0.07532
G1 X103.751 Y118.144 E0.07437
G1 X104.172 Y118.472 E0.05023
G1 X104.565 Y118.833 E0.05023
G1 X104.926 Y119.226 E0.05023
G1 X105.254 Y119.647 E0.05022
G1 X105.551 Y120.102 E0.05118
G1 X105.916 Y120.814 E0.07533
G1 X106.187 Y121.556 E0.07437
G1 X106.366 Y122.326 E0.07438
G1 X106.433 Y122.865 E0.05117
G1 X106.455 Y123.398 E0.05023
G1 X106.433 Y123.931 E0.05023
G1 X106.321 Y124.713 E0.07436
G1 X106.187 Y125.241 E0.05119
G1 X106.011 Y125.755 E0.05118
G1 X105.677 Y126.471 E0.07437
G1 X105.300 Y127.083 E0.06762
G1 X105.787 Y127.478 F7800.000
G1 X105.403 Y127.975 E0.05908 F588.000
G1 X104.798 Y128.606 E0.08227
G1 X104.349 Y128.987 E0.05544
G1 X103.870 Y129.329 E0.05544
G1 X103.109 Y129.760 E0.08227
G1 X102.573 Y129.996 E0.05509
G1 X102.020 Y130.186 E0.05509
G1 X101.168 Y130.383 E0.08227
G1 X100.584 Y130.456 E0.05544
G1 X99.999 Y130.480 E0.05510
G1 X99.414 Y130.456 E0.05510
G1 X98.549 Y130.330 E0.08227
G1 X97.978 Y130.186 E0.05544
G1 X97.425 Y129.996 E0.05509
G1 X96.889 Y129.760 E0.05509
G1 X96.371 Y129.480 E0.05543
G1 X95.649 Y128.987 E0.08227
G1 X94.994 Y128.409 E0.08227
G1 X94.595 Y127.975 E0.05544
G1 X94.236 Y127.513 E0.05509
G1 X93.773 Y126.772 E0.08227
G1 X93.512 Y126.240 E0.05578
G1 X93.212 Y125.419 E0.08227
G1 X93.014 Y124.567 E0.08228
G1 X92.942 Y123.983 E0.05543
G1 X92.917 Y123.398 E0.05510
G1 X92.942 Y122.813 E0.05510
G1 X93.067 Y121.949 E0.08227
G1 X93.212 Y121.378 E0.05544
G1 X93.403 Y120.821 E0.05544
G1 X93.512 Y120.559 E0.02668
G1 X93.839 Y119.908 E0.06857
G1 X94.237 Y119.281 E0.06988
G1 X94.595 Y118.821 E0.05488
G1 X94.994 Y118.388 E0.05544
G1 X95.649 Y117.810 E0.08227
G1 X96.371 Y117.316 E0.08227
G1 X96.889 Y117.036 E0.05543
G1 X97.425 Y116.801 E0.05509
G1 X97.980 Y116.611 E0.05522
G1 X98.395 Y116.502 E0.04038
G1 X98.832 Y116.413 E0.04204
G1 X99.412 Y116.341 E0.05501
G1 X100.137 Y116.320 E0.06822
G1 X100.877 Y116.371 E0.06989
G1 X101.452 Y116.467 E0.05488 F588.000
G1 X102.020 Y116.611 E0.05510
G1 X102.577 Y116.802 E0.05543
G1 X103.373 Y117.172 E0.08261
G1 X104.114 Y117.635 E0.08227
G1 X104.576 Y117.994 E0.05509
G1 X105.007 Y118.391 E0.05510
G1 X105.403 Y118.821 E0.05509
