; generated by Slic3r 1.2.9 on 2015-12-17 at 16:15:37

; external perimeters extrusion width = 0.35mm
; perimeters extrusion width = 0.39mm
; infill extrusion width = 0.39mm
; solid infill extrusion width = 0.39mm
; top infill extrusion width = 0.39mm
; support material extrusion width = 0.35mm

M190 S80 ; set bed temperature
M109 S230
G28 ; home all axes
G92 E0  ;reset extruder
G21 ; set units to millimeters
G90 ; use absolute coordinates
M83 ; use relative distances for extrusion
G1 E-2.00000 F1800.00000
G1 Z0.350 F7800.000
G1 X65.584 Y64.027 F7800.000
G1 E2.00000 F1800.00000
G1 X67.497 Y62.762 E0.21588 F1440.000
G1 X70.078 Y62.213 E0.24838
G1 X111.017 Y61.831 E3.85372
G1 X116.610 Y61.831 E0.52652
G1 X130.380 Y61.834 E1.29610 F1440.000
G1 X130.785 Y61.842 E0.03815
G1 X131.745 Y61.936 E0.09083
G1 X133.916 Y62.677 E0.21588
G1 X135.703 Y64.114 E0.21588
G1 X136.893 Y66.075 E0.21588
G1 X137.342 Y68.264 E0.21031
G1 X137.362 Y69.153 E0.08377
G1 X137.361 Y131.322 E5.85185
G1 X136.658 Y134.289 E0.28707
G1 X136.549 Y134.507 E0.02289
G1 X135.182 Y136.348 E0.21588
G1 X133.269 Y137.613 E0.21588
G1 X130.628 Y138.163 E0.25396
G1 X69.495 Y138.166 E5.75444
G1 X68.420 Y138.082 E0.10142
G1 X66.232 Y137.394 E0.21588
G1 X64.410 Y136.002 E0.21588
G1 X63.171 Y134.072 E0.21588
G1 X62.693 Y132.196 E0.18219
G1 X62.673 Y132.009 E0.01769
G1 X62.638 Y131.327 E0.06431
G1 X62.637 Y111.796 E1.83843
G1 X63.401 Y68.949 E4.03382
G1 X64.102 Y66.098 E0.27631
G1 X64.217 Y65.869 E0.02415
G1 X65.553 Y64.070 E0.21094
G1 E-2.00000 F1800.00000
G1 X69.373 Y111.691 F7800.000
G1 E2.00000 F1800.00000
G1 X69.265 Y111.908 E0.01002 F1440.000
G1 X69.265 Y112.584 F7800.000
G1 X69.712 Y111.691 E0.04137 F1440.000
G1 X70.052 Y111.691 E0.01405
G1 X69.265 Y113.261 E0.07273
G1 X69.265 Y113.938 F7800.000
G1 X70.391 Y111.691 E0.10408 F1440.000
G1 X70.730 Y111.691 E0.01405
G1 X69.265 Y114.615 E0.13544
G1 X69.265 Y115.292 F7800.000
G1 X71.069 Y111.691 E0.16679 F1440.000
G1 X71.409 Y111.691 E0.01405
G1 X69.265 Y115.969 E0.19814
G1 X69.265 Y116.646 F7800.000
G1 X71.748 Y111.691 E0.22950 F1440.000
G1 X72.087 Y111.691 E0.01405
G1 X69.265 Y117.323 E0.26085
G1 X69.496 Y117.538 E0.01308
G1 X72.427 Y111.691 E0.27080
G1 X72.766 Y111.691 E0.01405
G1 X69.835 Y117.538 E0.27080
G1 X70.175 Y117.538 E0.01405
G1 X73.105 Y111.691 E0.27080
G1 X73.444 Y111.691 E0.01405
G1 X70.514 Y117.538 E0.27080
G1 X70.853 Y117.538 E0.01405
G1 X73.784 Y111.691 E0.27080
G1 X74.123 Y111.691 E0.01405
G1 X71.193 Y117.538 E0.27080
G1 X71.532 Y117.538 E0.01405
G1 X74.462 Y111.691 E0.27080
G1 X74.802 Y111.691 E0.01405
G1 X71.871 Y117.538 E0.27080
G1 X72.210 Y117.538 E0.01405
G1 X75.033 Y111.906 E0.26085
G1 X75.033 Y112.583 F7800.000
G1 X72.550 Y117.538 E0.22950 F1440.000
G1 X72.889 Y117.538 E0.01405
G1 X75.033 Y113.260 E0.19814
G1 X75.033 Y113.937 F7800.000
G1 X73.228 Y117.538 E0.16679 F1440.000
G1 X73.568 Y117.538 E0.01405
G1 X75.033 Y114.614 E0.13544
G1 X75.033 Y115.291 F7800.000
G1 X73.907 Y117.538 E0.10408 F1440.000
G1 X74.246 Y117.538 E0.01405
G1 X75.033 Y115.968 E0.07273
G1 X75.033 Y116.645 F7800.000
G1 X74.585 Y117.538 E0.04137 F1440.000
G1 X75.033 Y117.321 E0.02059
G1 X74.925 Y117.538 E0.01002
G1 E-2.00000 F1800.00000
G1 X83.266 Y117.112 F7800.000
G1 E2.00000 F1800.00000
G1 X85.981 Y111.694 E0.25094 F1440.000
G1 X86.308 Y111.694 E0.01351
G1 X83.380 Y117.535 E0.27053
G1 X83.706 Y117.535 E0.01351
G1 X86.634 Y111.694 E0.27053
G1 X86.960 Y111.694 E0.01351
G1 X84.033 Y117.535 E0.27053
G1 X84.359 Y117.535 E0.01351
G1 X87.286 Y111.694 E0.27053
G1 X87.613 Y111.694 E0.01351
G1 X84.685 Y117.535 E0.27053
G1 X85.011 Y117.535 E0.01351
G1 X87.939 Y111.694 E0.27053
G1 X88.265 Y111.694 E0.01351
G1 X85.338 Y117.535 E0.27053
G1 X85.664 Y117.535 E0.01351
G1 X88.591 Y111.694 E0.27053
G1 X88.918 Y111.694 E0.01351
G1 X85.990 Y117.535 E0.27053
G1 X86.316 Y117.535 E0.01351
G1 X89.032 Y112.117 E0.25094
G1 X89.032 Y112.768 F7800.000
G1 X86.643 Y117.535 E0.22079 F1440.000
G1 X86.969 Y117.535 E0.01351
G1 X89.032 Y113.419 E0.19064
G1 X89.032 Y114.070 F7800.000
G1 X87.295 Y117.535 E0.16049 F1440.000
G1 X87.621 Y117.535 E0.01351
G1 X89.032 Y114.721 E0.13034
G1 X89.032 Y115.372 F7800.000
G1 X87.947 Y117.535 E0.10020 F1440.000
G1 X88.274 Y117.535 E0.01351
G1 X89.032 Y116.023 E0.07005
G1 X89.032 Y116.673 F7800.000
G1 X88.600 Y117.535 E0.03990 F1440.000
G1 X89.032 Y117.324 E0.01989
G1 X88.926 Y117.535 E0.00975
G1 E-2.00000 F1800.00000
G1 X83.266 Y116.461 F7800.000
G1 E2.00000 F1800.00000
G1 X85.655 Y111.694 E0.22079 F1440.000
G1 X85.329 Y111.694 E0.01351
G1 X83.266 Y115.810 E0.19064
G1 X83.266 Y115.159 F7800.000
G1 X85.003 Y111.694 E0.16049 F1440.000
G1 X84.676 Y111.694 E0.01351
G1 X83.266 Y114.508 E0.13034
G1 X83.266 Y113.857 F7800.000
G1 X84.350 Y111.694 E0.10019 F1440.000
G1 X84.024 Y111.694 E0.01351
G1 X83.266 Y113.206 E0.07005
G1 X83.266 Y112.556 F7800.000
G1 X83.698 Y111.694 E0.03990 F1440.000
G1 X83.372 Y111.694 E0.01351
G1 X83.266 Y111.905 E0.00975
G1 E-2.00000 F1800.00000
G1 X83.371 Y125.696 F7800.000
G1 E2.00000 F1800.00000
G1 X83.267 Y125.903 E0.00960 F1440.000
G1 X83.267 Y126.530 F7800.000
G1 X83.685 Y125.696 E0.03863 F1440.000
G1 X83.999 Y125.696 E0.01301
G1 X83.267 Y127.157 E0.06767
G1 X83.267 Y127.783 F7800.000
G1 X84.313 Y125.696 E0.09670 F1440.000
G1 X84.627 Y125.696 E0.01301
G1 X83.267 Y128.410 E0.12573
G1 X83.267 Y129.037 F7800.000
G1 X84.941 Y125.696 E0.15476 F1440.000
G1 X85.256 Y125.696 E0.01301
G1 X83.267 Y129.664 E0.18379
G1 X83.267 Y130.291 F7800.000
G1 X85.570 Y125.696 E0.21282 F1440.000
G1 X85.884 Y125.696 E0.01301
G1 X83.267 Y130.917 E0.24186
G1 X83.283 Y131.512 E0.02461
G1 X86.198 Y125.696 E0.26937
G1 X86.512 Y125.696 E0.01301
G1 X83.586 Y131.533 E0.27038
G1 X83.901 Y131.533 E0.01301
G1 X86.826 Y125.696 E0.27038
G1 X87.141 Y125.696 E0.01301
G1 X84.215 Y131.533 E0.27038
G1 X84.529 Y131.533 E0.01301
G1 X87.455 Y125.696 E0.27038
G1 X87.769 Y125.696 E0.01301
G1 X84.843 Y131.533 E0.27038
G1 X85.157 Y131.533 E0.01301
G1 X88.083 Y125.696 E0.27038
G1 X88.397 Y125.696 E0.01301
G1 X85.471 Y131.533 E0.27038
G1 X85.785 Y131.533 E0.01301
G1 X88.711 Y125.696 E0.27038
G1 X89.015 Y125.717 E0.01259
G1 X86.100 Y131.533 E0.26937
G1 X86.414 Y131.533 E0.01301
G1 X89.031 Y126.312 E0.24186
G1 X89.031 Y126.938 F7800.000
G1 X86.728 Y131.533 E0.21282 F1440.000
G1 X87.042 Y131.533 E0.01301
G1 X89.031 Y127.565 E0.18379
G1 X89.031 Y128.192 F7800.000
G1 X87.356 Y131.533 E0.15476 F1440.000
G1 X87.670 Y131.533 E0.01301
G1 X89.031 Y128.819 E0.12573
G1 X89.031 Y129.446 F7800.000
G1 X87.985 Y131.533 E0.09670 F1440.000
G1 X88.299 Y131.533 E0.01301
G1 X89.031 Y130.072 E0.06767
G1 X89.031 Y130.699 F7800.000
G1 X88.613 Y131.533 E0.03864 F1440.000
G1 X89.031 Y131.326 E0.01932
G1 X88.927 Y131.533 E0.00960
G1 E-2.00000 F1800.00000
G1 X74.926 Y131.535 F7800.000
G1 E2.00000 F1800.00000
G1 X75.032 Y131.324 E0.00975 F1440.000
G1 X74.612 Y131.535 E0.01944
G1 X75.032 Y130.698 E0.03878
G1 X75.032 Y130.071 E0.02595
G1 X74.298 Y131.535 E0.06782
G1 X73.984 Y131.535 E0.01301
G1 X75.032 Y129.444 E0.09685
G1 X75.032 Y128.817 E0.02595
G1 X73.670 Y131.535 E0.12588
G1 X73.355 Y131.535 E0.01301
G1 X75.032 Y128.190 E0.15491
G1 X75.032 Y127.564 E0.02595
G1 X73.041 Y131.535 E0.18394
G1 X72.727 Y131.535 E0.01301
G1 X75.032 Y126.937 E0.21297
G1 X75.032 Y126.310 E0.02595
G1 X72.413 Y131.535 E0.24201
G1 X72.099 Y131.535 E0.01301
G1 X75.015 Y125.716 E0.26952
G1 X74.712 Y125.694 E0.01259
G1 X71.785 Y131.535 E0.27053
G1 X71.470 Y131.535 E0.01301
G1 X74.398 Y125.694 E0.27053
G1 X74.084 Y125.694 E0.01301
G1 X71.156 Y131.535 E0.27053
G1 X70.842 Y131.535 E0.01301
G1 X73.770 Y125.694 E0.27053
G1 X73.455 Y125.694 E0.01301
G1 X70.528 Y131.535 E0.27053
G1 X70.214 Y131.535 E0.01301
G1 X73.141 Y125.694 E0.27053
G1 X72.827 Y125.694 E0.01301
G1 X69.900 Y131.535 E0.27053
G1 X69.586 Y131.535 E0.01301
G1 X72.513 Y125.694 E0.27053
G1 X72.199 Y125.694 E0.01301
G1 X69.282 Y131.513 E0.26952
G1 X69.266 Y130.919 E0.02461
G1 X71.885 Y125.694 E0.24200
G1 X71.571 Y125.694 E0.01301
G1 X69.266 Y130.292 E0.21297
G1 X69.266 Y129.665 E0.02595
G1 X71.256 Y125.694 E0.18394
G1 X70.942 Y125.694 E0.01301
G1 X69.266 Y129.039 E0.15491
G1 X69.266 Y128.412 E0.02595
G1 X70.628 Y125.694 E0.12588
G1 X70.314 Y125.694 E0.01301
G1 X69.266 Y127.785 E0.09684
G1 X69.266 Y127.158 E0.02595
G1 X70.000 Y125.694 E0.06781
G1 X69.686 Y125.694 E0.01301
G1 X69.266 Y126.531 E0.03878
G1 X69.266 Y125.905 E0.02595
G1 X69.371 Y125.694 E0.00975
G1 E-2.00000 F1800.00000
G1 X111.074 Y125.694 F7800.000
G1 E2.00000 F1800.00000
G1 X110.968 Y125.905 E0.00975 F1440.000
G1 X110.968 Y126.531 E0.02595
G1 X111.388 Y125.694 E0.03878
G1 X111.702 Y125.694 E0.01301
G1 X110.968 Y127.158 E0.06781
G1 X110.968 Y127.785 E0.02595
G1 X112.016 Y125.694 E0.09684
G1 X112.330 Y125.694 E0.01301
G1 X110.968 Y128.412 E0.12588
G1 X110.968 Y129.039 E0.02595
G1 X112.645 Y125.694 E0.15491
G1 X112.959 Y125.694 E0.01301
G1 X110.968 Y129.665 E0.18394
G1 X110.968 Y130.292 E0.02595
G1 X113.273 Y125.694 E0.21297
G1 X113.587 Y125.694 E0.01301
G1 X110.968 Y130.919 E0.24200
G1 X110.985 Y131.513 E0.02461
G1 X113.901 Y125.694 E0.26952
G1 X114.215 Y125.694 E0.01301
G1 X111.288 Y131.535 E0.27053
G1 X111.602 Y131.535 E0.01301
G1 X114.529 Y125.694 E0.27053
G1 X114.844 Y125.694 E0.01301
G1 X111.916 Y131.535 E0.27053
G1 X112.230 Y131.535 E0.01301
G1 X115.158 Y125.694 E0.27053
G1 X115.472 Y125.694 E0.01301
G1 X112.544 Y131.535 E0.27053
G1 X112.859 Y131.535 E0.01301
G1 X115.786 Y125.694 E0.27053
G1 X116.100 Y125.694 E0.01301
G1 X113.173 Y131.535 E0.27053
G1 X113.487 Y131.535 E0.01301
G1 X116.414 Y125.694 E0.27053
G1 X116.718 Y125.716 E0.01259
G1 X113.801 Y131.535 E0.26952
G1 X114.115 Y131.535 E0.01301
G1 X116.734 Y126.310 E0.24201
G1 X116.734 Y126.937 E0.02595
G1 X114.429 Y131.535 E0.21297
G1 X114.744 Y131.535 E0.01301
G1 X116.734 Y127.564 E0.18394
G1 X116.734 Y128.190 E0.02595
G1 X115.058 Y131.535 E0.15491
G1 X115.372 Y131.535 E0.01301
G1 X116.734 Y128.817 E0.12588
G1 X116.734 Y129.444 E0.02595
G1 X115.686 Y131.535 E0.09685
G1 X116.000 Y131.535 E0.01301
G1 X116.734 Y130.071 E0.06782
G1 X116.734 Y130.698 E0.02595
G1 X116.314 Y131.535 E0.03878
G1 X116.734 Y131.324 E0.01944
G1 X116.628 Y131.535 E0.00975
G1 E-2.00000 F1800.00000
G1 X124.969 Y130.291 F7800.000
G1 E2.00000 F1800.00000
G1 X127.272 Y125.696 E0.21282 F1440.000
G1 X127.586 Y125.696 E0.01301
G1 X124.969 Y130.917 E0.24186
G1 X124.985 Y131.512 E0.02461
G1 X127.900 Y125.696 E0.26937
G1 X128.215 Y125.696 E0.01301
G1 X125.289 Y131.533 E0.27038
G1 X125.603 Y131.533 E0.01301
G1 X128.529 Y125.696 E0.27038
G1 X128.843 Y125.696 E0.01301
G1 X125.917 Y131.533 E0.27038
G1 X126.231 Y131.533 E0.01301
G1 X129.157 Y125.696 E0.27038
G1 X129.471 Y125.696 E0.01301
G1 X126.545 Y131.533 E0.27038
G1 X126.859 Y131.533 E0.01301
G1 X129.785 Y125.696 E0.27038
G1 X130.099 Y125.696 E0.01301
G1 X127.174 Y131.533 E0.27038
G1 X127.488 Y131.533 E0.01301
G1 X130.414 Y125.696 E0.27038
G1 X130.717 Y125.717 E0.01259
G1 X127.802 Y131.533 E0.26937
G1 X128.116 Y131.533 E0.01301
G1 X130.733 Y126.312 E0.24186
G1 X130.733 Y126.938 F7800.000
G1 X128.430 Y131.533 E0.21282 F1440.000
G1 X128.744 Y131.533 E0.01301
G1 X130.733 Y127.565 E0.18379
G1 X130.733 Y128.192 F7800.000
G1 X129.059 Y131.533 E0.15476 F1440.000
G1 X129.373 Y131.533 E0.01301
G1 X130.733 Y128.819 E0.12573
G1 X130.733 Y129.446 F7800.000
G1 X129.687 Y131.533 E0.09670 F1440.000
G1 X130.001 Y131.533 E0.01301
G1 X130.733 Y130.072 E0.06767
G1 X130.733 Y130.699 F7800.000
G1 X130.315 Y131.533 E0.03864 F1440.000
G1 X130.733 Y131.326 E0.01932
G1 X130.629 Y131.533 E0.00960
G1 E-2.00000 F1800.00000
G1 X124.969 Y129.664 F7800.000
G1 E2.00000 F1800.00000
G1 X126.958 Y125.696 E0.18379 F1440.000
G1 X126.644 Y125.696 E0.01301
G1 X124.969 Y129.037 E0.15476
G1 X124.969 Y128.410 F7800.000
G1 X126.330 Y125.696 E0.12573 F1440.000
G1 X126.015 Y125.696 E0.01301
G1 X124.969 Y127.783 E0.09670
G1 X124.969 Y127.157 F7800.000
G1 X125.701 Y125.696 E0.06767 F1440.000
G1 X125.387 Y125.696 E0.01301
G1 X124.969 Y126.530 E0.03863
G1 X124.969 Y125.903 F7800.000
G1 X125.073 Y125.696 E0.00960 F1440.000
G1 E-2.00000 F1800.00000
G1 X124.968 Y117.112 F7800.000
G1 E2.00000 F1800.00000
G1 X127.684 Y111.694 E0.25094 F1440.000
G1 X128.010 Y111.694 E0.01351
G1 X125.082 Y117.535 E0.27053
G1 X125.409 Y117.535 E0.01351
G1 X128.336 Y111.694 E0.27053
G1 X128.662 Y111.694 E0.01351
G1 X125.735 Y117.535 E0.27053
G1 X126.061 Y117.535 E0.01351
G1 X128.989 Y111.694 E0.27053
G1 X129.315 Y111.694 E0.01351
G1 X126.387 Y117.535 E0.27053
G1 X126.714 Y117.535 E0.01351
G1 X129.641 Y111.694 E0.27053
G1 X129.967 Y111.694 E0.01351
G1 X127.040 Y117.535 E0.27053
G1 X127.366 Y117.535 E0.01351
G1 X130.294 Y111.694 E0.27053
G1 X130.620 Y111.694 E0.01351
G1 X127.692 Y117.535 E0.27053
G1 X128.019 Y117.535 E0.01351
G1 X130.734 Y112.117 E0.25094
G1 X130.734 Y112.768 F7800.000
G1 X128.345 Y117.535 E0.22079 F1440.000
G1 X128.671 Y117.535 E0.01351
G1 X130.734 Y113.419 E0.19064
G1 X130.734 Y114.070 F7800.000
G1 X128.997 Y117.535 E0.16049 F1440.000
G1 X129.324 Y117.535 E0.01351
G1 X130.734 Y114.721 E0.13034
G1 X130.734 Y115.372 F7800.000
G1 X129.650 Y117.535 E0.10020 F1440.000
G1 X129.976 Y117.535 E0.01351
G1 X130.734 Y116.023 E0.07005
G1 X130.734 Y116.673 F7800.000
G1 X130.302 Y117.535 E0.03990 F1440.000
G1 X130.734 Y117.324 E0.01989
G1 X130.628 Y117.535 E0.00975
G1 E-2.00000 F1800.00000
G1 X124.968 Y116.461 F7800.000
G1 E2.00000 F1800.00000
G1 X127.357 Y111.694 E0.22079 F1440.000
G1 X127.031 Y111.694 E0.01351
G1 X124.968 Y115.810 E0.19064
G1 X124.968 Y115.159 F7800.000
G1 X126.705 Y111.694 E0.16049 F1440.000
G1 X126.379 Y111.694 E0.01351
G1 X124.968 Y114.508 E0.13034
G1 X124.968 Y113.857 F7800.000
G1 X126.053 Y111.694 E0.10019 F1440.000
G1 X125.726 Y111.694 E0.01351
G1 X124.968 Y113.206 E0.07005
G1 X124.968 Y112.556 F7800.000
G1 X125.400 Y111.694 E0.03990 F1440.000
G1 X125.074 Y111.694 E0.01351
G1 X124.968 Y111.905 E0.00975
G1 E-2.00000 F1800.00000
G1 X116.735 Y111.906 F7800.000
G1 E2.00000 F1800.00000
G1 X113.913 Y117.538 E0.26085 F1440.000
G1 X113.573 Y117.538 E0.01405
G1 X116.504 Y111.691 E0.27080
G1 X116.165 Y111.691 E0.01405
G1 X113.234 Y117.538 E0.27080
G1 X112.895 Y117.538 E0.01405
G1 X115.825 Y111.691 E0.27080
G1 X115.486 Y111.691 E0.01405
G1 X112.556 Y117.538 E0.27080
G1 X112.216 Y117.538 E0.01405
G1 X115.147 Y111.691 E0.27080
G1 X114.807 Y111.691 E0.01405
G1 X111.877 Y117.538 E0.27080
G1 X111.538 Y117.538 E0.01405
G1 X114.468 Y111.691 E0.27080
G1 X114.129 Y111.691 E0.01405
G1 X111.198 Y117.538 E0.27080
G1 X110.967 Y117.323 E0.01308
G1 X113.790 Y111.691 E0.26085
G1 X113.450 Y111.691 E0.01405
G1 X110.967 Y116.646 E0.22950
G1 X110.967 Y115.969 F7800.000
G1 X113.111 Y111.691 E0.19814 F1440.000
G1 X112.772 Y111.691 E0.01405
G1 X110.967 Y115.292 E0.16679
G1 X110.967 Y114.615 F7800.000
G1 X112.432 Y111.691 E0.13544 F1440.000
G1 X112.093 Y111.691 E0.01405
G1 X110.967 Y113.938 E0.10408
G1 X110.967 Y113.261 F7800.000
G1 X111.754 Y111.691 E0.07273 F1440.000
G1 X111.415 Y111.691 E0.01405
G1 X110.967 Y112.584 E0.04137
G1 X110.967 Y111.908 F7800.000
G1 X111.075 Y111.691 E0.01002 F1440.000
G1 E-2.00000 F1800.00000
G1 X116.735 Y112.583 F7800.000
G1 E2.00000 F1800.00000
G1 X114.252 Y117.538 E0.22950 F1440.000
G1 X114.591 Y117.538 E0.01405
G1 X116.735 Y113.260 E0.19814
G1 X116.735 Y113.937 F7800.000
G1 X114.931 Y117.538 E0.16679 F1440.000
G1 X115.270 Y117.538 E0.01405
G1 X116.735 Y114.614 E0.13544
G1 X116.735 Y115.291 F7800.000
G1 X115.609 Y117.538 E0.10408 F1440.000
G1 X115.948 Y117.538 E0.01405
G1 X116.735 Y115.968 E0.07273
G1 X116.735 Y116.645 F7800.000
G1 X116.288 Y117.538 E0.04137 F1440.000
G1 X116.735 Y117.321 E0.02059
G1 X116.627 Y117.538 E0.01002
G1 E-2.00000 F1800.00000
G1 X116.628 Y88.306 F7800.000
G1 E2.00000 F1800.00000
G1 X116.734 Y88.095 E0.00975 F1440.000
G1 X116.314 Y88.306 E0.01944
G1 X116.734 Y87.469 E0.03878
G1 X116.734 Y86.842 E0.02595
G1 X116.000 Y88.306 E0.06782
G1 X115.686 Y88.306 E0.01301
G1 X116.734 Y86.215 E0.09685
G1 X116.734 Y85.588 E0.02595
G1 X115.372 Y88.306 E0.12588
G1 X115.058 Y88.306 E0.01301
G1 X116.734 Y84.961 E0.15491
