; generated by Slic3r 1.2.9 on 2016-01-09 at 16:46:28

; external perimeters extrusion width = 0.40mm
; perimeters extrusion width = 0.48mm
; infill extrusion width = 0.48mm
; solid infill extrusion width = 0.48mm
; top infill extrusion width = 0.48mm

M190 S80 ; set bed temperature
M109 S230
G28 ; home all axes
G92 E0  ;reset extruder
G21 ; set units to millimeters
G90 ; use absolute coordinates
M83 ; use relative distances for extrusion
G1 E-1.00000 F1800.00000
G1 Z0.350 F7800.000
G1 X72.316 Y73.237 F7800.000
G1 E1.00000 F1800.00000
G1 X86.614 Y59.120 E1.89135 F1440.000
G1 X88.500 Y57.815 E0.21588
G1 X91.623 Y57.218 E0.29923
G1 X114.869 Y58.462 E2.19130
G1 X116.931 Y58.909 E0.19863 F1440.000
G1 X118.804 Y59.642 E0.18935
G1 X120.750 Y60.824 E0.21425
G1 X132.971 Y71.515 E1.52843
G1 X134.700 Y73.897 E0.27702
G1 X134.774 Y74.070 E0.01776
G1 X135.147 Y75.225 E0.11424
G1 X141.697 Y104.423 E2.81672
G1 X141.849 Y105.535 E0.10562
G1 X141.977 Y108.038 E0.23586
G1 X142.124 Y115.532 E0.70555
G1 X141.554 Y118.350 E0.27064
G1 X141.449 Y118.586 E0.02437
G1 X141.051 Y119.345 E0.08062
G1 X137.130 Y125.772 E0.70863
G1 X136.521 Y126.614 E0.09782
G1 X130.594 Y133.583 E0.86118
G1 X128.828 Y135.046 E0.21588
G1 X127.584 Y135.595 E0.12801
G1 X116.161 Y139.285 E1.12997
G1 X115.619 Y139.435 E0.05292
G1 X102.090 Y142.568 E1.30716
G1 X98.974 Y142.538 E0.29336
G1 X78.460 Y137.358 E1.99152
G1 X76.095 Y136.226 E0.24685
G1 X75.528 Y135.799 E0.06677
G1 X74.742 Y135.102 E0.09894
G1 X63.549 Y123.470 E1.51941
G1 X62.121 Y121.205 E0.25207
G1 X58.351 Y111.163 E1.00966
G1 X57.938 Y109.189 E0.18987
G1 X57.879 Y108.092 E0.10339
G1 X58.262 Y105.490 E0.24758
G1 X66.446 Y82.805 E2.27005
G1 X68.002 Y78.936 E0.39248
G1 X68.619 Y77.538 E0.14384
G1 X70.024 Y75.501 E0.23301
G1 X72.274 Y73.280 E0.29754
G1 E-1.00000 F1800.00000
G1 X124.113 Y114.764 F7800.000
G1 E1.00000 F1800.00000
G1 X126.558 Y116.310 E0.27225 F840.000
G1 X126.571 Y116.562 E0.02371
G1 X129.842 Y118.580 E0.36186
G1 X129.928 Y119.436 E0.08103
G1 X129.985 Y121.338 E0.17911
G1 X129.835 Y121.396 E0.01507
G1 X127.390 Y121.924 E0.23547
G1 X122.306 Y117.636 E0.62609
G1 X121.290 Y118.088 E0.10468
G1 X117.847 Y118.805 E0.33107
G1 X120.944 Y122.132 E0.42782
G1 X124.766 Y126.785 E0.56687
G1 X124.336 Y127.952 E0.11711
G1 X122.947 Y128.312 E0.13502
G1 X115.578 Y118.323 E1.16852
G1 X114.009 Y118.907 E0.15756
G1 X112.859 Y118.241 E0.12511
G1 X112.645 Y119.004 E0.07463
G1 X112.368 Y118.844 E0.03009
G1 X110.584 Y120.485 E0.22817
G1 X115.079 Y130.035 E0.99356
G1 X114.166 Y131.262 E0.14402
G1 X114.003 Y131.322 E0.01634
G1 X112.457 Y131.001 E0.14861
G1 X109.116 Y120.709 E1.01847
G1 X109.021 Y120.667 E0.00977
G1 X107.736 Y116.674 E0.39486
G1 X105.777 Y120.574 E0.41078
G1 X105.177 Y121.034 E0.07114
G1 X105.954 Y125.449 E0.42197
G1 X104.241 Y127.136 E0.22630
G1 X104.093 Y127.215 E0.01574
G1 X103.130 Y126.525 E0.11153
G1 X101.225 Y128.326 E0.24673
G1 X101.248 Y132.834 E0.42434
G1 X101.229 Y133.445 E0.05759
G1 X100.440 Y134.130 E0.09833
G1 X100.128 Y133.611 E0.05700
G1 X100.482 Y129.324 E0.40496
G1 X97.588 Y130.887 E0.30968
G1 X97.159 Y130.975 E0.04118
G1 X96.550 Y130.767 E0.06055
G1 X96.228 Y130.171 E0.06382
G1 X95.249 Y129.282 E0.12448
G1 X95.596 Y127.911 E0.13315
G1 X94.475 Y127.339 E0.11852
G1 X95.362 Y124.217 E0.30550
G1 X91.216 Y126.084 E0.42797
G1 X89.792 Y125.546 E0.14334
G1 X91.278 Y122.075 E0.35535
G1 X92.486 Y119.844 E0.23886
G1 X88.972 Y118.446 E0.35595
G1 X89.080 Y118.308 E0.01645
G1 X88.410 Y117.210 E0.12106
G1 X95.534 Y109.017 E1.02197
G1 X93.618 Y106.849 E0.27231
G1 X90.397 Y109.020 E0.36560
G1 X88.903 Y107.499 E0.20064
G1 X86.119 Y109.090 E0.30188
G1 X82.710 Y107.518 E0.35332
G1 X84.090 Y104.973 E0.27246
G1 X67.092 Y109.126 E1.64705
G1 X66.747 Y108.911 E0.03823
G1 X66.082 Y108.153 E0.09492
G1 X66.771 Y106.831 E0.14024
G1 X70.862 Y106.112 E0.39102
G1 X71.069 Y105.262 E0.08232
G1 X72.564 Y103.778 E0.19826
G1 X80.876 Y103.235 E0.78411
G1 X80.785 Y103.024 E0.02166
G1 X87.391 Y102.635 E0.62288
G1 X87.347 Y99.480 E0.29697
G1 X80.725 Y99.277 E0.62360
G1 X80.324 Y99.410 E0.03977
G1 X71.846 Y99.127 E0.79842
G1 X72.943 Y98.204 E0.13493
G1 X74.861 Y97.089 E0.20888
G1 X74.924 Y96.182 E0.08564
G1 X77.183 Y96.497 E0.21471
G1 X80.244 Y97.102 E0.29367
G1 X81.071 Y94.171 E0.28665
G1 X80.382 Y93.915 E0.06920
G1 X80.186 Y92.481 E0.13629
G1 X78.035 Y91.737 E0.21422
G1 X77.693 Y90.832 E0.09111
G1 X78.330 Y89.770 E0.11655
G1 X75.038 Y88.372 E0.33661
G1 X75.423 Y88.107 E0.04399
G1 X74.743 Y86.135 E0.19635
G1 X79.175 Y85.140 E0.42753
G1 X83.576 Y88.311 E0.51060
G1 X85.141 Y85.482 E0.30431
G1 X84.565 Y84.990 E0.07126
G1 X84.823 Y84.164 E0.08148
G1 X86.871 Y82.913 E0.22588
G1 X88.050 Y84.472 E0.18400
G1 X89.333 Y80.792 E0.36685
G1 X92.287 Y81.258 E0.28150
G1 X87.189 Y71.642 E1.02453
G1 X87.659 Y70.385 E0.12631
G1 X88.210 Y69.617 E0.08893
G1 X88.353 Y69.612 E0.01351
G1 X93.172 Y71.497 E0.48710
G1 X91.792 Y67.464 E0.40128
G1 X92.036 Y66.580 E0.08630
G1 X92.742 Y67.206 E0.08886
G1 X94.475 Y73.984 E0.65848
G1 X96.167 Y81.105 E0.68899
G1 X98.990 Y78.497 E0.36172
G1 X98.913 Y77.990 E0.04829
G1 X99.483 Y77.303 E0.08404
G1 X99.423 Y76.904 E0.03803
G1 X100.740 Y77.862 E0.15332
G1 X100.831 Y79.564 E0.16045
G1 X103.044 Y79.236 E0.21059
G1 X104.834 Y79.767 E0.17576
G1 X105.028 Y77.606 E0.20423
G1 X106.653 Y75.384 E0.25911
G1 X107.284 Y71.833 E0.33948
G1 X107.761 Y71.838 E0.04487
G1 X107.893 Y71.962 E0.01700
G1 X107.666 Y73.285 E0.12641
G1 X109.540 Y74.002 E0.18884
G1 X111.255 Y75.552 E0.21760
G1 X113.913 Y67.442 E0.80337
G1 X114.726 Y66.878 E0.09316
G1 X115.035 Y66.999 E0.03119
G1 X115.272 Y67.954 E0.09261
G1 X109.924 Y80.475 E1.28164
G1 X112.654 Y80.087 E0.25956
G1 X113.828 Y82.505 E0.25298
G1 X119.693 Y72.404 E1.09939
G1 X120.521 Y72.091 E0.08325
G1 X120.838 Y73.337 E0.12097
G1 X117.303 Y78.190 E0.56520
G1 X122.577 Y78.972 E0.50186
G1 X124.084 Y77.307 E0.21140
G1 X127.158 Y77.815 E0.29323
G1 X127.368 Y80.898 E0.29088
G1 X119.880 Y86.824 E0.89888
G1 X119.893 Y87.261 E0.04118
G1 X109.706 Y94.889 E1.19789
G1 X113.295 Y96.597 E0.37412
G1 X120.323 Y93.374 E0.72776
G1 X121.647 Y94.364 E0.15563
G1 X125.476 Y93.012 E0.38229
G1 X126.237 Y95.290 E0.22602
G1 X128.514 Y94.736 E0.22057
G1 X129.340 Y94.604 E0.07871
G1 X129.900 Y95.467 E0.09685
G1 X129.839 Y96.539 E0.10110
G1 X126.605 Y97.052 E0.30826
G1 X129.282 Y100.117 E0.38304
G1 X130.124 Y102.152 E0.20731
G1 X131.309 Y102.162 E0.11150
G1 X131.787 Y102.489 E0.05455
G1 X129.130 Y103.987 E0.28708
G1 X131.039 Y105.572 E0.23359
G1 X131.018 Y106.617 E0.09844
G1 X133.696 Y107.138 E0.25684
G1 X133.740 Y108.001 E0.08134
G1 X126.057 Y106.714 E0.73325
G1 X120.399 Y105.275 E0.54953
G1 X120.289 Y105.321 E0.01126
G1 X118.988 Y104.955 E0.12716
G1 X118.000 Y107.952 E0.29705
G1 X132.665 Y113.523 E1.47668
G1 X133.421 Y114.875 E0.14586
G1 X131.910 Y115.221 E0.14585
G1 X125.677 Y112.025 E0.65935
G1 X124.143 Y114.712 E0.29123
G1 E-1.00000 F1800.00000
G1 X99.489 Y74.962 F7800.000
G1 E1.00000 F1800.00000
G1 X99.137 Y74.994 E0.03329 F840.000
G1 X98.849 Y73.073 E0.18285
G1 X99.438 Y73.373 E0.06220
G1 X99.487 Y74.902 E0.14402
G1 X83.975 Y109.904 F7800.000
G1 X84.137 Y110.223 E0.03364 F840.000
G1 X75.278 Y115.285 E0.96044
G1 X74.706 Y115.247 E0.05398
G1 X73.642 Y115.854 E0.11531
G1 X73.520 Y114.760 E0.10365
G1 X80.597 Y111.427 E0.73635
G1 X83.920 Y109.929 E0.34310
G1 E-1.00000 F1800.00000
G1 X83.584 Y125.361 F7800.000
G1 E1.00000 F1800.00000
G1 X83.872 Y125.577 E0.03385 F840.000
G1 X81.844 Y128.538 E0.33785
G1 X81.265 Y128.762 E0.05842
G1 X81.317 Y128.145 E0.05834
G1 X83.546 Y125.408 E0.33224
G1 E-1.00000 F1800.00000
G1 X90.089 Y126.326 F7800.000
G1 E1.00000 F1800.00000
G1 X87.243 Y131.234 E0.53403 F840.000
G1 X86.931 Y131.233 E0.02935
G1 X86.771 Y131.013 E0.02571
G1 X90.715 Y121.803 E0.94301
G1 X91.601 Y120.165 E0.17539
G1 X89.033 Y119.142 E0.26020
G1 X82.250 Y129.051 E1.13030
G1 X80.560 Y129.705 E0.17058
G1 X80.710 Y127.900 E0.17047
G1 X85.104 Y122.505 E0.65490
G1 X85.107 Y122.365 E0.01324
G1 X88.321 Y118.264 E0.49049
G1 X87.639 Y117.145 E0.12332
G1 X94.703 Y109.020 E1.01343
G1 X93.512 Y107.674 E0.16916
G1 X89.777 Y110.191 E0.42402
G1 X89.559 Y109.985 E0.02827
G1 X89.902 Y109.408 E0.06317
G1 X88.795 Y108.280 E0.14877
G1 X75.424 Y115.922 E1.44959
G1 X74.852 Y115.883 E0.05399
G1 X70.413 Y118.417 E0.48110
G1 X69.548 Y118.190 E0.08422
G1 X69.830 Y117.255 E0.09195
G1 X72.997 Y115.709 E0.33177
G1 X72.849 Y114.385 E0.12541
G1 X80.335 Y110.859 E0.77893
G1 X84.446 Y109.007 E0.42440
G1 X81.844 Y107.806 E0.26978
G1 X82.869 Y105.914 E0.20251
G1 X66.985 Y109.795 E1.53912
G1 X66.338 Y109.392 E0.07169
G1 X65.508 Y108.446 E0.11847
G1 X65.482 Y107.952 E0.04653
G1 X66.359 Y106.269 E0.17864
G1 X70.352 Y105.567 E0.38158
G1 X70.504 Y104.943 E0.06048
G1 X72.290 Y103.170 E0.23687
G1 X79.951 Y102.669 E0.72272
G1 X79.858 Y102.452 E0.02223
G1 X86.758 Y102.046 E0.65063
G1 X86.730 Y100.086 E0.18448
G1 X80.817 Y99.905 E0.55689
G1 X80.415 Y100.039 E0.03985
G1 X70.176 Y99.697 E0.96429
G1 X70.114 Y98.208 E0.14032
G1 X71.784 Y98.363 E0.15789
G1 X72.582 Y97.691 E0.09822
G1 X74.261 Y96.716 E0.18278
G1 X74.312 Y95.967 E0.07059
G1 X74.710 Y95.521 E0.05629
G1 X77.287 Y95.880 E0.24491
G1 X79.799 Y96.377 E0.24105
G1 X80.313 Y94.556 E0.17807
G1 X79.814 Y94.371 E0.05015
G1 X79.619 Y92.946 E0.13538
G1 X77.554 Y92.232 E0.20565
G1 X77.002 Y90.770 E0.14714
G1 X77.425 Y90.065 E0.07742
G1 X74.572 Y88.853 E0.29175
G1 X74.263 Y88.148 E0.07247
G1 X74.677 Y87.862 E0.04742
G1 X73.925 Y85.678 E0.21743
G1 X77.957 Y84.773 E0.38904
G1 X76.142 Y82.589 E0.26729
G1 X76.367 Y82.348 E0.03109
G1 X83.370 Y87.392 E0.81238
G1 X84.347 Y85.626 E0.18999
G1 X83.845 Y85.198 E0.06207
G1 X84.297 Y83.754 E0.14245
G1 X86.258 Y82.555 E0.21641
G1 X85.820 Y82.071 E0.06140
G1 X86.021 Y81.456 E0.06092
G1 X86.531 Y81.428 E0.04804
G1 X87.844 Y83.164 E0.20490
G1 X88.832 Y80.330 E0.28249
G1 X88.952 Y80.205 E0.01635
G1 X89.241 Y80.144 E0.02776
G1 X91.149 Y80.446 E0.18185
G1 X86.505 Y71.686 E0.93324
G1 X87.103 Y70.088 E0.16061
G1 X87.880 Y69.005 E0.12546
G1 X88.459 Y68.982 E0.05452
G1 X92.145 Y70.424 E0.37255
G1 X91.138 Y67.484 E0.29253
G1 X91.396 Y66.550 E0.09117
G1 X91.727 Y65.472 E0.10621
G1 X93.300 Y66.866 E0.19784
G1 X95.082 Y73.834 E0.67702
G1 X96.528 Y79.921 E0.58890
G1 X98.322 Y78.263 E0.22992
G1 X98.253 Y77.807 E0.04347
G1 X98.824 Y77.119 E0.08410
G1 X98.191 Y72.900 E0.40161
G1 X98.465 Y72.176 E0.07286
G1 X100.050 Y72.983 E0.16746
G1 X100.170 Y76.674 E0.34761
G1 X101.349 Y77.532 E0.13723
G1 X101.418 Y78.846 E0.12383
G1 X103.089 Y78.598 E0.15896
G1 X104.280 Y78.951 E0.11692
G1 X104.421 Y77.377 E0.14873
G1 X106.063 Y75.132 E0.26183
G1 X106.762 Y71.202 E0.37570
G1 X108.010 Y71.216 E0.11754
G1 X108.566 Y71.735 E0.07155
G1 X108.369 Y72.885 E0.10983
G1 X109.872 Y73.460 E0.15152
G1 X110.960 Y74.444 E0.13809
G1 X113.384 Y67.048 E0.73261
G1 X114.644 Y66.175 E0.14427
G1 X115.563 Y66.535 E0.09295
G1 X115.929 Y68.006 E0.14273
G1 X110.934 Y79.700 E1.19697
G1 X113.017 Y79.405 E0.19801
G1 X113.877 Y81.176 E0.18535
G1 X119.265 Y71.898 E1.00982
G1 X120.505 Y71.429 E0.12483
G1 X121.021 Y71.525 E0.04941
G1 X121.517 Y73.467 E0.18864
G1 X118.416 Y77.723 E0.49567
G1 X122.338 Y78.304 E0.37320
G1 X123.844 Y76.640 E0.21128
G1 X124.552 Y76.743 E0.06734
G1 X127.747 Y77.280 E0.30497
G1 X128.014 Y81.183 E0.36827
G1 X120.514 Y87.119 E0.90035
G1 X120.526 Y87.567 E0.04217
G1 X110.909 Y94.769 E1.13102
G1 X113.300 Y95.907 E0.24928
G1 X120.400 Y92.651 E0.73523
G1 X121.754 Y93.664 E0.15915
G1 X125.868 Y92.211 E0.41068
G1 X126.648 Y94.547 E0.23176
G1 X128.391 Y94.123 E0.16885
G1 X129.642 Y93.923 E0.11930
G1 X130.536 Y95.298 E0.15435
G1 X130.434 Y97.077 E0.16777
G1 X127.819 Y97.492 E0.24929
G1 X129.820 Y99.783 E0.28632
G1 X130.543 Y101.530 E0.17801
G1 X131.505 Y101.538 E0.09051
G1 X132.968 Y102.541 E0.16695
G1 X130.227 Y104.085 E0.29611
G1 X131.670 Y105.283 E0.17653
G1 X131.653 Y106.104 E0.07728
G1 X134.295 Y106.618 E0.25334
G1 X134.369 Y108.073 E0.13712
G1 X133.925 Y108.666 E0.06974
G1 X125.929 Y107.326 E0.76321
G1 X120.445 Y105.932 E0.53258
G1 X120.326 Y105.980 E0.01208
G1 X119.394 Y105.718 E0.09111
G1 X118.781 Y107.580 E0.18453
G1 X133.100 Y113.019 E1.44184
G1 X134.105 Y114.819 E0.19401
G1 X134.285 Y115.259 E0.04481
G1 X133.837 Y115.421 E0.04481
G1 X131.828 Y115.881 E0.19401
G1 X125.924 Y112.854 E0.62454
G1 X124.952 Y114.555 E0.18442
G1 X127.166 Y115.955 E0.24651
G1 X127.178 Y116.202 E0.02330
G1 X130.433 Y118.210 E0.36002
G1 X130.552 Y119.396 E0.11218
G1 X130.622 Y121.763 E0.22289
G1 X130.014 Y121.996 E0.06130
G1 X127.222 Y122.600 E0.26892
G1 X122.202 Y118.366 E0.61813
G1 X121.483 Y118.686 E0.07413
G1 X119.060 Y119.191 E0.23300
G1 X121.414 Y121.720 E0.32527
G1 X125.477 Y126.665 E0.60241
G1 X124.809 Y128.475 E0.18159
G1 X122.695 Y129.023 E0.20555
G1 X115.354 Y119.073 E1.16395
G1 X113.951 Y119.595 E0.14097
G1 X113.243 Y119.185 E0.07701
G1 X113.029 Y119.948 E0.07453
G1 X112.453 Y119.615 E0.06262
G1 X111.344 Y120.634 E0.14174
G1 X115.774 Y130.045 E0.97903
G1 X115.664 Y130.296 E0.02588
G1 X114.556 Y131.785 E0.17468
G1 X114.050 Y131.970 E0.05067
G1 X111.974 Y131.539 E0.19956
G1 X108.607 Y121.167 E1.02642
G1 X108.512 Y121.124 E0.00985
G1 X107.609 Y118.319 E0.27743
G1 X106.271 Y120.982 E0.28055
G1 X105.858 Y121.299 E0.04895
G1 X106.626 Y125.664 E0.41719
G1 X104.615 Y127.644 E0.26565
G1 X104.155 Y127.891 E0.04918
G1 X103.834 Y127.798 E0.03143
G1 X103.185 Y127.333 E0.07515
G1 X101.851 Y128.594 E0.17273
G1 X101.873 Y132.842 E0.39993
G1 X101.844 Y133.738 E0.08437
G1 X100.467 Y134.935 E0.17175
G1 X100.062 Y134.715 E0.04338
G1 X99.489 Y133.760 E0.10478
G1 X99.765 Y130.421 E0.31536
G1 X97.804 Y131.480 E0.20980
G1 X97.118 Y131.621 E0.06585
G1 X96.117 Y131.280 E0.09961
G1 X95.729 Y130.562 E0.07681
G1 X94.832 Y129.747 E0.11405
G1 X94.565 Y129.435 E0.03863
G1 X94.868 Y128.241 E0.11599
G1 X93.733 Y127.662 E0.11991
G1 X94.394 Y125.338 E0.22741
G1 X91.237 Y126.760 E0.32585
G1 X90.145 Y126.347 E0.10985
G1 X90.364 Y127.098 F7800.000
G1 X87.603 Y131.859 E0.51811 F588.000
G1 X86.613 Y131.858 E0.09319
G1 X86.057 Y131.093 E0.08902
G1 X90.151 Y121.531 E0.97913
G1 X90.717 Y120.485 E0.11192
G1 X89.266 Y119.908 E0.14699
G1 X82.657 Y129.564 E1.10150
G1 X80.137 Y130.538 E0.25427
G1 X79.880 Y130.345 E0.03029
G1 X80.103 Y127.655 E0.25401
G1 X84.483 Y122.278 E0.65288
G1 X84.486 Y122.144 E0.01262
G1 X87.562 Y118.219 E0.46935
G1 X86.867 Y117.080 E0.12557
G1 X93.872 Y109.024 E1.00489
G1 X93.407 Y108.498 E0.06601
G1 X87.810 Y112.270 E0.63532
G1 X87.592 Y112.064 E0.02827
G1 X89.119 Y109.502 E0.28069
G1 X88.687 Y109.062 E0.05805
G1 X75.571 Y116.558 E1.42200
G1 X74.998 Y116.519 E0.05401
G1 X70.502 Y119.086 E0.48736
G1 X68.763 Y118.630 E0.16922
G1 X69.310 Y116.813 E0.17865
G1 X72.327 Y115.341 E0.31601
G1 X72.178 Y114.010 E0.12602
G1 X80.074 Y110.291 E0.82150
G1 X82.940 Y109.000 E0.29590
G1 X81.527 Y108.348 E0.14652
G1 X81.117 Y108.032 E0.04870
G1 X81.186 Y107.708 E0.03117
G1 X81.648 Y106.856 E0.09125
G1 X66.877 Y110.465 E1.43120
G1 X65.929 Y109.874 E0.10516
G1 X64.896 Y108.695 E0.14754
G1 X64.849 Y107.815 E0.08298
G1 X65.948 Y105.707 E0.22373
G1 X69.841 Y105.022 E0.37215
G1 X69.939 Y104.624 E0.03863
G1 X72.015 Y102.561 E0.27549
G1 X79.026 Y102.103 E0.66132
G1 X78.930 Y101.881 E0.02280
G1 X86.125 Y101.457 E0.67838
G1 X86.114 Y100.693 E0.07199
G1 X80.909 Y100.533 E0.49019
G1 X80.506 Y100.667 E0.03993
G1 X69.755 Y100.308 E1.01257
G1 X69.573 Y100.226 E0.01876
G1 X69.467 Y97.698 E0.23822
G1 X69.929 Y97.563 E0.04532
G1 X71.581 Y97.717 E0.15620
G1 X72.221 Y97.178 E0.07872
G1 X73.660 Y96.342 E0.15669
G1 X73.704 Y95.711 E0.05949
G1 X74.466 Y94.856 E0.10784
G1 X77.391 Y95.264 E0.27801
G1 X79.355 Y95.652 E0.18843
G1 X79.555 Y94.942 E0.06949
G1 X79.245 Y94.827 E0.03109
G1 X79.052 Y93.411 E0.13447
G1 X77.073 Y92.727 E0.19708
G1 X76.310 Y90.708 E0.20317
G1 X76.519 Y90.359 E0.03829
G1 X74.099 Y89.331 E0.24754
G1 X73.483 Y87.926 E0.14439
G1 X73.932 Y87.617 E0.05130
G1 X73.106 Y85.222 E0.23851
G1 X76.824 Y84.387 E0.35864
G1 X74.470 Y81.555 E0.34661
G1 X74.920 Y80.535 E0.10495
G1 X83.164 Y86.474 E0.95634
G1 X83.553 Y85.770 E0.07567
G1 X83.126 Y85.406 E0.05287
